;FLAVOR:Marlin
;TIME:1151
;Filament used: 0.833161m, 0m
;Layer height: 0.4
;MINX:129.143
;MINY:129.485
;MINZ:0.3
;MAXX:169.2
;MAXY:169.752
;MAXZ:35.5
;TARGET_MACHINE.NAME:Unknown
;Generated with Cura_SteamEngine 5.12.0
START_PRINT BED_TEMP=60 EXTRUDER_TEMP=200
M82 ;absolute extrusion mode
G92 E0
G92 E0
G1 F1500 E-6.5
;LAYER_COUNT:88
;LAYER:0
M107
G0 F1800 X133.915 Y136.43 Z0.3
;TYPE:SKIRT
G1 F1500 E0
G1 F1800 X135.359 Y135.035 E0.03777
G1 X136.391 Y134.206 E0.06267
G1 X137.267 Y133.592 E0.08279
G1 X138.636 Y132.775 E0.11278
G1 X139.739 Y132.22 E0.13601
G1 X140.807 Y131.758 E0.15789
G1 X141.672 Y131.431 E0.17529
G1 X142.721 Y131.094 E0.19601
G1 X143.9 Y130.782 E0.21896
G1 X144.148 Y130.622 E0.22451
G1 X145.412 Y129.983 E0.25115
G1 X147.265 Y129.529 E0.28704
G1 X149.286 Y129.485 E0.32506
G1 X149.854 Y129.502 E0.33575
G1 X151.917 Y129.712 E0.37476
G1 X153.538 Y130.05 E0.40591
G1 X154.396 Y130.287 E0.42265
G1 X156.032 Y130.862 E0.45527
G1 X156.772 Y131.172 E0.47036
G1 X158.488 Y132.059 E0.5067
G1 X159.278 Y132.54 E0.52409
G1 X160.431 Y133.349 E0.55059
G1 X161.368 Y134.097 E0.57314
G1 X162.244 Y134.907 E0.59559
G1 X163.543 Y136.332 E0.63186
G1 X164.085 Y137.003 E0.64808
G1 X164.709 Y137.85 E0.66787
G1 X165.455 Y139.002 E0.69369
G1 X165.964 Y139.357 E0.70536
G1 X167.489 Y141.367 E0.75282
G1 X168.267 Y143.386 E0.79352
G1 X168.571 Y144.38 E0.81307
G1 X169.038 Y146.738 E0.85829
G1 X169.161 Y147.982 E0.8818
G1 X169.2 Y148.887 E0.89884
G1 X169.138 Y150.938 E0.93744
G1 X169.033 Y151.874 E0.95516
G1 X168.744 Y153.526 E0.98671
G1 X168.523 Y154.391 E1.0035
G1 X167.93 Y156.195 E1.03922
G1 X167.583 Y157.017 E1.056
G1 X167.053 Y158.089 E1.0785
G1 X166.365 Y159.297 E1.10465
G1 X165.765 Y160.223 E1.1254
G1 X165.168 Y161.052 E1.14462
G1 X164.275 Y162.157 E1.17135
G1 X164.203 Y162.234 E1.17333
G1 X163.793 Y163.259 E1.19409
G1 X162.783 Y164.569 E1.22521
G1 X161.737 Y165.556 E1.25226
G1 X159.833 Y166.93 E1.29643
G1 X158.928 Y167.451 E1.31607
G1 X157.947 Y167.937 E1.33667
G1 X156.293 Y168.611 E1.37026
G1 X155.184 Y168.981 E1.39225
G1 X154.038 Y169.291 E1.41459
G1 X153.321 Y169.441 E1.42837
G1 X151.614 Y169.682 E1.46079
G1 X150.95 Y169.735 E1.47332
G1 X148.949 Y169.752 E1.51096
G1 X147.597 Y169.634 E1.53649
G1 X146.459 Y169.463 E1.55814
G1 X145.451 Y169.249 E1.57752
G1 X144.201 Y168.929 E1.60179
G1 X143.231 Y168.616 E1.62097
G1 X142.028 Y168.125 E1.64541
G1 X140.587 Y167.968 E1.67268
G1 X138.495 Y167.132 E1.71505
G1 X136.874 Y166.027 E1.75196
G1 X136.331 Y165.604 E1.7649
G1 X135.345 Y164.744 E1.78951
G1 X134.95 Y164.366 E1.7998
G1 X133.831 Y163.144 E1.83097
G1 X133.05 Y162.147 E1.85479
G1 X132.457 Y161.31 E1.87408
G1 X131.845 Y160.315 E1.89606
G1 X131.033 Y158.763 E1.92901
G1 X130.563 Y157.64 E1.95191
G1 X130.207 Y156.623 E1.97217
G1 X129.832 Y155.277 E1.99846
G1 X129.629 Y154.339 E2.01651
G1 X129.504 Y153.593 E2.03074
G1 X129.355 Y151.972 E2.06136
G1 X129.306 Y151.071 E2.07833
G1 X129.3 Y150.275 E2.09331
G1 X129.376 Y148.864 E2.11989
G1 X129.162 Y148.207 E2.13288
G1 X129.143 Y146.177 E2.17107
G1 X129.296 Y144.794 E2.19725
G1 X129.95 Y142.826 E2.23625
G1 X130.488 Y141.535 E2.26256
G1 X131.433 Y139.711 E2.30121
G1 X131.984 Y138.861 E2.32026
G1 X132.989 Y137.509 E2.35195
G1 X133.915 Y136.43 E2.37869
G0 X134.219 Y136.691
G1 X135.61 Y135.347 E2.41508
G1 X136.621 Y134.534 E2.43948
G1 X137.497 Y133.92 E2.4596
G1 X138.816 Y133.132 E2.48851
G1 X139.898 Y132.587 E2.5113
G1 X140.949 Y132.132 E2.53284
G1 X141.794 Y131.812 E2.54984
G1 X142.824 Y131.481 E2.57019
G1 X143.837 Y131.212 E2.5899
G1 X144.036 Y131.171 E2.59372
G1 X144.329 Y130.979 E2.60031
G1 X145.551 Y130.361 E2.62607
G1 X147.319 Y129.928 E2.66031
G1 X149.274 Y129.885 E2.69709
G1 X149.842 Y129.902 E2.70778
G1 X151.876 Y130.11 E2.74624
G1 X153.431 Y130.436 E2.77613
G1 X154.289 Y130.673 E2.79287
G1 X155.877 Y131.231 E2.82454
G1 X156.617 Y131.541 E2.83963
G1 X158.28 Y132.401 E2.87485
G1 X159.07 Y132.882 E2.89224
G1 X160.181 Y133.662 E2.91778
G1 X161.118 Y134.41 E2.94033
G1 X161.949 Y135.177 E2.9616
G1 X163.232 Y136.583 E2.99741
G1 X163.763 Y137.24 E3.0133
G1 X164.373 Y138.068 E3.03264
G1 X165.161 Y139.284 E3.0599
G1 X165.682 Y139.648 E3.07185
G1 X167.137 Y141.566 E3.11714
G1 X167.884 Y143.503 E3.15619
G1 X168.188 Y144.497 E3.17574
G1 X168.64 Y146.777 E3.21947
G1 X168.761 Y147.999 E3.24257
G1 X168.8 Y148.904 E3.25961
G1 X168.74 Y150.893 E3.29704
G1 X168.635 Y151.829 E3.31475
G1 X168.356 Y153.427 E3.34527
G1 X168.135 Y154.292 E3.36206
G1 X167.561 Y156.039 E3.39665
G1 X167.214 Y156.861 E3.41344
G1 X166.705 Y157.891 E3.43505
G1 X166.029 Y159.079 E3.46076
G1 X165.429 Y160.005 E3.48151
G1 X164.857 Y160.801 E3.49995
G1 X163.964 Y161.906 E3.52668
G1 X163.861 Y162.013 E3.52947
G1 X163.443 Y163.059 E3.55066
G1 X162.508 Y164.279 E3.57957
G1 X161.503 Y165.232 E3.60563
G1 X159.633 Y166.583 E3.64902
G1 X158.728 Y167.104 E3.66866
G1 X157.77 Y167.578 E3.68877
G1 X156.166 Y168.232 E3.72135
G1 X155.079 Y168.595 E3.74291
G1 X153.956 Y168.899 E3.76479
G1 X153.239 Y169.049 E3.77857
G1 X151.582 Y169.283 E3.81005
G1 X150.918 Y169.336 E3.82258
G1 X148.984 Y169.353 E3.85896
G1 X147.656 Y169.238 E3.88404
G1 X146.518 Y169.067 E3.90568
G1 X145.55 Y168.862 E3.9243
G1 X144.324 Y168.548 E3.9481
G1 X143.354 Y168.235 E3.96727
G1 X142.125 Y167.733 E3.99225
G1 X140.681 Y167.576 E4.01957
G1 X138.687 Y166.779 E4.05996
G1 X137.12 Y165.711 E4.09563
G1 X136.577 Y165.288 E4.10858
G1 X135.622 Y164.455 E4.13242
G1 X135.227 Y164.077 E4.1427
G1 X134.146 Y162.897 E4.17281
G1 X133.365 Y161.9 E4.19663
G1 X132.798 Y161.1 E4.21507
G1 X132.186 Y160.105 E4.23705
G1 X131.388 Y158.578 E4.26946
G1 X130.941 Y157.508 E4.29127
G1 X130.585 Y156.491 E4.31154
G1 X130.223 Y155.192 E4.3369
G1 X130.024 Y154.273 E4.35459
G1 X129.899 Y153.527 E4.36882
G1 X129.754 Y151.95 E4.39861
G1 X129.706 Y151.068 E4.41523
G1 X129.7 Y150.272 E4.4302
G1 X129.779 Y148.811 E4.45772
G1 X129.561 Y148.143 E4.47094
G1 X129.541 Y146.221 E4.50709
G1 X129.689 Y144.88 E4.53247
G1 X130.33 Y142.952 E4.57069
G1 X130.843 Y141.719 E4.59581
G1 X131.769 Y139.929 E4.63372
G1 X132.32 Y139.079 E4.65278
G1 X133.293 Y137.77 E4.68346
G1 X134.219 Y136.691 E4.7102
G0 X134.523 Y136.952
G1 X135.888 Y135.635 E4.74588
G1 X136.851 Y134.862 E4.76911
G1 X137.727 Y134.248 E4.78923
G1 X139.021 Y133.476 E4.81758
G1 X140.057 Y132.954 E4.8394
G1 X141.091 Y132.506 E4.8606
G1 X141.916 Y132.193 E4.87719
G1 X142.927 Y131.868 E4.89717
G1 X143.918 Y131.604 E4.91646
G1 X144.193 Y131.547 E4.92174
G1 X144.509 Y131.336 E4.92889
G1 X145.688 Y130.74 E4.95374
G1 X147.373 Y130.327 E4.98638
G1 X149.262 Y130.285 E5.02192
G1 X149.83 Y130.302 E5.03261
G1 X151.794 Y130.502 E5.06974
G1 X153.324 Y130.822 E5.09914
G1 X154.182 Y131.059 E5.11589
G1 X155.723 Y131.6 E5.14661
G1 X156.433 Y131.896 E5.16108
G1 X158.072 Y132.743 E5.19578
G1 X158.84 Y133.21 E5.21269
G1 X159.931 Y133.975 E5.23776
G1 X160.868 Y134.723 E5.26031
G1 X161.677 Y135.471 E5.28103
G1 X162.936 Y136.852 E5.31619
G1 X163.441 Y137.477 E5.3313
G1 X164.037 Y138.286 E5.3502
G1 X164.867 Y139.566 E5.3789
G1 X165.4 Y139.939 E5.39114
G1 X166.785 Y141.765 E5.43425
G1 X167.501 Y143.62 E5.47165
G1 X167.805 Y144.614 E5.4912
G1 X168.242 Y146.817 E5.53345
G1 X168.361 Y148.016 E5.55611
G1 X168.4 Y148.921 E5.57315
G1 X168.342 Y150.848 E5.60942
G1 X168.237 Y151.784 E5.62714
G1 X167.968 Y153.328 E5.65662
G1 X167.747 Y154.193 E5.67341
G1 X167.192 Y155.883 E5.70687
G1 X166.845 Y156.705 E5.72365
G1 X166.357 Y157.693 E5.74438
G1 X165.693 Y158.861 E5.76966
G1 X165.093 Y159.787 E5.79041
G1 X164.546 Y160.55 E5.80807
G1 X163.675 Y161.629 E5.83415
G1 X163.52 Y161.791 E5.83837
G1 X163.093 Y162.859 E5.86001
G1 X162.232 Y163.989 E5.88673
G1 X161.268 Y164.908 E5.91178
G1 X159.433 Y166.236 E5.95439
G1 X158.528 Y166.757 E5.97404
G1 X157.593 Y167.219 E5.99365
G1 X156.015 Y167.862 E6.02571
G1 X154.974 Y168.209 E6.04635
G1 X153.874 Y168.507 E6.06778
G1 X153.157 Y168.657 E6.08156
G1 X151.55 Y168.884 E6.11209
G1 X150.886 Y168.937 E6.12462
G1 X149.018 Y168.954 E6.15976
G1 X147.715 Y168.842 E6.18436
G1 X146.577 Y168.671 E6.20601
G1 X145.649 Y168.475 E6.22385
G1 X144.447 Y168.167 E6.24719
G1 X143.477 Y167.854 E6.26636
G1 X142.209 Y167.335 E6.29214
G1 X142.115 Y167.332 E6.29391
G1 X140.775 Y167.183 E6.31927
G1 X138.879 Y166.426 E6.35767
G1 X137.366 Y165.395 E6.39211
G1 X136.823 Y164.972 E6.40506
G1 X135.899 Y164.166 E6.42812
G1 X135.504 Y163.788 E6.43841
G1 X134.461 Y162.65 E6.46744
G1 X133.68 Y161.653 E6.49127
G1 X133.139 Y160.89 E6.50886
G1 X132.527 Y159.895 E6.53083
G1 X131.757 Y158.424 E6.56206
G1 X131.319 Y157.376 E6.58343
G1 X130.963 Y156.359 E6.6037
G1 X130.614 Y155.107 E6.62815
G1 X130.419 Y154.207 E6.64547
G1 X130.294 Y153.461 E6.6597
G1 X130.153 Y151.928 E6.68866
G1 X130.106 Y151.065 E6.70491
G1 X130.1 Y150.269 E6.71989
G1 X130.182 Y148.758 E6.74835
G1 X129.96 Y148.078 E6.76181
G1 X129.939 Y146.265 E6.79591
G1 X130.082 Y144.966 E6.8205
G1 X130.71 Y143.078 E6.85792
G1 X131.198 Y141.903 E6.88186
G1 X132.105 Y140.147 E6.91903
G1 X132.656 Y139.297 E6.93809
G1 X133.597 Y138.031 E6.96776
G1 X134.523 Y136.952 E6.99451
G0 X134.827 Y137.213
G1 X136.139 Y135.947 E7.0288
G1 X137.081 Y135.19 E7.05153
G1 X137.957 Y134.576 E7.07166
G1 X139.201 Y133.833 E7.09891
G1 X140.216 Y133.321 E7.1203
G1 X141.233 Y132.88 E7.14115
G1 X142.039 Y132.574 E7.15737
G1 X143.03 Y132.255 E7.17695
G1 X144.021 Y131.991 E7.19624
G1 X144.352 Y131.923 E7.2026
G1 X144.69 Y131.693 E7.21029
G1 X145.827 Y131.118 E7.23426
G1 X147.427 Y130.726 E7.26524
G1 X149.25 Y130.685 E7.29954
G1 X149.818 Y130.702 E7.31023
G1 X151.712 Y130.894 E7.34604
G1 X153.217 Y131.208 E7.37496
G1 X154.075 Y131.445 E7.3917
G1 X155.57 Y131.969 E7.4215
G1 X156.249 Y132.251 E7.43533
G1 X157.864 Y133.085 E7.46952
G1 X158.632 Y133.552 E7.48643
G1 X159.681 Y134.288 E7.51054
G1 X160.618 Y135.036 E7.53309
G1 X161.381 Y135.74 E7.55262
G1 X162.64 Y137.121 E7.58777
G1 X163.119 Y137.714 E7.60211
G1 X163.702 Y138.505 E7.62059
G1 X164.494 Y139.719 E7.64786
G1 X164.559 Y139.839 E7.65043
G1 X165.118 Y140.23 E7.66326
G1 X166.433 Y141.964 E7.70419
G1 X167.118 Y143.737 E7.73995
G1 X167.422 Y144.731 E7.7595
G1 X167.844 Y146.857 E7.80027
G1 X167.961 Y148.033 E7.8225
G1 X168 Y148.938 E7.83954
G1 X167.944 Y150.803 E7.87464
G1 X167.839 Y151.739 E7.89236
G1 X167.58 Y153.229 E7.92081
G1 X167.359 Y154.094 E7.9376
G1 X166.823 Y155.727 E7.96993
G1 X166.476 Y156.549 E7.98671
G1 X166.009 Y157.495 E8.00656
G1 X165.357 Y158.643 E8.03139
G1 X164.757 Y159.569 E8.05215
G1 X164.234 Y160.299 E8.06904
G1 X163.386 Y161.352 E8.09447
G1 X163.179 Y161.568 E8.1001
G1 X162.743 Y162.659 E8.1222
G1 X161.956 Y163.699 E8.14673
G1 X160.992 Y164.618 E8.17179
G1 X159.233 Y165.889 E8.21261
G1 X158.328 Y166.41 E8.23225
G1 X157.416 Y166.86 E8.25138
G1 X155.888 Y167.483 E8.28242
G1 X154.869 Y167.823 E8.30263
G1 X153.792 Y168.115 E8.32362
G1 X153.075 Y168.265 E8.3374
G1 X151.518 Y168.485 E8.36697
G1 X150.854 Y168.538 E8.3795
G1 X149.015 Y168.554 E8.4141
G1 X147.774 Y168.446 E8.43753
G1 X146.636 Y168.275 E8.45918
G1 X145.748 Y168.088 E8.47625
G1 X144.57 Y167.786 E8.49912
G1 X143.6 Y167.473 E8.5183
G1 X142.292 Y166.937 E8.54489
G1 X142.159 Y166.934 E8.54739
G1 X140.873 Y166.791 E8.57173
G1 X139.064 Y166.069 E8.60837
G1 X137.612 Y165.079 E8.64142
G1 X137.069 Y164.656 E8.65437
G1 X136.176 Y163.877 E8.67666
G1 X135.781 Y163.499 E8.68695
G1 X134.756 Y162.38 E8.71549
G1 X134.006 Y161.421 E8.73839
G1 X133.48 Y160.68 E8.75549
G1 X132.868 Y159.685 E8.77746
G1 X132.126 Y158.27 E8.80751
G1 X131.697 Y157.244 E8.82843
G1 X131.341 Y156.227 E8.8487
G1 X131.005 Y155.022 E8.87223
G1 X130.814 Y154.141 E8.88919
G1 X130.689 Y153.395 E8.90342
G1 X130.552 Y151.906 E8.93154
G1 X130.506 Y151.062 E8.94744
G1 X130.5 Y150.266 E8.96242
G1 X130.585 Y148.705 E8.99182
G1 X130.359 Y148.013 E9.00552
G1 X130.337 Y146.309 E9.03757
G1 X130.475 Y145.052 E9.06136
G1 X131.09 Y143.204 E9.098
G1 X131.554 Y142.086 E9.12077
G1 X132.441 Y140.365 E9.15719
G1 X132.992 Y139.515 E9.17624
G1 X133.901 Y138.292 E9.2049
G1 X134.827 Y137.213 E9.23165
G0 X135.131 Y137.474
G1 X136.39 Y136.259 E9.26456
G1 X137.311 Y135.518 E9.2868
G1 X138.187 Y134.904 E9.30692
G1 X139.406 Y134.177 E9.33362
G1 X140.375 Y133.688 E9.35404
G1 X141.375 Y133.254 E9.37454
G1 X142.162 Y132.955 E9.39038
G1 X143.133 Y132.642 E9.40957
G1 X144.124 Y132.378 E9.42886
G1 X144.513 Y132.299 E9.43633
G1 X144.87 Y132.05 E9.44451
G1 X145.968 Y131.495 E9.46766
G1 X147.477 Y131.125 E9.49688
G1 X149.238 Y131.085 E9.53002
G1 X149.806 Y131.102 E9.54071
G1 X151.671 Y131.292 E9.57597
G1 X153.11 Y131.594 E9.60363
G1 X153.968 Y131.831 E9.62037
G1 X155.417 Y132.339 E9.64925
G1 X156.066 Y132.607 E9.66246
G1 X157.656 Y133.427 E9.69611
G1 X158.402 Y133.88 E9.71253
G1 X159.431 Y134.601 E9.73617
G1 X160.368 Y135.349 E9.75872
G1 X161.109 Y136.034 E9.7777
G1 X162.329 Y137.373 E9.81178
G1 X162.797 Y137.951 E9.82577
G1 X163.367 Y138.724 E9.84383
G1 X164.159 Y139.938 E9.8711
G1 X164.25 Y140.111 E9.87477
G1 X164.836 Y140.521 E9.88823
G1 X166.081 Y142.163 E9.92699
G1 X166.735 Y143.854 E9.96109
G1 X167.039 Y144.848 E9.98065
G1 X167.446 Y146.897 E10.01994
G1 X167.561 Y148.05 E10.04174
G1 X167.6 Y148.955 E10.05878
G1 X167.546 Y150.758 E10.09271
G1 X167.441 Y151.694 E10.11043
G1 X167.192 Y153.13 E10.13784
G1 X166.971 Y153.995 E10.15463
G1 X166.454 Y155.571 E10.18583
G1 X166.107 Y156.393 E10.20262
G1 X165.661 Y157.297 E10.22158
G1 X165.009 Y158.445 E10.24641
G1 X164.432 Y159.336 E10.26638
G1 X163.922 Y160.048 E10.28286
G1 X163.097 Y161.075 E10.30764
G1 X162.838 Y161.345 E10.31467
G1 X162.393 Y162.459 E10.33724
G1 X161.679 Y163.41 E10.35961
G1 X160.757 Y164.294 E10.38363
G1 X159.033 Y165.542 E10.42367
G1 X158.128 Y166.063 E10.44331
G1 X157.239 Y166.501 E10.46195
G1 X155.761 Y167.104 E10.49198
G1 X154.764 Y167.437 E10.51175
G1 X153.71 Y167.723 E10.5323
G1 X152.993 Y167.873 E10.54608
G1 X151.486 Y168.086 E10.57471
G1 X150.822 Y168.139 E10.58724
G1 X149.049 Y168.155 E10.62059
G1 X147.833 Y168.05 E10.64355
G1 X146.695 Y167.879 E10.66519
G1 X145.847 Y167.701 E10.68149
G1 X144.693 Y167.405 E10.7039
G1 X143.723 Y167.092 E10.72308
G1 X142.373 Y166.538 E10.75052
G1 X142.203 Y166.536 E10.75372
G1 X140.967 Y166.399 E10.77711
G1 X139.256 Y165.716 E10.81177
G1 X137.858 Y164.763 E10.8436
G1 X137.315 Y164.34 E10.85654
G1 X136.453 Y163.588 E10.87806
G1 X136.058 Y163.21 E10.88834
G1 X135.071 Y162.133 E10.91582
G1 X134.332 Y161.189 E10.93838
G1 X133.821 Y160.47 E10.95497
G1 X133.209 Y159.475 E10.97694
G1 X132.495 Y158.116 E11.00582
G1 X132.075 Y157.112 E11.02629
G1 X131.719 Y156.095 E11.04656
G1 X131.396 Y154.937 E11.06917
G1 X131.209 Y154.075 E11.08576
G1 X131.084 Y153.329 E11.09999
G1 X130.951 Y151.884 E11.12729
G1 X130.906 Y151.059 E11.14283
G1 X130.9 Y150.263 E11.1578
G1 X130.973 Y148.829 E11.18481
G1 X130.994 Y148.667 E11.18789
G1 X130.758 Y147.947 E11.20214
G1 X130.735 Y146.353 E11.23213
G1 X130.868 Y145.138 E11.25512
G1 X131.47 Y143.33 E11.29096
G1 X131.91 Y142.269 E11.31257
G1 X132.777 Y140.583 E11.34823
G1 X133.328 Y139.733 E11.36729
G1 X134.205 Y138.553 E11.39494
G1 X135.131 Y137.474 E11.42169
G0 X135.409 Y137.762
G1 X136.668 Y136.547 E11.4546
G1 X137.541 Y135.846 E11.47566
G1 X138.417 Y135.232 E11.49578
G1 X139.586 Y134.534 E11.52139
G1 X140.534 Y134.055 E11.54137
G1 X141.517 Y133.628 E11.56153
G1 X142.285 Y133.336 E11.57699
G1 X143.236 Y133.029 E11.59579
G1 X144.227 Y132.765 E11.61508
G1 X144.674 Y132.674 E11.62366
G1 X145.051 Y132.407 E11.63235
G1 X146.107 Y131.873 E11.65461
G1 X147.531 Y131.524 E11.68219
G1 X149.226 Y131.485 E11.71408
G1 X149.794 Y131.502 E11.72477
G1 X151.589 Y131.684 E11.75871
