; HEADER_BLOCK_START
; generated by OrcaSlicer 2.3.1 on 2026-03-18 at 14:15:49
; total layer number: 157
; filament_density: 1.24,1.24
; filament_diameter: 1.75,1.75
; max_z_height: 31.40
; HEADER_BLOCK_END

; THUMBNAIL_BLOCK_START

;
; THUMBNAIL_BLOCK_END

; THUMBNAIL_BLOCK_START

;
; THUMBNAIL_BLOCK_END

; external perimeters extrusion width = 0.40mm
; perimeters extrusion width = 0.44mm
; infill extrusion width = 0.44mm
; solid infill extrusion width = 0.48mm
; top infill extrusion width = 0.38mm
; first layer extrusion width = 0.48mm

; EXECUTABLE_BLOCK_START
EXCLUDE_OBJECT_DEFINE NAME=obj_3_Connecteur_corps.stl_id_0_copy_0 CENTER=63.2263,162.393 POLYGON=[[55.4806,150.075],[70.9721,150.075],[70.9721,174.711],[55.4806,174.711],[55.4806,150.075]]
M73 P0 R30
;TYPE:Custom
M190 S0
M109 S0
G28 X

M605 S3

START_PRINT EXTRUDER=0 EXTRUDERS=2 EXTRUDER_TEMP=220 EXTRUDER1_TEMP=220 BED_TEMP=55
G90
G21
M83 ; use relative distances for extrusion
; Filament gcode

T0
M106 S0
;LAYER_CHANGE
;Z:0.2
;HEIGHT:0.2
;BEFORE_LAYER_CHANGE
;0.2



G1 E-.8 F1800
;AFTER_LAYER_CHANGE
;0.2
ACTIVATE_EXTRUDER EXTRUDER=extruder
SYNC_EXTRUDER_MOTION EXTRUDER=extruder1 MOTION_QUEUE=extruder

;_SET_FAN_SPEED_CHANGING_LAYER
SET_VELOCITY_LIMIT ACCEL=300 ACCEL_TO_DECEL=90
; printing object obj_3_Connecteur corps.stl id:0 copy 0
EXCLUDE_OBJECT_START NAME=obj_3_Connecteur_corps.stl_id_0_copy_0
G1 Z.6 F6000
G1 X69.836 Y173.575
G1 Z.6
G1 Z.2
G1 E.8 F1800
;TYPE:Inner wall
;WIDTH:0.479999
G1 F3000
G1 X56.616 Y173.575 E.47086
G1 X56.616 Y151.211 E.79654
G1 X69.836 Y151.211 E.47086
G1 X69.836 Y173.535 E.79512
G1 X70.274 Y174.012 F6000
G1 F3000
G1 X56.179 Y174.012 E.50199
G1 X56.179 Y150.773 E.82767
G1 X70.274 Y150.773 E.50199
G1 X70.274 Y173.972 E.82625
G1 X70.732 Y174.471 F6000
;TYPE:Outer wall
G1 F3000
G1 X55.721 Y174.471 E.53466
G1 X55.721 Y150.315 E.86034
G1 X70.732 Y150.315 E.53466
G1 X70.732 Y174.431 E.85891
G1 E-.56 F1800
;WIPE_START
G1 F3000
G1 X69.732 Y174.433 E-.24
;WIPE_END
G1 Z.6 F6000
G1 X69.705 Y152.24 Z.6
G1 Z.2
G1 E.8 F1800
;TYPE:Bottom surface
;WIDTH:0.486726
G1 F6300
G1 X69.004 Y151.538 E.03586
G1 X68.377 Y151.538 E.0227
G1 X69.509 Y152.67 E.0579
G1 X69.509 Y153.298 E.0227
G1 X67.749 Y151.538 E.09
G1 X67.121 Y151.538 E.0227
G1 X69.509 Y153.926 E.1221
G1 X69.509 Y154.553 E.0227
G1 X66.494 Y151.538 E.1542
G1 X65.866 Y151.538 E.0227
G1 X69.509 Y155.181 E.1863
G1 X69.509 Y155.809 E.0227
G1 X65.238 Y151.538 E.2184
G1 X64.611 Y151.538 E.0227
G1 X69.509 Y156.436 E.2505
G1 X69.509 Y157.064 E.0227
G1 X63.983 Y151.538 E.2826
G1 X63.355 Y151.538 E.0227
G1 X69.509 Y157.692 E.3147
G1 X69.509 Y158.319 E.0227
G1 X62.728 Y151.538 E.3468
G1 X62.1 Y151.538 E.0227
G1 X69.509 Y158.947 E.3789
G1 X69.509 Y159.574 E.0227
G1 X61.473 Y151.538 E.411
G1 X60.845 Y151.538 E.0227
G1 X69.509 Y160.202 E.4431
G1 X69.509 Y160.83 E.0227
G1 X60.217 Y151.538 E.4752
G1 X59.59 Y151.538 E.0227
G1 X69.509 Y161.457 E.5073
G1 X69.509 Y162.085 E.0227
G1 X58.962 Y151.538 E.5394
G1 X58.334 Y151.538 E.0227
G1 X69.509 Y162.713 E.5715
G1 X69.509 Y163.34 E.0227
G1 X57.707 Y151.538 E.6036
G1 X57.079 Y151.538 E.0227
G1 X69.509 Y163.968 E.6357
G1 X69.509 Y164.596 E.0227
M73 P1 R30
G1 X56.944 Y152.031 E.64261
G1 X56.944 Y152.658 E.0227
G1 X69.509 Y165.223 E.64261
G1 X69.509 Y165.851 E.0227
G1 X56.944 Y153.286 E.64261
G1 X56.944 Y153.914 E.0227
G1 X69.509 Y166.478 E.64261
G1 X69.509 Y167.106 E.0227
G1 X56.944 Y154.541 E.64261
G1 X56.944 Y155.169 E.0227
M73 P1 R29
G1 X69.509 Y167.734 E.64261
G1 X69.509 Y168.361 E.0227
G1 X56.944 Y155.797 E.64261
G1 X56.944 Y156.424 E.0227
G1 X69.509 Y168.989 E.64261
G1 X69.509 Y169.617 E.0227
G1 X56.944 Y157.052 E.64261
G1 X56.944 Y157.68 E.0227
G1 X69.509 Y170.244 E.64261
G1 X69.509 Y170.872 E.0227
G1 X56.944 Y158.307 E.64261
G1 X56.944 Y158.935 E.0227
G1 X69.509 Y171.5 E.64261
G1 X69.509 Y172.127 E.0227
G1 X56.944 Y159.562 E.64261
G1 X56.944 Y160.19 E.0227
G1 X69.509 Y172.755 E.64261
G1 X69.509 Y173.247 E.01781
G1 X69.373 Y173.247 E.00489
G1 X56.944 Y160.818 E.63569
G1 X56.944 Y161.445 E.0227
G1 X68.746 Y173.247 E.60359
G1 X68.118 Y173.247 E.0227
G1 X56.944 Y162.073 E.57149
G1 X56.944 Y162.701 E.0227
G1 X67.49 Y173.247 E.53939
G1 X66.863 Y173.247 E.0227
G1 X56.944 Y163.328 E.50729
G1 X56.944 Y163.956 E.0227
G1 X66.235 Y173.247 E.47519
G1 X65.608 Y173.247 E.0227
G1 X56.944 Y164.584 E.44309
G1 X56.944 Y165.211 E.0227
G1 X64.98 Y173.247 E.41099
G1 X64.352 Y173.247 E.0227
G1 X56.944 Y165.839 E.37889
G1 X56.944 Y166.466 E.0227
G1 X63.725 Y173.247 E.34679
G1 X63.097 Y173.247 E.0227
G1 X56.944 Y167.094 E.31469
G1 X56.944 Y167.722 E.0227
G1 X62.469 Y173.247 E.28259
G1 X61.842 Y173.247 E.0227
G1 X56.944 Y168.349 E.25049
G1 X56.944 Y168.977 E.0227
G1 X61.214 Y173.247 E.21839
G1 X60.586 Y173.247 E.0227
G1 X56.944 Y169.605 E.18629
G1 X56.944 Y170.232 E.0227
G1 X59.959 Y173.247 E.15419
G1 X59.331 Y173.247 E.0227
G1 X56.944 Y170.86 E.12209
G1 X56.944 Y171.488 E.0227
G1 X58.704 Y173.247 E.08999
G1 X58.076 Y173.247 E.0227
G1 X56.944 Y172.115 E.05789
G1 X56.944 Y172.743 E.0227
G1 X57.645 Y173.444 E.03585
; stop printing object obj_3_Connecteur corps.stl id:0 copy 0
M106 S255
;LAYER_CHANGE
;Z:0.4
;HEIGHT:0.2
;BEFORE_LAYER_CHANGE
;0.4



G1 E-.56 F1800
;WIPE_START
G1 F6300
G1 X56.944 Y172.743 E-.23793
G1 X56.944 Y172.734 E-.00207
;WIPE_END
EXCLUDE_OBJECT_END NAME=obj_3_Connecteur_corps.stl_id_0_copy_0
;AFTER_LAYER_CHANGE
;0.4
ACTIVATE_EXTRUDER EXTRUDER=extruder
SYNC_EXTRUDER_MOTION EXTRUDER=extruder1 MOTION_QUEUE=extruder

;_SET_FAN_SPEED_CHANGING_LAYER
SET_VELOCITY_LIMIT ACCEL=800 ACCEL_TO_DECEL=240
M140 S55 ; set bed temperature
; printing object obj_3_Connecteur corps.stl id:0 copy 0
SET_VELOCITY_LIMIT ACCEL=1000 ACCEL_TO_DECEL=300
EXCLUDE_OBJECT_START NAME=obj_3_Connecteur_corps.stl_id_0_copy_0
G1 Z.8 F6000
G1 X69.976 Y173.715 Z.8
G1 Z.4
G1 E.8 F1800
SET_VELOCITY_LIMIT ACCEL=800 ACCEL_TO_DECEL=240
;TYPE:Inner wall
;WIDTH:0.439999
G1 F9251.231
G1 X56.476 Y173.715 E.43683
G1 X56.476 Y151.071 E.7327
G1 X69.976 Y151.071 E.43683
G1 X69.976 Y173.675 E.73141
M73 P2 R29
SET_VELOCITY_LIMIT ACCEL=1000 ACCEL_TO_DECEL=300
G1 X70.374 Y174.112 F6000
SET_VELOCITY_LIMIT ACCEL=800 ACCEL_TO_DECEL=240
G1 F9251.231
G1 X56.079 Y174.112 E.46252
G1 X56.079 Y150.673 E.7584
G1 X70.374 Y150.673 E.46252
G1 X70.374 Y174.072 E.75711
SET_VELOCITY_LIMIT ACCEL=1000 ACCEL_TO_DECEL=300
G1 X70.772 Y174.511 F6000
SET_VELOCITY_LIMIT ACCEL=400 ACCEL_TO_DECEL=120
;TYPE:Outer wall
;WIDTH:0.399999
G1 F7200
G1 X55.681 Y174.511 E.43913
G1 X55.681 Y150.275 E.70519
G1 X70.772 Y150.275 E.43913
G1 X70.772 Y174.471 E.70403
SET_VELOCITY_LIMIT ACCEL=1000 ACCEL_TO_DECEL=300
G1 E-.56 F1800
;WIPE_START
G1 F7200
G1 X69.772 Y174.473 E-.24
;WIPE_END
G1 Z.8 F6000
G1 X69.505 Y172.313 Z.8
G1 Z.4
G1 E.8 F1800
SET_VELOCITY_LIMIT ACCEL=800 ACCEL_TO_DECEL=240
;TYPE:Internal solid infill
;WIDTH:0.588112
G1 F6737.937
G1 X68.575 Y173.244 E.05847
G1 X69.505 Y173.244 E.04135
G1 X69.505 Y172.353 E.03957
SET_VELOCITY_LIMIT ACCEL=1000 ACCEL_TO_DECEL=300
G1 X67.591 Y173.594 F6000
SET_VELOCITY_LIMIT ACCEL=800 ACCEL_TO_DECEL=240
;WIDTH:0.481648
G1 F8373
G1 X69.659 Y171.526 E.10456
G1 X69.659 Y170.905 E.02218
G1 X67.167 Y173.397 E.12598
G1 X66.546 Y173.397 E.02218
G1 X69.659 Y170.285 E.15735
G1 X69.659 Y169.664 E.02218
G1 X65.926 Y173.397 E.18872
G1 X65.306 Y173.397 E.02218
G1 X69.659 Y169.044 E.22009
G1 X69.659 Y168.424 E.02218
G1 X64.685 Y173.397 E.25146
G1 X64.065 Y173.397 E.02218
G1 X69.659 Y167.803 E.28283
G1 X69.659 Y167.183 E.02218
G1 X63.444 Y173.397 E.3142
G1 X62.824 Y173.397 E.02218
G1 X69.659 Y166.562 E.34557
G1 X69.659 Y165.942 E.02218
G1 X62.203 Y173.397 E.37694
G1 X61.583 Y173.397 E.02218
G1 X69.659 Y165.321 E.40831
G1 X69.659 Y164.701 E.02218
G1 X60.962 Y173.397 E.43968
G1 X60.342 Y173.397 E.02218
G1 X69.659 Y164.08 E.47105
G1 X69.659 Y163.46 E.02218
G1 X59.721 Y173.397 E.50242
G1 X59.101 Y173.397 E.02218
G1 X69.659 Y162.839 E.53379
G1 X69.659 Y162.219 E.02218
G1 X58.481 Y173.397 E.56516
G1 X57.86 Y173.397 E.02218
G1 X69.659 Y161.599 E.59653
G1 X69.659 Y160.978 E.02218
G1 X57.24 Y173.397 E.6279
G1 X56.794 Y173.397 E.01593
G1 X56.794 Y173.222 E.00625
G1 X69.659 Y160.358 E.65043
G1 X69.659 Y159.737 E.02218
G1 X56.794 Y172.602 E.65043
G1 X56.794 Y171.981 E.02218
G1 X69.659 Y159.117 E.65043
G1 X69.659 Y158.496 E.02218
G1 X56.794 Y171.361 E.65043
G1 X56.794 Y170.741 E.02218
G1 X69.659 Y157.876 E.65043
G1 X69.659 Y157.255 E.02218
G1 X56.794 Y170.12 E.65043
G1 X56.794 Y169.5 E.02218
G1 X69.659 Y156.635 E.65043
G1 X69.659 Y156.014 E.02218
G1 X56.794 Y168.879 E.65043
G1 X56.794 Y168.259 E.02218
G1 X69.659 Y155.394 E.65043
G1 X69.659 Y154.774 E.02218
G1 X56.794 Y167.638 E.65043
G1 X56.794 Y167.018 E.02218
G1 X69.659 Y154.153 E.65043
G1 X69.659 Y153.533 E.02218
G1 X56.794 Y166.397 E.65043
G1 X56.794 Y165.777 E.02218
G1 X69.659 Y152.912 E.65043
G1 X69.659 Y152.292 E.02218
G1 X56.794 Y165.156 E.65043
G1 X56.794 Y164.536 E.02218
G1 X69.659 Y151.671 E.65043
G1 X69.659 Y151.388 E.01011
G1 X69.321 Y151.388 E.01207
G1 X56.794 Y163.916 E.63336
G1 X56.794 Y163.295 E.02218
G1 X68.701 Y151.388 E.60199
G1 X68.08 Y151.388 E.02218
G1 X56.794 Y162.675 E.57062
G1 X56.794 Y162.054 E.02218
G1 X67.46 Y151.388 E.53925
G1 X66.839 Y151.388 E.02218
G1 X56.794 Y161.434 E.50788
G1 X56.794 Y160.813 E.02218
G1 X66.219 Y151.388 E.47651
G1 X65.598 Y151.388 E.02218
G1 X56.794 Y160.193 E.44514
G1 X56.794 Y159.572 E.02218
G1 X64.978 Y151.388 E.41377
G1 X64.357 Y151.388 E.02218
G1 X56.794 Y158.952 E.3824
G1 X56.794 Y158.331 E.02218
G1 X63.737 Y151.388 E.35103
G1 X63.117 Y151.388 E.02218
G1 X56.794 Y157.711 E.31967
G1 X56.794 Y157.091 E.02218
G1 X62.496 Y151.388 E.2883
G1 X61.876 Y151.388 E.02218
M73 P3 R29
G1 X56.794 Y156.47 E.25693
G1 X56.794 Y155.85 E.02218
G1 X61.255 Y151.388 E.22556
G1 X60.635 Y151.388 E.02218
G1 X56.794 Y155.229 E.19419
G1 X56.794 Y154.609 E.02218
G1 X60.014 Y151.388 E.16282
G1 X59.394 Y151.388 E.02218
G1 X56.794 Y153.988 E.13145
G1 X56.794 Y153.368 E.02218
G1 X58.773 Y151.388 E.10008
G1 X58.153 Y151.388 E.02218
G1 X56.794 Y152.747 E.06871
G1 X56.794 Y152.127 E.02218
G1 X57.729 Y151.192 E.04728
SET_VELOCITY_LIMIT ACCEL=1000 ACCEL_TO_DECEL=300
G1 X56.915 Y151.436 F6000
SET_VELOCITY_LIMIT ACCEL=800 ACCEL_TO_DECEL=240
;WIDTH:0.469752
G1 F8606.358
G1 X56.861 Y151.436 E.00186
G1 X56.835 Y151.483 E.00186
G1 X56.861 Y151.529 E.00186
G1 X56.921 Y151.517 E.00213
; stop printing object obj_3_Connecteur corps.stl id:0 copy 0
;LAYER_CHANGE
;Z:0.6
;HEIGHT:0.2
;BEFORE_LAYER_CHANGE
;0.6



G1 E-.75374 F1800
;WIPE_START
G1 F8606.358
G1 X56.861 Y151.529 E-.01279
G1 X56.835 Y151.483 E-.01116
G1 X56.861 Y151.436 E-.01116
G1 X56.915 Y151.436 E-.01116
;WIPE_END
EXCLUDE_OBJECT_END NAME=obj_3_Connecteur_corps.stl_id_0_copy_0
;AFTER_LAYER_CHANGE
;0.6
ACTIVATE_EXTRUDER EXTRUDER=extruder
SYNC_EXTRUDER_MOTION EXTRUDER=extruder1 MOTION_QUEUE=extruder

;_SET_FAN_SPEED_CHANGING_LAYER
; printing object obj_3_Connecteur corps.stl id:0 copy 0
SET_VELOCITY_LIMIT ACCEL=1000 ACCEL_TO_DECEL=300
EXCLUDE_OBJECT_START NAME=obj_3_Connecteur_corps.stl_id_0_copy_0
G1 Z1 F6000
G1 X69.976 Y173.715 Z1
G1 Z.6
G1 E.8 F1800
SET_VELOCITY_LIMIT ACCEL=800 ACCEL_TO_DECEL=240
;TYPE:Inner wall
;WIDTH:0.439999
G1 F9251.231
G1 X56.476 Y173.715 E.43683
G1 X56.476 Y151.071 E.7327
G1 X69.976 Y151.071 E.43683
G1 X69.976 Y173.675 E.73141
SET_VELOCITY_LIMIT ACCEL=1000 ACCEL_TO_DECEL=300
G1 X70.374 Y174.112 F6000
SET_VELOCITY_LIMIT ACCEL=800 ACCEL_TO_DECEL=240
G1 F9251.231
G1 X56.079 Y174.112 E.46252
G1 X56.079 Y150.673 E.7584
G1 X70.374 Y150.673 E.46252
G1 X70.374 Y174.072 E.75711
SET_VELOCITY_LIMIT ACCEL=1000 ACCEL_TO_DECEL=300
G1 X70.772 Y174.511 F6000
SET_VELOCITY_LIMIT ACCEL=400 ACCEL_TO_DECEL=120
;TYPE:Outer wall
;WIDTH:0.399999
G1 F7200
G1 X55.681 Y174.511 E.43913
G1 X55.681 Y150.275 E.70519
G1 X70.772 Y150.275 E.43913
G1 X70.772 Y174.471 E.70403
SET_VELOCITY_LIMIT ACCEL=1000 ACCEL_TO_DECEL=300
G1 E-.56 F1800
;WIPE_START
G1 F7200
G1 X69.772 Y174.473 E-.24
;WIPE_END
G1 Z1 F6000
G1 X56.915 Y173.257 Z1
G1 Z.6
G1 E.8 F1800
SET_VELOCITY_LIMIT ACCEL=800 ACCEL_TO_DECEL=240
;TYPE:Internal solid infill
;WIDTH:0.469752
G1 F8606.358
G1 X56.861 Y173.257 E.00186
G1 X56.835 Y173.303 E.00186
G1 X56.861 Y173.349 E.00186
G1 X56.921 Y173.338 E.00213
SET_VELOCITY_LIMIT ACCEL=1000 ACCEL_TO_DECEL=300
G1 X69.855 Y153.456 F6000
SET_VELOCITY_LIMIT ACCEL=800 ACCEL_TO_DECEL=240
;WIDTH:0.481648
G1 F8373
G1 X67.787 Y151.388 E.10456
G1 X67.167 Y151.388 E.02218
G1 X69.659 Y153.88 E.12598
G1 X69.659 Y154.501 E.02218
G1 X66.546 Y151.388 E.15735
G1 X65.926 Y151.388 E.02218
G1 X69.659 Y155.121 E.18872
G1 X69.659 Y155.742 E.02218
G1 X65.306 Y151.388 E.22009
G1 X64.685 Y151.388 E.02218
G1 X69.659 Y156.362 E.25146
G1 X69.659 Y156.982 E.02218
G1 X64.065 Y151.388 E.28283
G1 X63.444 Y151.388 E.02218
G1 X69.659 Y157.603 E.3142
G1 X69.659 Y158.223 E.02218
G1 X62.824 Y151.388 E.34557
G1 X62.203 Y151.388 E.02218
G1 X69.659 Y158.844 E.37694
G1 X69.659 Y159.464 E.02218
G1 X61.583 Y151.388 E.40831
G1 X60.962 Y151.388 E.02218
G1 X69.659 Y160.085 E.43968
G1 X69.659 Y160.705 E.02218
G1 X60.342 Y151.388 E.47105
G1 X59.721 Y151.388 E.02218
G1 X69.659 Y161.326 E.50242
G1 X69.659 Y161.946 E.02218
G1 X59.101 Y151.388 E.53379
G1 X58.481 Y151.388 E.02218
G1 X69.659 Y162.567 E.56516
G1 X69.659 Y163.187 E.02218
G1 X57.86 Y151.388 E.59653
G1 X57.24 Y151.388 E.02218
G1 X69.659 Y163.807 E.6279
G1 X69.659 Y164.428 E.02218
G1 X56.794 Y151.563 E.65043
G1 X56.794 Y152.184 E.02218
G1 X69.659 Y165.048 E.65043
G1 X69.659 Y165.669 E.02218
G1 X56.794 Y152.804 E.65043
G1 X56.794 Y153.425 E.02218
G1 X69.659 Y166.289 E.65043
G1 X69.659 Y166.91 E.02218
G1 X56.794 Y154.045 E.65043
G1 X56.794 Y154.665 E.02218
G1 X69.659 Y167.53 E.65043
G1 X69.659 Y168.151 E.02218
G1 X56.794 Y155.286 E.65043
G1 X56.794 Y155.906 E.02218
G1 X69.659 Y168.771 E.65043
G1 X69.659 Y169.392 E.02218
G1 X56.794 Y156.527 E.65043
G1 X56.794 Y157.147 E.02218
G1 X69.659 Y170.012 E.65043
G1 X69.659 Y170.632 E.02218
G1 X56.794 Y157.768 E.65043
G1 X56.794 Y158.388 E.02218
G1 X69.659 Y171.253 E.65043
G1 X69.659 Y171.873 E.02218
G1 X56.794 Y159.009 E.65043
G1 X56.794 Y159.629 E.02218
G1 X69.659 Y172.494 E.65043
G1 X69.659 Y173.114 E.02218
G1 X56.794 Y160.25 E.65043
G1 X56.794 Y160.87 E.02218
G1 X69.321 Y173.397 E.63336
G1 X68.701 Y173.397 E.02218
M73 P4 R29
G1 X56.794 Y161.49 E.60199
G1 X56.794 Y162.111 E.02218
G1 X68.08 Y173.397 E.57062
G1 X67.46 Y173.397 E.02218
G1 X56.794 Y162.731 E.53925
G1 X56.794 Y163.352 E.02218
G1 X66.839 Y173.397 E.50788
G1 X66.219 Y173.397 E.02218
G1 X56.794 Y163.972 E.47651
G1 X56.794 Y164.593 E.02218
G1 X65.598 Y173.397 E.44514
G1 X64.978 Y173.397 E.02218
G1 X56.794 Y165.213 E.41377
G1 X56.794 Y165.834 E.02218
G1 X64.357 Y173.397 E.3824
G1 X63.737 Y173.397 E.02218
G1 X56.794 Y166.454 E.35103
G1 X56.794 Y167.075 E.02218
G1 X63.117 Y173.397 E.31967
G1 X62.496 Y173.397 E.02218
G1 X56.794 Y167.695 E.2883
G1 X56.794 Y168.315 E.02218
G1 X61.876 Y173.397 E.25693
G1 X61.255 Y173.397 E.02218
G1 X56.794 Y168.936 E.22556
G1 X56.794 Y169.556 E.02218
G1 X60.635 Y173.397 E.19419
G1 X60.014 Y173.397 E.02218
G1 X56.794 Y170.177 E.16282
G1 X56.794 Y170.797 E.02218
G1 X59.394 Y173.397 E.13145
G1 X58.773 Y173.397 E.02218
G1 X56.794 Y171.418 E.10008
G1 X56.794 Y172.038 E.02218
G1 X58.153 Y173.397 E.06871
G1 X57.532 Y173.397 E.02218
G1 X56.597 Y172.462 E.04728
SET_VELOCITY_LIMIT ACCEL=1000 ACCEL_TO_DECEL=300
G1 X69.505 Y152.472 F6000
SET_VELOCITY_LIMIT ACCEL=800 ACCEL_TO_DECEL=240
;WIDTH:0.588112
G1 F6737.937
G1 X69.505 Y151.542 E.04135
G1 X68.575 Y151.542 E.04135
G1 X69.477 Y152.444 E.0567
; stop printing object obj_3_Connecteur corps.stl id:0 copy 0
;LAYER_CHANGE
;Z:0.8
;HEIGHT:0.2
;BEFORE_LAYER_CHANGE
;0.8



G1 E-.56 F1800
;WIPE_START
G1 F6737.937
G1 X68.77 Y151.737 E-.24
;WIPE_END
EXCLUDE_OBJECT_END NAME=obj_3_Connecteur_corps.stl_id_0_copy_0
;AFTER_LAYER_CHANGE
;0.8
ACTIVATE_EXTRUDER EXTRUDER=extruder
SYNC_EXTRUDER_MOTION EXTRUDER=extruder1 MOTION_QUEUE=extruder

;_SET_FAN_SPEED_CHANGING_LAYER
; printing object obj_3_Connecteur corps.stl id:0 copy 0
