; HEADER_BLOCK_START
; generated by OrcaSlicer 2.3.1 on 2026-03-18 at 11:51:04
; total layer number: 157
; filament_density: 1.24,1.24
; filament_diameter: 1.75,1.75
; max_z_height: 31.40
; HEADER_BLOCK_END

; THUMBNAIL_BLOCK_START

;
; THUMBNAIL_BLOCK_END

; THUMBNAIL_BLOCK_START

;
; THUMBNAIL_BLOCK_END

; external perimeters extrusion width = 0.40mm
; perimeters extrusion width = 0.44mm
; infill extrusion width = 0.44mm
; solid infill extrusion width = 0.48mm
; top infill extrusion width = 0.38mm
; first layer extrusion width = 0.48mm

; external perimeters extrusion width = 0.40mm
; perimeters extrusion width = 0.44mm
; infill extrusion width = 0.44mm
; solid infill extrusion width = 0.48mm
; top infill extrusion width = 0.38mm
; first layer extrusion width = 0.48mm

; EXECUTABLE_BLOCK_START
M73 P0 R62
;TYPE:Custom
START_PRINT BED_TEMP=55 EXTRUDER_TEMP=220
G90
G21
M83 ; use relative distances for extrusion
T0
; Filament gcode

M106 S0
;LAYER_CHANGE
;Z:0.2
;HEIGHT:0.2
;BEFORE_LAYER_CHANGE
;0.2



G1 E-.8 F1800
;AFTER_LAYER_CHANGE
;0.2
ACTIVATE_EXTRUDER EXTRUDER=extruder
SYNC_EXTRUDER_MOTION EXTRUDER=extruder1 MOTION_QUEUE=extruder

;_SET_FAN_SPEED_CHANGING_LAYER
SET_VELOCITY_LIMIT ACCEL=300 ACCEL_TO_DECEL=90
; printing object obj_3_Connecteur corps.stl id:15 copy 0
; stop printing object obj_3_Connecteur corps.stl id:15 copy 0
; printing object obj_3_Connecteur corps.stl id:15 copy 0
G1 Z.6 F6000
G1 X83.707 Y156.415
G1 Z.6
G1 Z.2
G1 E.8 F1800
;TYPE:Inner wall
;WIDTH:0.479999
G1 F3000
G1 X70.486 Y156.415 E.47086
G1 X70.486 Y134.05 E.79654
G1 X83.707 Y134.05 E.47086
G1 X83.707 Y156.375 E.79512
G1 X84.144 Y156.852 F6000
G1 F3000
G1 X70.049 Y156.852 E.50199
M104 S220 T1 ; preheat T1 time: 30s
G1 X70.049 Y133.613 E.82767
G1 X84.144 Y133.613 E.50199
G1 X84.144 Y156.812 E.82625
G1 X84.602 Y157.31 F6000
;TYPE:Outer wall
G1 F3000
G1 X69.591 Y157.31 E.53466
G1 X69.591 Y133.155 E.86034
G1 X84.602 Y133.155 E.53466
G1 X84.602 Y157.27 E.85891
G1 E-.56 F1800
;WIPE_START
G1 F3000
G1 X83.602 Y157.273 E-.24
;WIPE_END
G1 Z.6 F6000
G1 X83.575 Y135.079 Z.6
G1 Z.2
G1 E.8 F1800
;TYPE:Bottom surface
;WIDTH:0.486726
G1 F6300
G1 X82.874 Y134.378 E.03586
G1 X82.247 Y134.378 E.0227
G1 X83.379 Y135.51 E.0579
G1 X83.379 Y136.138 E.0227
G1 X81.619 Y134.378 E.09
G1 X80.991 Y134.378 E.0227
G1 X83.379 Y136.765 E.1221
G1 X83.379 Y137.393 E.0227
G1 X80.364 Y134.378 E.1542
G1 X79.736 Y134.378 E.0227
G1 X83.379 Y138.021 E.1863
G1 X83.379 Y138.648 E.0227
G1 X79.109 Y134.378 E.2184
G1 X78.481 Y134.378 E.0227
G1 X83.379 Y139.276 E.2505
G1 X83.379 Y139.904 E.0227
G1 X77.853 Y134.378 E.2826
G1 X77.226 Y134.378 E.0227
G1 X83.379 Y140.531 E.3147
G1 X83.379 Y141.159 E.0227
G1 X76.598 Y134.378 E.3468
G1 X75.97 Y134.378 E.0227
G1 X83.379 Y141.787 E.3789
G1 X83.379 Y142.414 E.0227
G1 X75.343 Y134.378 E.411
G1 X74.715 Y134.378 E.0227
G1 X83.379 Y143.042 E.4431
G1 X83.379 Y143.669 E.0227
G1 X74.087 Y134.378 E.4752
G1 X73.46 Y134.378 E.0227
G1 X83.379 Y144.297 E.5073
G1 X83.379 Y144.925 E.0227
G1 X72.832 Y134.378 E.5394
G1 X72.205 Y134.378 E.0227
G1 X83.379 Y145.552 E.5715
G1 X83.379 Y146.18 E.0227
G1 X71.577 Y134.378 E.6036
G1 X70.949 Y134.378 E.0227
G1 X83.379 Y146.808 E.6357
G1 X83.379 Y147.435 E.0227
G1 X70.814 Y134.871 E.64261
G1 X70.814 Y135.498 E.0227
G1 X83.379 Y148.063 E.64261
G1 X83.379 Y148.691 E.0227
G1 X70.814 Y136.126 E.64261
G1 X70.814 Y136.753 E.0227
G1 X83.379 Y149.318 E.64261
G1 X83.379 Y149.946 E.0227
G1 X70.814 Y137.381 E.64261
G1 X70.814 Y138.009 E.0227
G1 X83.379 Y150.573 E.64261
G1 X83.379 Y151.201 E.0227
G1 X70.814 Y138.636 E.64261
G1 X70.814 Y139.264 E.0227
G1 X83.379 Y151.829 E.64261
G1 X83.379 Y152.456 E.0227
G1 X70.814 Y139.892 E.64261
G1 X70.814 Y140.519 E.0227
G1 X83.379 Y153.084 E.64261
G1 X83.379 Y153.712 E.0227
G1 X70.814 Y141.147 E.64261
G1 X70.814 Y141.775 E.0227
G1 X83.379 Y154.339 E.64261
G1 X83.379 Y154.967 E.0227
G1 X70.814 Y142.402 E.64261
G1 X70.814 Y143.03 E.0227
G1 X83.379 Y155.595 E.64261
G1 X83.379 Y156.087 E.01781
G1 X83.243 Y156.087 E.00489
G1 X70.814 Y143.657 E.63569
G1 X70.814 Y144.285 E.0227
G1 X82.616 Y156.087 E.60359
G1 X81.988 Y156.087 E.0227
G1 X70.814 Y144.913 E.57149
G1 X70.814 Y145.54 E.0227
G1 X81.361 Y156.087 E.53939
G1 X80.733 Y156.087 E.0227
G1 X70.814 Y146.168 E.50729
G1 X70.814 Y146.796 E.0227
G1 X80.105 Y156.087 E.47519
G1 X79.478 Y156.087 E.0227
G1 X70.814 Y147.423 E.44309
G1 X70.814 Y148.051 E.0227
G1 X78.85 Y156.087 E.41099
G1 X78.222 Y156.087 E.0227
G1 X70.814 Y148.679 E.37889
G1 X70.814 Y149.306 E.0227
G1 X77.595 Y156.087 E.34679
G1 X76.967 Y156.087 E.0227
G1 X70.814 Y149.934 E.31469
G1 X70.814 Y150.562 E.0227
M73 P0 R61
G1 X76.339 Y156.087 E.28259
G1 X75.712 Y156.087 E.0227
G1 X70.814 Y151.189 E.25049
G1 X70.814 Y151.817 E.0227
G1 X75.084 Y156.087 E.21839
G1 X74.457 Y156.087 E.0227
G1 X70.814 Y152.444 E.18629
G1 X70.814 Y153.072 E.0227
G1 X73.829 Y156.087 E.15419
G1 X73.201 Y156.087 E.0227
G1 X70.814 Y153.7 E.12209
G1 X70.814 Y154.327 E.0227
G1 X72.574 Y156.087 E.08999
G1 X71.946 Y156.087 E.0227
G1 X70.814 Y154.955 E.05789
G1 X70.814 Y155.583 E.0227
G1 X71.515 Y156.284 E.03585
; stop printing object obj_3_Connecteur corps.stl id:15 copy 0
G1 E-1.71429 F1800
;WIPE_START
G1 F6300
G1 X70.814 Y155.583 E-.28324
G1 X70.814 Y155.574 E-.00247
;WIPE_END
; filament end gcode
T1
; Filament gcode

; printing object obj_3_Connecteur corps.stl id:15 copy 0
G1 E-.8 F1800
G1 Z.6 F6000
G1 X185.515 Y164.228 Z.6
G1 Z.2
G1 E.8 F1800
;TYPE:Inner wall
;WIDTH:0.479999
G1 F3000
G1 X172.294 Y164.228 E.47086
G1 X172.294 Y141.864 E.79654
G1 X185.515 Y141.864 E.47086
M73 P1 R61
G1 X185.515 Y164.188 E.79512
G1 X185.952 Y164.665 F6000
G1 F3000
G1 X171.857 Y164.665 E.50199
G1 X171.857 Y141.427 E.82767
G1 X185.952 Y141.427 E.50199
G1 X185.952 Y164.625 E.82625
G1 X186.41 Y165.124 F6000
;TYPE:Outer wall
G1 F3000
G1 X171.399 Y165.124 E.53466
G1 X171.399 Y140.968 E.86034
G1 X186.41 Y140.968 E.53466
G1 X186.41 Y165.084 E.85891
G1 E-.56 F1800
;WIPE_START
G1 F3000
G1 X185.41 Y165.087 E-.24
;WIPE_END
G1 Z.6 F6000
G1 X185.384 Y142.893 Z.6
G1 Z.2
G1 E.8 F1800
;TYPE:Bottom surface
;WIDTH:0.486726
G1 F6300
G1 X184.682 Y142.192 E.03586
G1 X184.055 Y142.192 E.0227
G1 X185.187 Y143.324 E.0579
G1 X185.187 Y143.951 E.0227
G1 X183.427 Y142.192 E.09
G1 X182.799 Y142.192 E.0227
G1 X185.187 Y144.579 E.1221
G1 X185.187 Y145.207 E.0227
G1 X182.172 Y142.192 E.1542
G1 X181.544 Y142.192 E.0227
G1 X185.187 Y145.834 E.1863
G1 X185.187 Y146.462 E.0227
G1 X180.917 Y142.192 E.2184
G1 X180.289 Y142.192 E.0227
G1 X185.187 Y147.09 E.2505
G1 X185.187 Y147.717 E.0227
G1 X179.661 Y142.192 E.2826
G1 X179.034 Y142.192 E.0227
G1 X185.187 Y148.345 E.3147
G1 X185.187 Y148.973 E.0227
G1 X178.406 Y142.192 E.3468
G1 X177.778 Y142.192 E.0227
G1 X185.187 Y149.6 E.3789
G1 X185.187 Y150.228 E.0227
G1 X177.151 Y142.192 E.411
G1 X176.523 Y142.192 E.0227
G1 X185.187 Y150.855 E.4431
G1 X185.187 Y151.483 E.0227
G1 X175.895 Y142.192 E.4752
G1 X175.268 Y142.192 E.0227
G1 X185.187 Y152.111 E.5073
G1 X185.187 Y152.738 E.0227
G1 X174.64 Y142.192 E.5394
G1 X174.013 Y142.192 E.0227
G1 X185.187 Y153.366 E.5715
G1 X185.187 Y153.994 E.0227
G1 X173.385 Y142.192 E.6036
G1 X172.757 Y142.192 E.0227
G1 X185.187 Y154.621 E.6357
G1 X185.187 Y155.249 E.0227
G1 X172.622 Y142.684 E.64261
G1 X172.622 Y143.312 E.0227
G1 X185.187 Y155.877 E.64261
G1 X185.187 Y156.504 E.0227
G1 X172.622 Y143.939 E.64261
G1 X172.622 Y144.567 E.0227
G1 X185.187 Y157.132 E.64261
G1 X185.187 Y157.759 E.0227
G1 X172.622 Y145.195 E.64261
G1 X172.622 Y145.822 E.0227
G1 X185.187 Y158.387 E.64261
G1 X185.187 Y159.015 E.0227
G1 X172.622 Y146.45 E.64261
G1 X172.622 Y147.078 E.0227
G1 X185.187 Y159.642 E.64261
G1 X185.187 Y160.27 E.0227
G1 X172.622 Y147.705 E.64261
G1 X172.622 Y148.333 E.0227
G1 X185.187 Y160.898 E.64261
G1 X185.187 Y161.525 E.0227
G1 X172.622 Y148.961 E.64261
G1 X172.622 Y149.588 E.0227
G1 X185.187 Y162.153 E.64261
G1 X185.187 Y162.781 E.0227
G1 X172.622 Y150.216 E.64261
G1 X172.622 Y150.843 E.0227
G1 X185.187 Y163.408 E.64261
M104 S220 T0 ; preheat T0 time: 30s
G1 X185.187 Y163.901 E.01781
G1 X185.052 Y163.901 E.00489
G1 X172.622 Y151.471 E.63569
G1 X172.622 Y152.099 E.0227
G1 X184.424 Y163.901 E.60359
G1 X183.796 Y163.901 E.0227
G1 X172.622 Y152.726 E.57149
G1 X172.622 Y153.354 E.0227
G1 X183.169 Y163.901 E.53939
G1 X182.541 Y163.901 E.0227
G1 X172.622 Y153.982 E.50729
G1 X172.622 Y154.609 E.0227
G1 X181.913 Y163.901 E.47519
G1 X181.286 Y163.901 E.0227
G1 X172.622 Y155.237 E.44309
G1 X172.622 Y155.865 E.0227
G1 X180.658 Y163.901 E.41099
G1 X180.03 Y163.901 E.0227
G1 X172.622 Y156.492 E.37889
G1 X172.622 Y157.12 E.0227
G1 X179.403 Y163.901 E.34679
G1 X178.775 Y163.901 E.0227
G1 X172.622 Y157.747 E.31469
G1 X172.622 Y158.375 E.0227
G1 X178.148 Y163.901 E.28259
G1 X177.52 Y163.901 E.0227
G1 X172.622 Y159.003 E.25049
G1 X172.622 Y159.63 E.0227
G1 X176.892 Y163.901 E.21839
G1 X176.265 Y163.901 E.0227
G1 X172.622 Y160.258 E.18629
G1 X172.622 Y160.886 E.0227
G1 X175.637 Y163.901 E.15419
G1 X175.009 Y163.901 E.0227
G1 X172.622 Y161.513 E.12209
G1 X172.622 Y162.141 E.0227
G1 X174.382 Y163.901 E.08999
G1 X173.754 Y163.901 E.0227
G1 X172.622 Y162.769 E.05789
G1 X172.622 Y163.396 E.0227
G1 X173.323 Y164.097 E.03585
; stop printing object obj_3_Connecteur corps.stl id:15 copy 0
; printing object obj_3_Connecteur corps.stl id:15 copy 0
; stop printing object obj_3_Connecteur corps.stl id:15 copy 0
M106 S255
;LAYER_CHANGE
;Z:0.4
;HEIGHT:0.2
;BEFORE_LAYER_CHANGE
;0.4



G1 E-.56 F1800
;WIPE_START
G1 F6300
G1 X172.622 Y163.396 E-.23793
G1 X172.622 Y163.388 E-.00207
;WIPE_END
;AFTER_LAYER_CHANGE
;0.4
ACTIVATE_EXTRUDER EXTRUDER=extruder
SYNC_EXTRUDER_MOTION EXTRUDER=extruder1 MOTION_QUEUE=extruder

;_SET_FAN_SPEED_CHANGING_LAYER
SET_VELOCITY_LIMIT ACCEL=800 ACCEL_TO_DECEL=240
M140 S55 ; set bed temperature
; printing object obj_3_Connecteur corps.stl id:15 copy 0
SET_VELOCITY_LIMIT ACCEL=1000 ACCEL_TO_DECEL=300
G1 Z.8 F6000
G1 X185.655 Y164.368 Z.8
G1 Z.4
G1 E.8 F1800
SET_VELOCITY_LIMIT ACCEL=800 ACCEL_TO_DECEL=240
;TYPE:Inner wall
;WIDTH:0.439999
G1 F9251.231
G1 X172.154 Y164.368 E.43683
G1 X172.154 Y141.724 E.7327
G1 X185.655 Y141.724 E.43683
G1 X185.655 Y164.328 E.73141
SET_VELOCITY_LIMIT ACCEL=1000 ACCEL_TO_DECEL=300
G1 X186.052 Y164.765 F6000
SET_VELOCITY_LIMIT ACCEL=800 ACCEL_TO_DECEL=240
G1 F9251.231
G1 X171.757 Y164.765 E.46252
G1 X171.757 Y141.327 E.7584
G1 X186.052 Y141.327 E.46252
G1 X186.052 Y164.725 E.75711
SET_VELOCITY_LIMIT ACCEL=1000 ACCEL_TO_DECEL=300
G1 X186.45 Y165.164 F6000
SET_VELOCITY_LIMIT ACCEL=400 ACCEL_TO_DECEL=120
;TYPE:Outer wall
;WIDTH:0.399999
G1 F7200
G1 X171.359 Y165.164 E.43913
G1 X171.359 Y140.928 E.70519
G1 X186.45 Y140.928 E.43913
G1 X186.45 Y165.124 E.70403
SET_VELOCITY_LIMIT ACCEL=1000 ACCEL_TO_DECEL=300
G1 E-.56 F1800
;WIPE_START
G1 F7200
G1 X185.45 Y165.127 E-.24
;WIPE_END
G1 Z.8 F6000
G1 X185.184 Y162.967 Z.8
G1 Z.4
G1 E.8 F1800
SET_VELOCITY_LIMIT ACCEL=800 ACCEL_TO_DECEL=240
;TYPE:Internal solid infill
;WIDTH:0.588112
G1 F6737.937
G1 X184.253 Y163.897 E.05847
G1 X185.184 Y163.897 E.04135
M73 P2 R61
G1 X185.184 Y163.007 E.03957
SET_VELOCITY_LIMIT ACCEL=1000 ACCEL_TO_DECEL=300
G1 X183.269 Y164.247 F6000
SET_VELOCITY_LIMIT ACCEL=800 ACCEL_TO_DECEL=240
;WIDTH:0.481648
G1 F8373
G1 X185.337 Y162.179 E.10456
G1 X185.337 Y161.559 E.02218
G1 X182.845 Y164.051 E.12598
G1 X182.225 Y164.051 E.02218
G1 X185.337 Y160.938 E.15735
G1 X185.337 Y160.318 E.02218
G1 X181.604 Y164.051 E.18872
G1 X180.984 Y164.051 E.02218
G1 X185.337 Y159.697 E.22009
G1 X185.337 Y159.077 E.02218
G1 X180.363 Y164.051 E.25146
G1 X179.743 Y164.051 E.02218
G1 X185.337 Y158.456 E.28283
G1 X185.337 Y157.836 E.02218
G1 X179.122 Y164.051 E.3142
G1 X178.502 Y164.051 E.02218
G1 X185.337 Y157.216 E.34557
G1 X185.337 Y156.595 E.02218
G1 X177.881 Y164.051 E.37694
G1 X177.261 Y164.051 E.02218
G1 X185.337 Y155.975 E.40831
G1 X185.337 Y155.354 E.02218
G1 X176.641 Y164.051 E.43968
G1 X176.02 Y164.051 E.02218
G1 X185.337 Y154.734 E.47105
G1 X185.337 Y154.113 E.02218
G1 X175.4 Y164.051 E.50242
G1 X174.779 Y164.051 E.02218
G1 X185.337 Y153.493 E.53379
G1 X185.337 Y152.872 E.02218
G1 X174.159 Y164.051 E.56516
G1 X173.538 Y164.051 E.02218
G1 X185.337 Y152.252 E.59653
G1 X185.337 Y151.631 E.02218
G1 X172.918 Y164.051 E.6279
G1 X172.472 Y164.051 E.01593
G1 X172.472 Y163.876 E.00625
G1 X185.337 Y151.011 E.65043
G1 X185.337 Y150.391 E.02218
G1 X172.472 Y163.255 E.65043
G1 X172.472 Y162.635 E.02218
G1 X185.337 Y149.77 E.65043
G1 X185.337 Y149.15 E.02218
G1 X172.472 Y162.014 E.65043
G1 X172.472 Y161.394 E.02218
G1 X185.337 Y148.529 E.65043
G1 X185.337 Y147.909 E.02218
G1 X172.472 Y160.773 E.65043
G1 X172.472 Y160.153 E.02218
G1 X185.337 Y147.288 E.65043
G1 X185.337 Y146.668 E.02218
G1 X172.472 Y159.533 E.65043
G1 X172.472 Y158.912 E.02218
G1 X185.337 Y146.047 E.65043
G1 X185.337 Y145.427 E.02218
G1 X172.472 Y158.292 E.65043
G1 X172.472 Y157.671 E.02218
G1 X185.337 Y144.806 E.65043
G1 X185.337 Y144.186 E.02218
G1 X172.472 Y157.051 E.65043
G1 X172.472 Y156.43 E.02218
G1 X185.337 Y143.566 E.65043
G1 X185.337 Y142.945 E.02218
G1 X172.472 Y155.81 E.65043
G1 X172.472 Y155.189 E.02218
G1 X185.337 Y142.325 E.65043
G1 X185.337 Y142.042 E.01011
G1 X184.999 Y142.042 E.01207
G1 X172.472 Y154.569 E.63336
G1 X172.472 Y153.948 E.02218
G1 X184.379 Y142.042 E.60199
G1 X183.758 Y142.042 E.02218
G1 X172.472 Y153.328 E.57062
G1 X172.472 Y152.708 E.02218
G1 X183.138 Y142.042 E.53925
G1 X182.517 Y142.042 E.02218
G1 X172.472 Y152.087 E.50788
G1 X172.472 Y151.467 E.02218
G1 X181.897 Y142.042 E.47651
G1 X181.277 Y142.042 E.02218
G1 X172.472 Y150.846 E.44514
G1 X172.472 Y150.226 E.02218
G1 X180.656 Y142.042 E.41377
G1 X180.036 Y142.042 E.02218
G1 X172.472 Y149.605 E.3824
G1 X172.472 Y148.985 E.02218
G1 X179.415 Y142.042 E.35103
G1 X178.795 Y142.042 E.02218
G1 X172.472 Y148.364 E.31967
G1 X172.472 Y147.744 E.02218
G1 X178.174 Y142.042 E.2883
G1 X177.554 Y142.042 E.02218
G1 X172.472 Y147.123 E.25693
G1 X172.472 Y146.503 E.02218
G1 X176.933 Y142.042 E.22556
G1 X176.313 Y142.042 E.02218
G1 X172.472 Y145.883 E.19419
G1 X172.472 Y145.262 E.02218
G1 X175.692 Y142.042 E.16282
G1 X175.072 Y142.042 E.02218
G1 X172.472 Y144.642 E.13145
G1 X172.472 Y144.021 E.02218
G1 X174.452 Y142.042 E.10008
G1 X173.831 Y142.042 E.02218
G1 X172.472 Y143.401 E.06871
G1 X172.472 Y142.78 E.02218
G1 X173.407 Y141.845 E.04728
SET_VELOCITY_LIMIT ACCEL=1000 ACCEL_TO_DECEL=300
G1 X172.593 Y142.09 F6000
SET_VELOCITY_LIMIT ACCEL=800 ACCEL_TO_DECEL=240
;WIDTH:0.469752
G1 F8606.358
G1 X172.54 Y142.09 E.00186
G1 X172.513 Y142.136 E.00186
G1 X172.54 Y142.182 E.00186
G1 X172.6 Y142.171 E.00213
; stop printing object obj_3_Connecteur corps.stl id:15 copy 0
; printing object obj_3_Connecteur corps.stl id:15 copy 0
; stop printing object obj_3_Connecteur corps.stl id:15 copy 0
G1 E-1.95374 F1800
;WIPE_START
G1 F8606.358
G1 X172.54 Y142.182 E-.01279
G1 X172.513 Y142.136 E-.01116
G1 X172.54 Y142.09 E-.01116
G1 X172.593 Y142.09 E-.01116
;WIPE_END
; filament end gcode
T0
; Filament gcode

; printing object obj_3_Connecteur corps.stl id:15 copy 0
; stop printing object obj_3_Connecteur corps.stl id:15 copy 0
; printing object obj_3_Connecteur corps.stl id:15 copy 0
SET_VELOCITY_LIMIT ACCEL=1000 ACCEL_TO_DECEL=300
G1 Z.8 F6000
G1 X83.847 Y156.555 Z.8
G1 Z.4
M73 P2 R60
G1 E2 F1800
SET_VELOCITY_LIMIT ACCEL=800 ACCEL_TO_DECEL=240
;TYPE:Inner wall
;WIDTH:0.439999
G1 F9251.231
G1 X70.346 Y156.555 E.43683
G1 X70.346 Y133.91 E.7327
G1 X83.847 Y133.91 E.43683
G1 X83.847 Y156.515 E.73141
SET_VELOCITY_LIMIT ACCEL=1000 ACCEL_TO_DECEL=300
G1 X84.244 Y156.952 F6000
SET_VELOCITY_LIMIT ACCEL=800 ACCEL_TO_DECEL=240
G1 F9251.231
G1 X69.949 Y156.952 E.46252
G1 X69.949 Y133.513 E.7584
G1 X84.244 Y133.513 E.46252
G1 X84.244 Y156.912 E.75711
SET_VELOCITY_LIMIT ACCEL=1000 ACCEL_TO_DECEL=300
G1 X84.642 Y157.35 F6000
SET_VELOCITY_LIMIT ACCEL=400 ACCEL_TO_DECEL=120
;TYPE:Outer wall
;WIDTH:0.399999
G1 F7200
G1 X69.551 Y157.35 E.43913
G1 X69.551 Y133.115 E.70519
G1 X84.642 Y133.115 E.43913
G1 X84.642 Y157.31 E.70403
