; HEADER_BLOCK_START
; generated by OrcaSlicer 2.3.1 on 2026-03-18 at 11:03:44
; total layer number: 157
; filament_density: 1.24,1.24
; filament_diameter: 1.75,1.75
; max_z_height: 31.40
; HEADER_BLOCK_END

; THUMBNAIL_BLOCK_START

;
; THUMBNAIL_BLOCK_END

; THUMBNAIL_BLOCK_START

;
; THUMBNAIL_BLOCK_END

; external perimeters extrusion width = 0.40mm
; perimeters extrusion width = 0.44mm
; infill extrusion width = 0.44mm
; solid infill extrusion width = 0.48mm
; top infill extrusion width = 0.38mm
; first layer extrusion width = 0.48mm

; EXECUTABLE_BLOCK_START
M73 P0 R30
M190 S55 ; set bed temperature and wait for it to be reached
G10 S220 ; set nozzle temperature
;TYPE:Custom
START_PRINT EXTRUDER=-1 EXTRUDERS=2 BED_TEMP=55 EXTRUDER_TEMP=220 EXTRUDER1_TEMP=220

G92 E0
M83

ACTIVATE_EXTRUDER EXTRUDER=extruder
SYNC_EXTRUDER_MOTION EXTRUDER=extruder1 MOTION_QUEUE=extruder
G90
G21
M83 ; use relative distances for extrusion
; Filament gcode

T0
M106 S0
;LAYER_CHANGE
;Z:0.2
;HEIGHT:0.2
;BEFORE_LAYER_CHANGE
;0.2
SYNC_EXTRUDER_MOTION EXTRUDER=extruder1 MOTION_QUEUE=extruder


G1 E-.8 F1800
;AFTER_LAYER_CHANGE
;0.2
;_SET_FAN_SPEED_CHANGING_LAYER
M204 P300
; printing object obj_3_Connecteur corps.stl id:0 copy 0
M204 T300
G1 Z.6 F6000
G1 X65.691 Y155.745
G1 Z.6
G1 Z.2
G1 E.8 F1800
;TYPE:Inner wall
;WIDTH:0.479999
G1 F3000
G1 X52.47 Y155.745 E.47086
G1 X52.47 Y133.38 E.79654
G1 X65.691 Y133.38 E.47086
G1 X65.691 Y155.705 E.79512
G1 X66.128 Y156.182 F6000
G1 F3000
G1 X52.033 Y156.182 E.50199
G1 X52.033 Y132.943 E.82767
G1 X66.128 Y132.943 E.50199
G1 X66.128 Y156.142 E.82625
G1 X66.586 Y156.64 F6000
;TYPE:Outer wall
G1 F3000
G1 X51.575 Y156.64 E.53466
G1 X51.575 Y132.485 E.86034
G1 X66.586 Y132.485 E.53466
G1 X66.586 Y156.6 E.85891
G1 E-.56 F1800
;WIPE_START
G1 F3000
G1 X65.586 Y156.603 E-.24
;WIPE_END
G1 Z.6 F6000
G1 X65.559 Y134.409 Z.6
G1 Z.2
G1 E.8 F1800
;TYPE:Bottom surface
;WIDTH:0.486726
G1 F6300
G1 X64.858 Y133.708 E.03586
G1 X64.231 Y133.708 E.0227
G1 X65.363 Y134.84 E.0579
G1 X65.363 Y135.468 E.0227
G1 X63.603 Y133.708 E.09
G1 X62.975 Y133.708 E.0227
G1 X65.363 Y136.095 E.1221
G1 X65.363 Y136.723 E.0227
G1 X62.348 Y133.708 E.1542
G1 X61.72 Y133.708 E.0227
G1 X65.363 Y137.351 E.1863
G1 X65.363 Y137.978 E.0227
G1 X61.093 Y133.708 E.2184
G1 X60.465 Y133.708 E.0227
G1 X65.363 Y138.606 E.2505
G1 X65.363 Y139.234 E.0227
G1 X59.837 Y133.708 E.2826
G1 X59.21 Y133.708 E.0227
G1 X65.363 Y139.861 E.3147
G1 X65.363 Y140.489 E.0227
G1 X58.582 Y133.708 E.3468
G1 X57.954 Y133.708 E.0227
G1 X65.363 Y141.116 E.3789
G1 X65.363 Y141.744 E.0227
G1 X57.327 Y133.708 E.411
G1 X56.699 Y133.708 E.0227
G1 X65.363 Y142.372 E.4431
G1 X65.363 Y142.999 E.0227
G1 X56.071 Y133.708 E.4752
G1 X55.444 Y133.708 E.0227
G1 X65.363 Y143.627 E.5073
G1 X65.363 Y144.255 E.0227
G1 X54.816 Y133.708 E.5394
G1 X54.189 Y133.708 E.0227
G1 X65.363 Y144.882 E.5715
G1 X65.363 Y145.51 E.0227
G1 X53.561 Y133.708 E.6036
G1 X52.933 Y133.708 E.0227
G1 X65.363 Y146.138 E.6357
G1 X65.363 Y146.765 E.0227
G1 X52.798 Y134.201 E.64261
M73 P1 R30
G1 X52.798 Y134.828 E.0227
G1 X65.363 Y147.393 E.64261
G1 X65.363 Y148.02 E.0227
G1 X52.798 Y135.456 E.64261
G1 X52.798 Y136.083 E.0227
G1 X65.363 Y148.648 E.64261
G1 X65.363 Y149.276 E.0227
G1 X52.798 Y136.711 E.64261
G1 X52.798 Y137.339 E.0227
G1 X65.363 Y149.903 E.64261
G1 X65.363 Y150.531 E.0227
G1 X52.798 Y137.966 E.64261
G1 X52.798 Y138.594 E.0227
G1 X65.363 Y151.159 E.64261
G1 X65.363 Y151.786 E.0227
G1 X52.798 Y139.222 E.64261
G1 X52.798 Y139.849 E.0227
G1 X65.363 Y152.414 E.64261
G1 X65.363 Y153.042 E.0227
G1 X52.798 Y140.477 E.64261
G1 X52.798 Y141.105 E.0227
G1 X65.363 Y153.669 E.64261
G1 X65.363 Y154.297 E.0227
G1 X52.798 Y141.732 E.64261
G1 X52.798 Y142.36 E.0227
G1 X65.363 Y154.924 E.64261
G1 X65.363 Y155.417 E.01781
G1 X65.228 Y155.417 E.00489
G1 X52.798 Y142.987 E.63569
G1 X52.798 Y143.615 E.0227
G1 X64.6 Y155.417 E.60359
M73 P1 R29
G1 X63.972 Y155.417 E.0227
G1 X52.798 Y144.243 E.57149
G1 X52.798 Y144.87 E.0227
G1 X63.345 Y155.417 E.53939
G1 X62.717 Y155.417 E.0227
G1 X52.798 Y145.498 E.50729
G1 X52.798 Y146.126 E.0227
G1 X62.089 Y155.417 E.47519
G1 X61.462 Y155.417 E.0227
G1 X52.798 Y146.753 E.44309
G1 X52.798 Y147.381 E.0227
G1 X60.834 Y155.417 E.41099
G1 X60.206 Y155.417 E.0227
G1 X52.798 Y148.009 E.37889
G1 X52.798 Y148.636 E.0227
G1 X59.579 Y155.417 E.34679
G1 X58.951 Y155.417 E.0227
G1 X52.798 Y149.264 E.31469
G1 X52.798 Y149.891 E.0227
G1 X58.324 Y155.417 E.28259
G1 X57.696 Y155.417 E.0227
G1 X52.798 Y150.519 E.25049
G1 X52.798 Y151.147 E.0227
G1 X57.068 Y155.417 E.21839
G1 X56.441 Y155.417 E.0227
G1 X52.798 Y151.774 E.18629
G1 X52.798 Y152.402 E.0227
G1 X55.813 Y155.417 E.15419
G1 X55.185 Y155.417 E.0227
G1 X52.798 Y153.03 E.12209
G1 X52.798 Y153.657 E.0227
G1 X54.558 Y155.417 E.08999
G1 X53.93 Y155.417 E.0227
G1 X52.798 Y154.285 E.05789
G1 X52.798 Y154.913 E.0227
G1 X53.499 Y155.614 E.03585
; stop printing object obj_3_Connecteur corps.stl id:0 copy 0
M106 S255
;LAYER_CHANGE
;Z:0.4
;HEIGHT:0.2
;BEFORE_LAYER_CHANGE
;0.4
SYNC_EXTRUDER_MOTION EXTRUDER=extruder1 MOTION_QUEUE=extruder


G1 E-.56 F1800
;WIPE_START
G1 F6300
G1 X52.798 Y154.913 E-.23793
G1 X52.798 Y154.904 E-.00207
;WIPE_END
;AFTER_LAYER_CHANGE
;0.4
;_SET_FAN_SPEED_CHANGING_LAYER
M204 P800
; printing object obj_3_Connecteur corps.stl id:0 copy 0
M204 T1000
G1 Z.8 F6000
G1 X65.831 Y155.885 Z.8
G1 Z.4
G1 E.8 F1800
;TYPE:Inner wall
;WIDTH:0.439999
G1 F9251.231
G1 X52.33 Y155.885 E.43683
G1 X52.33 Y133.24 E.7327
G1 X65.831 Y133.24 E.43683
G1 X65.831 Y155.845 E.73141
G1 X66.228 Y156.282 F6000
G1 F9251.231
M73 P2 R29
G1 X51.933 Y156.282 E.46252
G1 X51.933 Y132.843 E.7584
G1 X66.228 Y132.843 E.46252
G1 X66.228 Y156.242 E.75711
G1 X66.626 Y156.68 F6000
M204 P400
;TYPE:Outer wall
;WIDTH:0.399999
G1 F7200
G1 X51.535 Y156.68 E.43913
G1 X51.535 Y132.445 E.70519
G1 X66.626 Y132.445 E.43913
G1 X66.626 Y156.64 E.70403
G1 E-.56 F1800
;WIPE_START
G1 F7200
G1 X65.626 Y156.643 E-.24
;WIPE_END
G1 Z.8 F6000
G1 X65.359 Y154.483 Z.8
G1 Z.4
G1 E.8 F1800
M204 P800
;TYPE:Internal solid infill
;WIDTH:0.588112
G1 F6737.937
G1 X64.429 Y155.414 E.05847
G1 X65.359 Y155.414 E.04135
G1 X65.359 Y154.523 E.03957
G1 X63.445 Y155.764 F6000
;WIDTH:0.481648
G1 F8373
G1 X65.513 Y153.696 E.10456
G1 X65.513 Y153.075 E.02218
G1 X63.021 Y155.567 E.12598
G1 X62.401 Y155.567 E.02218
G1 X65.513 Y152.455 E.15735
G1 X65.513 Y151.834 E.02218
G1 X61.78 Y155.567 E.18872
G1 X61.16 Y155.567 E.02218
G1 X65.513 Y151.214 E.22009
G1 X65.513 Y150.593 E.02218
G1 X60.539 Y155.567 E.25146
G1 X59.919 Y155.567 E.02218
G1 X65.513 Y149.973 E.28283
G1 X65.513 Y149.352 E.02218
G1 X59.298 Y155.567 E.3142
G1 X58.678 Y155.567 E.02218
G1 X65.513 Y148.732 E.34557
G1 X65.513 Y148.111 E.02218
G1 X58.057 Y155.567 E.37694
G1 X57.437 Y155.567 E.02218
G1 X65.513 Y147.491 E.40831
G1 X65.513 Y146.87 E.02218
G1 X56.816 Y155.567 E.43968
G1 X56.196 Y155.567 E.02218
G1 X65.513 Y146.25 E.47105
G1 X65.513 Y145.63 E.02218
G1 X55.576 Y155.567 E.50242
G1 X54.955 Y155.567 E.02218
G1 X65.513 Y145.009 E.53379
G1 X65.513 Y144.389 E.02218
G1 X54.335 Y155.567 E.56516
G1 X53.714 Y155.567 E.02218
G1 X65.513 Y143.768 E.59653
G1 X65.513 Y143.148 E.02218
G1 X53.094 Y155.567 E.6279
G1 X52.648 Y155.567 E.01593
G1 X52.648 Y155.392 E.00625
G1 X65.513 Y142.527 E.65043
G1 X65.513 Y141.907 E.02218
G1 X52.648 Y154.772 E.65043
G1 X52.648 Y154.151 E.02218
G1 X65.513 Y141.286 E.65043
G1 X65.513 Y140.666 E.02218
G1 X52.648 Y153.531 E.65043
G1 X52.648 Y152.91 E.02218
G1 X65.513 Y140.045 E.65043
G1 X65.513 Y139.425 E.02218
G1 X52.648 Y152.29 E.65043
G1 X52.648 Y151.669 E.02218
G1 X65.513 Y138.805 E.65043
G1 X65.513 Y138.184 E.02218
G1 X52.648 Y151.049 E.65043
G1 X52.648 Y150.428 E.02218
G1 X65.513 Y137.564 E.65043
G1 X65.513 Y136.943 E.02218
G1 X52.648 Y149.808 E.65043
G1 X52.648 Y149.187 E.02218
G1 X65.513 Y136.323 E.65043
G1 X65.513 Y135.702 E.02218
G1 X52.648 Y148.567 E.65043
G1 X52.648 Y147.947 E.02218
G1 X65.513 Y135.082 E.65043
G1 X65.513 Y134.461 E.02218
G1 X52.648 Y147.326 E.65043
G1 X52.648 Y146.706 E.02218
G1 X65.513 Y133.841 E.65043
G1 X65.513 Y133.558 E.01011
G1 X65.175 Y133.558 E.01207
G1 X52.648 Y146.085 E.63336
G1 X52.648 Y145.465 E.02218
G1 X64.555 Y133.558 E.60199
G1 X63.934 Y133.558 E.02218
G1 X52.648 Y144.844 E.57062
G1 X52.648 Y144.224 E.02218
G1 X63.314 Y133.558 E.53925
G1 X62.693 Y133.558 E.02218
G1 X52.648 Y143.603 E.50788
G1 X52.648 Y142.983 E.02218
G1 X62.073 Y133.558 E.47651
G1 X61.453 Y133.558 E.02218
G1 X52.648 Y142.362 E.44514
G1 X52.648 Y141.742 E.02218
G1 X60.832 Y133.558 E.41377
G1 X60.212 Y133.558 E.02218
G1 X52.648 Y141.122 E.3824
G1 X52.648 Y140.501 E.02218
G1 X59.591 Y133.558 E.35103
G1 X58.971 Y133.558 E.02218
G1 X52.648 Y139.881 E.31967
G1 X52.648 Y139.26 E.02218
G1 X58.35 Y133.558 E.2883
G1 X57.73 Y133.558 E.02218
G1 X52.648 Y138.64 E.25693
G1 X52.648 Y138.019 E.02218
G1 X57.109 Y133.558 E.22556
M73 P3 R29
G1 X56.489 Y133.558 E.02218
G1 X52.648 Y137.399 E.19419
G1 X52.648 Y136.778 E.02218
G1 X55.868 Y133.558 E.16282
G1 X55.248 Y133.558 E.02218
G1 X52.648 Y136.158 E.13145
G1 X52.648 Y135.537 E.02218
G1 X54.628 Y133.558 E.10008
G1 X54.007 Y133.558 E.02218
G1 X52.648 Y134.917 E.06871
G1 X52.648 Y134.297 E.02218
G1 X53.583 Y133.361 E.04728
G1 X52.769 Y133.606 F6000
;WIDTH:0.469752
G1 F8606.358
G1 X52.716 Y133.606 E.00186
G1 X52.689 Y133.652 E.00186
G1 X52.716 Y133.698 E.00186
G1 X52.776 Y133.687 E.00213
; stop printing object obj_3_Connecteur corps.stl id:0 copy 0
;LAYER_CHANGE
;Z:0.6
;HEIGHT:0.2
;BEFORE_LAYER_CHANGE
;0.6
SYNC_EXTRUDER_MOTION EXTRUDER=extruder1 MOTION_QUEUE=extruder


G1 E-.75374 F1800
;WIPE_START
G1 F8606.358
G1 X52.716 Y133.698 E-.01279
G1 X52.689 Y133.652 E-.01116
G1 X52.716 Y133.606 E-.01116
G1 X52.769 Y133.606 E-.01116
;WIPE_END
;AFTER_LAYER_CHANGE
;0.6
;_SET_FAN_SPEED_CHANGING_LAYER
; printing object obj_3_Connecteur corps.stl id:0 copy 0
G1 Z1 F6000
G1 X65.831 Y155.885 Z1
G1 Z.6
G1 E.8 F1800
;TYPE:Inner wall
;WIDTH:0.439999
G1 F9251.231
G1 X52.33 Y155.885 E.43683
G1 X52.33 Y133.24 E.7327
G1 X65.831 Y133.24 E.43683
G1 X65.831 Y155.845 E.73141
G1 X66.228 Y156.282 F6000
G1 F9251.231
G1 X51.933 Y156.282 E.46252
G1 X51.933 Y132.843 E.7584
G1 X66.228 Y132.843 E.46252
G1 X66.228 Y156.242 E.75711
G1 X66.626 Y156.68 F6000
M204 P400
;TYPE:Outer wall
;WIDTH:0.399999
G1 F7200
G1 X51.535 Y156.68 E.43913
G1 X51.535 Y132.445 E.70519
G1 X66.626 Y132.445 E.43913
G1 X66.626 Y156.64 E.70403
G1 E-.56 F1800
;WIPE_START
G1 F7200
G1 X65.626 Y156.643 E-.24
;WIPE_END
G1 Z1 F6000
G1 X52.769 Y155.426 Z1
G1 Z.6
G1 E.8 F1800
M204 P800
;TYPE:Internal solid infill
;WIDTH:0.469752
G1 F8606.358
G1 X52.716 Y155.426 E.00186
G1 X52.689 Y155.473 E.00186
G1 X52.716 Y155.519 E.00186
G1 X52.776 Y155.507 E.00213
G1 X65.709 Y135.626 F6000
;WIDTH:0.481648
G1 F8373
G1 X63.641 Y133.558 E.10456
G1 X63.021 Y133.558 E.02218
G1 X65.513 Y136.05 E.12598
G1 X65.513 Y136.67 E.02218
G1 X62.401 Y133.558 E.15735
G1 X61.78 Y133.558 E.02218
G1 X65.513 Y137.291 E.18872
G1 X65.513 Y137.911 E.02218
G1 X61.16 Y133.558 E.22009
G1 X60.539 Y133.558 E.02218
G1 X65.513 Y138.532 E.25146
G1 X65.513 Y139.152 E.02218
G1 X59.919 Y133.558 E.28283
G1 X59.298 Y133.558 E.02218
G1 X65.513 Y139.773 E.3142
G1 X65.513 Y140.393 E.02218
G1 X58.678 Y133.558 E.34557
G1 X58.057 Y133.558 E.02218
G1 X65.513 Y141.013 E.37694
G1 X65.513 Y141.634 E.02218
G1 X57.437 Y133.558 E.40831
G1 X56.816 Y133.558 E.02218
G1 X65.513 Y142.254 E.43968
G1 X65.513 Y142.875 E.02218
G1 X56.196 Y133.558 E.47105
G1 X55.576 Y133.558 E.02218
G1 X65.513 Y143.495 E.50242
G1 X65.513 Y144.116 E.02218
G1 X54.955 Y133.558 E.53379
G1 X54.335 Y133.558 E.02218
G1 X65.513 Y144.736 E.56516
G1 X65.513 Y145.357 E.02218
G1 X53.714 Y133.558 E.59653
G1 X53.094 Y133.558 E.02218
G1 X65.513 Y145.977 E.6279
G1 X65.513 Y146.598 E.02218
G1 X52.648 Y133.733 E.65043
G1 X52.648 Y134.353 E.02218
G1 X65.513 Y147.218 E.65043
G1 X65.513 Y147.838 E.02218
G1 X52.648 Y134.974 E.65043
G1 X52.648 Y135.594 E.02218
G1 X65.513 Y148.459 E.65043
G1 X65.513 Y149.079 E.02218
G1 X52.648 Y136.215 E.65043
G1 X52.648 Y136.835 E.02218
G1 X65.513 Y149.7 E.65043
G1 X65.513 Y150.32 E.02218
G1 X52.648 Y137.456 E.65043
G1 X52.648 Y138.076 E.02218
G1 X65.513 Y150.941 E.65043
G1 X65.513 Y151.561 E.02218
G1 X52.648 Y138.697 E.65043
G1 X52.648 Y139.317 E.02218
G1 X65.513 Y152.182 E.65043
G1 X65.513 Y152.802 E.02218
G1 X52.648 Y139.937 E.65043
G1 X52.648 Y140.558 E.02218
G1 X65.513 Y153.423 E.65043
G1 X65.513 Y154.043 E.02218
G1 X52.648 Y141.178 E.65043
G1 X52.648 Y141.799 E.02218
G1 X65.513 Y154.663 E.65043
G1 X65.513 Y155.284 E.02218
G1 X52.648 Y142.419 E.65043
G1 X52.648 Y143.04 E.02218
G1 X65.175 Y155.567 E.63336
G1 X64.555 Y155.567 E.02218
G1 X52.648 Y143.66 E.60199
G1 X52.648 Y144.281 E.02218
G1 X63.934 Y155.567 E.57062
M73 P4 R29
G1 X63.314 Y155.567 E.02218
G1 X52.648 Y144.901 E.53925
G1 X52.648 Y145.522 E.02218
G1 X62.693 Y155.567 E.50788
G1 X62.073 Y155.567 E.02218
G1 X52.648 Y146.142 E.47651
G1 X52.648 Y146.762 E.02218
G1 X61.453 Y155.567 E.44514
G1 X60.832 Y155.567 E.02218
G1 X52.648 Y147.383 E.41377
G1 X52.648 Y148.003 E.02218
G1 X60.212 Y155.567 E.3824
G1 X59.591 Y155.567 E.02218
G1 X52.648 Y148.624 E.35103
G1 X52.648 Y149.244 E.02218
G1 X58.971 Y155.567 E.31967
G1 X58.35 Y155.567 E.02218
G1 X52.648 Y149.865 E.2883
G1 X52.648 Y150.485 E.02218
G1 X57.73 Y155.567 E.25693
G1 X57.109 Y155.567 E.02218
G1 X52.648 Y151.106 E.22556
G1 X52.648 Y151.726 E.02218
G1 X56.489 Y155.567 E.19419
G1 X55.868 Y155.567 E.02218
G1 X52.648 Y152.347 E.16282
G1 X52.648 Y152.967 E.02218
G1 X55.248 Y155.567 E.13145
G1 X54.628 Y155.567 E.02218
G1 X52.648 Y153.587 E.10008
G1 X52.648 Y154.208 E.02218
G1 X54.007 Y155.567 E.06871
G1 X53.387 Y155.567 E.02218
G1 X52.451 Y154.632 E.04728
G1 X65.359 Y134.642 F6000
;WIDTH:0.588112
G1 F6737.937
G1 X65.359 Y133.711 E.04135
G1 X64.429 Y133.711 E.04135
G1 X65.331 Y134.614 E.0567
; stop printing object obj_3_Connecteur corps.stl id:0 copy 0
;LAYER_CHANGE
;Z:0.8
;HEIGHT:0.2
;BEFORE_LAYER_CHANGE
;0.8
SYNC_EXTRUDER_MOTION EXTRUDER=extruder1 MOTION_QUEUE=extruder


G1 E-.56 F1800
;WIPE_START
G1 F6737.937
G1 X64.624 Y133.907 E-.24
;WIPE_END
;AFTER_LAYER_CHANGE
;0.8
;_SET_FAN_SPEED_CHANGING_LAYER
; printing object obj_3_Connecteur corps.stl id:0 copy 0
G1 Z1.2 F6000
G1 X65.831 Y155.885 Z1.2
G1 Z.8
G1 E.8 F1800
;TYPE:Inner wall
;WIDTH:0.439999
G1 F5779
G1 X52.33 Y155.885 E.43683
G1 X52.33 Y133.24 E.7327
G1 X65.831 Y133.24 E.43683
G1 X65.831 Y155.845 E.73141
G1 X66.228 Y156.282 F6000
G1 F5779
G1 X51.933 Y156.282 E.46252
G1 X51.933 Y132.843 E.7584
G1 X66.228 Y132.843 E.46252
G1 X66.228 Y156.242 E.75711
G1 X66.626 Y156.68 F6000
M204 P400
;TYPE:Outer wall
;WIDTH:0.399999
G1 F5779
G1 X51.535 Y156.68 E.43913
G1 X51.535 Y132.445 E.70519
G1 X66.626 Y132.445 E.43913
G1 X66.626 Y156.64 E.70403
G1 E-.56 F1800
;WIPE_START
G1 F7200
G1 X65.626 Y156.643 E-.24
;WIPE_END
G1 Z1.2 F6000
G1 X52.628 Y152.695 Z1.2
G1 Z.8
G1 E.8 F1800
M204 P800
;TYPE:Sparse infill
;WIDTH:0.44
G1 F5779
G1 X52.628 Y154.283 E.05139
G1 X53.932 Y155.587 E.05967
G1 X57.975 Y155.587 E.13083
G1 X52.628 Y150.24 E.24468
G1 X52.628 Y146.196 E.13083
G1 X62.018 Y155.587 E.4297
G1 X65.533 Y155.587 E.11371
G1 X65.533 Y155.058 E.01711
G1 X52.628 Y142.153 E.59051
G1 X52.628 Y138.11 E.13083
G1 X65.533 Y151.015 E.59051
G1 X65.533 Y146.972 E.13083
G1 X52.628 Y134.067 E.59051
G1 X52.628 Y133.538 E.01711
G1 X56.142 Y133.538 E.11371
G1 X65.533 Y142.928 E.4297
G1 X65.533 Y138.885 E.13083
G1 X60.186 Y133.538 E.24468
G1 X64.229 Y133.538 E.13083
M73 P4 R28
G1 X65.533 Y134.842 E.05967
G1 X65.533 Y136.43 E.05139
; stop printing object obj_3_Connecteur corps.stl id:0 copy 0
;LAYER_CHANGE
;Z:1
;HEIGHT:0.2
;BEFORE_LAYER_CHANGE
;1
SYNC_EXTRUDER_MOTION EXTRUDER=extruder1 MOTION_QUEUE=extruder


G1 E-.60543 F1800
;WIPE_START
G1 F9251.216
G1 X65.533 Y135.43 E-.19457
;WIPE_END
;AFTER_LAYER_CHANGE
;1
;_SET_FAN_SPEED_CHANGING_LAYER
; printing object obj_3_Connecteur corps.stl id:0 copy 0
G1 Z1.4 F6000
G1 X65.831 Y155.885 Z1.4
G1 Z1
G1 E.8 F1800
;TYPE:Inner wall
;WIDTH:0.439999
G1 F5779
