; HEADER_BLOCK_START
; generated by OrcaSlicer 2.3.1 on 2026-03-18 at 14:56:04
; total layer number: 25
; filament_density: 1.24,1.24
; filament_diameter: 1.75,1.75
; max_z_height: 5.00
; HEADER_BLOCK_END

; THUMBNAIL_BLOCK_START

;
; THUMBNAIL_BLOCK_END

; THUMBNAIL_BLOCK_START

;
; THUMBNAIL_BLOCK_END

; external perimeters extrusion width = 0.40mm
; perimeters extrusion width = 0.44mm
; infill extrusion width = 0.44mm
; solid infill extrusion width = 0.48mm
; top infill extrusion width = 0.38mm
; first layer extrusion width = 0.48mm

; EXECUTABLE_BLOCK_START
EXCLUDE_OBJECT_DEFINE NAME=pressure_advance_test.stl_id_0_copy_0 CENTER=150,150 POLYGON=[[130,135],[170,135],[170,140],[140,165],[130,165],[130,135]]
M73 P0 R2
;TYPE:Custom
M190 S0
M109 S0
G28 X

M605 S1

START_PRINT EXTRUDER=0 EXTRUDERS=2 EXTRUDER_TEMP=220 EXTRUDER1_TEMP=220 BED_TEMP=55
G90
G21
M83 ; use relative distances for extrusion
; Filament gcode

T0
M106 S0
;LAYER_CHANGE
;Z:0.2
;HEIGHT:0.2
;BEFORE_LAYER_CHANGE
;0.2



G1 E-.8 F1800
;AFTER_LAYER_CHANGE
;0.2
ACTIVATE_EXTRUDER EXTRUDER=extruder
SYNC_EXTRUDER_MOTION EXTRUDER=extruder1 MOTION_QUEUE=extruder

;_SET_FAN_SPEED_CHANGING_LAYER
SET_VELOCITY_LIMIT ACCEL=300 ACCEL_TO_DECEL=90
; printing object pressure_advance_test.stl id:0 copy 0
EXCLUDE_OBJECT_START NAME=pressure_advance_test.stl_id_0_copy_0
G1 Z.6 F6000
G1 X139.804 Y139.847
G1 Z.6
M73 P1 R2
G1 Z.2
G1 E.8 F1800
;TYPE:Outer wall
;WIDTH:0.479999
G1 F3000
G1 X139.76 Y139.979 E.00492
G1 X139.76 Y164.76 E.88263
G1 X130.24 Y164.76 E.33907
G1 X130.24 Y135.24 E1.0514
M73 P2 R2
G1 X169.76 Y135.24 E1.40756
G1 X169.76 Y139.76 E.16099
M73 P3 R2
G1 X139.946 Y139.76 E1.06186
G1 X139.838 Y139.826 E.00453
G1 E-.56 F1800
;WIPE_START
G1 F3000
G1 X139.76 Y139.979 E-.04099
G1 X139.76 Y140.808 E-.19901
;WIPE_END
G1 Z.6 F6000
G1 X139.344 Y140.808 Z.6
G1 X139.344 Y139.344
G1 X169.344 Y139.344
G1 X169.344 Y136.263
M73 P4 R2
G1 X169.629 Y136.263
G1 Z.2
G1 E.8 F1800
;TYPE:Bottom surface
;WIDTH:0.483916
G1 F6300
G1 X168.934 Y135.568 E.03533
G1 X168.31 Y135.568 E.02241
G1 X169.432 Y136.69 E.05703
G1 X169.432 Y137.314 E.02241
G1 X167.686 Y135.568 E.08872
G1 X167.063 Y135.568 E.02241
G1 X169.432 Y137.937 E.12042
G1 X169.432 Y138.561 E.02241
M73 P5 R2
G1 X166.439 Y135.568 E.15211
G1 X165.815 Y135.568 E.02241
G1 X169.432 Y139.185 E.18381
G1 X169.432 Y139.432 E.0089
G1 X169.056 Y139.432 E.01351
G1 X165.192 Y135.568 E.19639
G1 X164.568 Y135.568 E.02241
G1 X168.432 Y139.432 E.19639
G1 X167.809 Y139.432 E.02241
G1 X163.944 Y135.568 E.19639
G1 X163.321 Y135.568 E.02241
M73 P6 R2
G1 X167.185 Y139.432 E.19639
G1 X166.561 Y139.432 E.02241
G1 X162.697 Y135.568 E.19639
G1 X162.073 Y135.568 E.02241
G1 X165.938 Y139.432 E.19639
G1 X165.314 Y139.432 E.02241
G1 X161.45 Y135.568 E.19639
G1 X160.826 Y135.568 E.02241
G1 X164.69 Y139.432 E.19639
G1 X164.067 Y139.432 E.02241
M73 P7 R2
G1 X160.202 Y135.568 E.19639
G1 X159.579 Y135.568 E.02241
G1 X163.443 Y139.432 E.19639
G1 X162.819 Y139.432 E.02241
G1 X158.955 Y135.568 E.19639
G1 X158.331 Y135.568 E.02241
G1 X162.196 Y139.432 E.19639
G1 X161.572 Y139.432 E.02241
G1 X157.708 Y135.568 E.19639
G1 X157.084 Y135.568 E.02241
M73 P8 R2
G1 X160.949 Y139.432 E.19639
G1 X160.325 Y139.432 E.02241
G1 X156.46 Y135.568 E.19639
G1 X155.837 Y135.568 E.02241
G1 X159.701 Y139.432 E.19639
G1 X159.078 Y139.432 E.02241
G1 X155.213 Y135.568 E.19639
G1 X154.589 Y135.568 E.02241
G1 X158.454 Y139.432 E.19639
G1 X157.83 Y139.432 E.02241
M73 P9 R2
G1 X153.966 Y135.568 E.19639
G1 X153.342 Y135.568 E.02241
G1 X157.207 Y139.432 E.19639
G1 X156.583 Y139.432 E.02241
G1 X152.718 Y135.568 E.19639
G1 X152.095 Y135.568 E.02241
G1 X155.959 Y139.432 E.19639
G1 X155.336 Y139.432 E.02241
G1 X151.471 Y135.568 E.19639
G1 X150.847 Y135.568 E.02241
M73 P10 R2
G1 X154.712 Y139.432 E.19639
G1 X154.088 Y139.432 E.02241
G1 X150.224 Y135.568 E.19639
G1 X149.6 Y135.568 E.02241
G1 X153.465 Y139.432 E.19639
G1 X152.841 Y139.432 E.02241
G1 X148.977 Y135.568 E.19639
G1 X148.353 Y135.568 E.02241
G1 X152.217 Y139.432 E.19639
M73 P11 R2
G1 X151.594 Y139.432 E.02241
G1 X147.729 Y135.568 E.19639
G1 X147.106 Y135.568 E.02241
G1 X150.97 Y139.432 E.19639
G1 X150.346 Y139.432 E.02241
G1 X146.482 Y135.568 E.19639
G1 X145.858 Y135.568 E.02241
G1 X149.723 Y139.432 E.19639
G1 X149.099 Y139.432 E.02241
G1 X145.235 Y135.568 E.19639
M73 P12 R2
G1 X144.611 Y135.568 E.02241
G1 X148.475 Y139.432 E.19639
G1 X147.852 Y139.432 E.02241
G1 X143.987 Y135.568 E.19639
G1 X143.364 Y135.568 E.02241
G1 X147.228 Y139.432 E.19639
G1 X146.604 Y139.432 E.02241
G1 X142.74 Y135.568 E.19639
G1 X142.116 Y135.568 E.02241
M73 P13 R2
G1 X145.981 Y139.432 E.19639
G1 X145.357 Y139.432 E.02241
G1 X141.493 Y135.568 E.19639
G1 X140.869 Y135.568 E.02241
G1 X144.733 Y139.432 E.19639
G1 X144.11 Y139.432 E.02241
G1 X140.245 Y135.568 E.19639
G1 X139.622 Y135.568 E.02241
G1 X143.486 Y139.432 E.19639
G1 X142.862 Y139.432 E.02241
M73 P14 R2
G1 X138.998 Y135.568 E.19639
G1 X138.374 Y135.568 E.02241
G1 X142.239 Y139.432 E.19639
G1 X141.615 Y139.432 E.02241
G1 X137.751 Y135.568 E.19639
G1 X137.127 Y135.568 E.02241
G1 X140.991 Y139.432 E.19639
G1 X140.368 Y139.432 E.02241
G1 X136.503 Y135.568 E.19639
G1 X135.88 Y135.568 E.02241
M73 P15 R2
G1 X139.782 Y139.47 E.19833
G1 X139.651 Y139.54 E.00535
G1 X139.541 Y139.649 E.00556
G1 X139.469 Y139.781 E.0054
G1 X135.256 Y135.568 E.21413
G1 X134.632 Y135.568 E.02241
G1 X139.432 Y140.368 E.24394
G1 X139.432 Y140.991 E.02241
G1 X134.009 Y135.568 E.27563
G1 X133.385 Y135.568 E.02241
G1 X139.432 Y141.615 E.30732
G1 X139.432 Y142.239 E.02241
M73 P16 R2
G1 X132.761 Y135.568 E.33902
G1 X132.138 Y135.568 E.02241
G1 X139.432 Y142.862 E.37071
G1 X139.432 Y143.486 E.02241
G1 X131.514 Y135.568 E.40241
G1 X130.89 Y135.568 E.02241
G1 X139.432 Y144.11 E.4341
M73 P17 R2
G1 X139.432 Y144.733 E.02241
G1 X130.568 Y135.869 E.45049
G1 X130.568 Y136.493 E.02241
G1 X139.432 Y145.357 E.45049
G1 X139.432 Y145.981 E.02241
G1 X130.568 Y137.116 E.45049
G1 X130.568 Y137.74 E.02241
M73 P18 R2
G1 X139.432 Y146.604 E.45049
G1 X139.432 Y147.228 E.02241
G1 X130.568 Y138.364 E.45049
G1 X130.568 Y138.987 E.02241
G1 X139.432 Y147.852 E.45049
G1 X139.432 Y148.475 E.02241
G1 X130.568 Y139.611 E.45049
G1 X130.568 Y140.235 E.02241
M73 P19 R2
G1 X139.432 Y149.099 E.45049
G1 X139.432 Y149.723 E.02241
G1 X130.568 Y140.858 E.45049
G1 X130.568 Y141.482 E.02241
G1 X139.432 Y150.346 E.45049
G1 X139.432 Y150.97 E.02241
M73 P20 R2
G1 X130.568 Y142.106 E.45049
G1 X130.568 Y142.729 E.02241
G1 X139.432 Y151.594 E.45049
G1 X139.432 Y152.217 E.02241
G1 X130.568 Y143.353 E.45049
G1 X130.568 Y143.977 E.02241
G1 X139.432 Y152.841 E.45049
G1 X139.432 Y153.465 E.02241
M73 P21 R2
G1 X130.568 Y144.6 E.45049
G1 X130.568 Y145.224 E.02241
G1 X139.432 Y154.088 E.45049
G1 X139.432 Y154.712 E.02241
G1 X130.568 Y145.848 E.45049
G1 X130.568 Y146.471 E.02241
M73 P22 R2
G1 X139.432 Y155.336 E.45049
G1 X139.432 Y155.959 E.02241
G1 X130.568 Y147.095 E.45049
G1 X130.568 Y147.719 E.02241
G1 X139.432 Y156.583 E.45049
G1 X139.432 Y157.207 E.02241
G1 X130.568 Y148.342 E.45049
G1 X130.568 Y148.966 E.02241
M73 P23 R2
G1 X139.432 Y157.83 E.45049
G1 X139.432 Y158.454 E.02241
G1 X130.568 Y149.59 E.45049
G1 X130.568 Y150.213 E.02241
G1 X139.432 Y159.078 E.45049
G1 X139.432 Y159.701 E.02241
M73 P24 R2
G1 X130.568 Y150.837 E.45049
G1 X130.568 Y151.461 E.02241
G1 X139.432 Y160.325 E.45049
G1 X139.432 Y160.949 E.02241
G1 X130.568 Y152.084 E.45049
G1 X130.568 Y152.708 E.02241
G1 X139.432 Y161.572 E.45049
G1 X139.432 Y162.196 E.02241
M73 P25 R2
G1 X130.568 Y153.332 E.45049
G1 X130.568 Y153.955 E.02241
G1 X139.432 Y162.82 E.45049
G1 X139.432 Y163.443 E.02241
G1 X130.568 Y154.579 E.45049
G1 X130.568 Y155.203 E.02241
M73 P26 R2
G1 X139.432 Y164.067 E.45049
G1 X139.432 Y164.432 E.01313
G1 X139.174 Y164.432 E.00929
G1 X130.568 Y155.826 E.43736
G1 X130.568 Y156.45 E.02241
G1 X138.55 Y164.432 E.40567
G1 X137.926 Y164.432 E.02241
G1 X130.568 Y157.074 E.37397
G1 X130.568 Y157.697 E.02241
M73 P27 R2
G1 X137.303 Y164.432 E.34228
G1 X136.679 Y164.432 E.02241
G1 X130.568 Y158.321 E.31058
G1 X130.568 Y158.945 E.02241
G1 X136.056 Y164.432 E.27889
G1 X135.432 Y164.432 E.02241
G1 X130.568 Y159.568 E.24719
G1 X130.568 Y160.192 E.02241
M73 P28 R2
G1 X134.808 Y164.432 E.2155
G1 X134.185 Y164.432 E.02241
G1 X130.568 Y160.815 E.1838
G1 X130.568 Y161.439 E.02241
G1 X133.561 Y164.432 E.15211
G1 X132.937 Y164.432 E.02241
G1 X130.568 Y162.063 E.12041
G1 X130.568 Y162.686 E.02241
G1 X132.314 Y164.432 E.08872
G1 X131.69 Y164.432 E.02241
G1 X130.568 Y163.31 E.05702
M73 P29 R2
G1 X130.568 Y163.934 E.02241
G1 X131.263 Y164.629 E.03532
; stop printing object pressure_advance_test.stl id:0 copy 0
M106 S255
;LAYER_CHANGE
;Z:0.4
;HEIGHT:0.2
;BEFORE_LAYER_CHANGE
;0.4



G1 E-.56 F1800
;WIPE_START
G1 F6300
G1 X130.568 Y163.934 E-.23592
G1 X130.568 Y163.917 E-.00408
;WIPE_END
EXCLUDE_OBJECT_END NAME=pressure_advance_test.stl_id_0_copy_0
;AFTER_LAYER_CHANGE
;0.4
ACTIVATE_EXTRUDER EXTRUDER=extruder
SYNC_EXTRUDER_MOTION EXTRUDER=extruder1 MOTION_QUEUE=extruder

;_SET_FAN_SPEED_CHANGING_LAYER
SET_VELOCITY_LIMIT ACCEL=800 ACCEL_TO_DECEL=240
M140 S55 ; set bed temperature
; printing object pressure_advance_test.stl id:0 copy 0
SET_VELOCITY_LIMIT ACCEL=1000 ACCEL_TO_DECEL=300
EXCLUDE_OBJECT_START NAME=pressure_advance_test.stl_id_0_copy_0
G1 Z.8 F6000
G1 X130.596 Y163.917 Z.8
G1 X139.404 Y139.404
G1 X139.871 Y139.404
G1 X139.871 Y139.836
G1 Z.4
G1 E.8 F1800
SET_VELOCITY_LIMIT ACCEL=400 ACCEL_TO_DECEL=120
;TYPE:Outer wall
;WIDTH:0.399999
G1 F2084
G1 X139.8 Y139.979 E.00465
G1 X139.8 Y164.8 E.72224
G1 X130.2 Y164.8 E.27934
M73 P30 R2
G1 X130.2 Y135.2 E.86128
G1 X169.8 Y135.2 E1.15226
G1 X169.8 Y139.8 E.13385
M73 P31 R2
G1 X139.979 Y139.8 E.86773
G1 X139.909 Y139.823 E.00212
M73 P32 R2
; stop printing object pressure_advance_test.stl id:0 copy 0
;LAYER_CHANGE
;Z:0.6
;HEIGHT:0.2
;BEFORE_LAYER_CHANGE
;0.6



G1 E-.56 F1800
;WIPE_START
G1 F2400
G1 X139.8 Y139.979 E-.04562
G1 X139.8 Y140.788 E-.19438
;WIPE_END
EXCLUDE_OBJECT_END NAME=pressure_advance_test.stl_id_0_copy_0
;AFTER_LAYER_CHANGE
;0.6
ACTIVATE_EXTRUDER EXTRUDER=extruder
SYNC_EXTRUDER_MOTION EXTRUDER=extruder1 MOTION_QUEUE=extruder

;_SET_FAN_SPEED_CHANGING_LAYER
; printing object pressure_advance_test.stl id:0 copy 0
SET_VELOCITY_LIMIT ACCEL=1000 ACCEL_TO_DECEL=300
EXCLUDE_OBJECT_START NAME=pressure_advance_test.stl_id_0_copy_0
G1 Z1 F6000
G1 X139.404 Y140.789 Z1
M73 P32 R1
G1 X139.404 Y139.404
G1 X139.871 Y139.404
G1 X139.871 Y139.836
G1 Z.6
G1 E.8 F1800
SET_VELOCITY_LIMIT ACCEL=400 ACCEL_TO_DECEL=120
G1 F2084
G1 X139.8 Y139.979 E.00465
G1 X139.8 Y164.8 E.72224
G1 X130.2 Y164.8 E.27934
M73 P33 R1
G1 X130.2 Y135.2 E.86128
G1 X169.8 Y135.2 E1.15226
G1 X169.8 Y139.8 E.13385
M73 P34 R1
G1 X139.979 Y139.8 E.86773
G1 X139.909 Y139.823 E.00212
M73 P35 R1
; stop printing object pressure_advance_test.stl id:0 copy 0
;LAYER_CHANGE
;Z:0.8
;HEIGHT:0.2
;BEFORE_LAYER_CHANGE
;0.8



G1 E-.56 F1800
;WIPE_START
G1 F2400
G1 X139.8 Y139.979 E-.04562
G1 X139.8 Y140.788 E-.19438
;WIPE_END
EXCLUDE_OBJECT_END NAME=pressure_advance_test.stl_id_0_copy_0
;AFTER_LAYER_CHANGE
;0.8
ACTIVATE_EXTRUDER EXTRUDER=extruder
SYNC_EXTRUDER_MOTION EXTRUDER=extruder1 MOTION_QUEUE=extruder

;_SET_FAN_SPEED_CHANGING_LAYER
; printing object pressure_advance_test.stl id:0 copy 0
SET_VELOCITY_LIMIT ACCEL=1000 ACCEL_TO_DECEL=300
EXCLUDE_OBJECT_START NAME=pressure_advance_test.stl_id_0_copy_0
G1 Z1.2 F6000
G1 X139.404 Y140.789 Z1.2
G1 X139.404 Y139.404
G1 X139.871 Y139.404
G1 X139.871 Y139.836
G1 Z.8
G1 E.8 F1800
SET_VELOCITY_LIMIT ACCEL=400 ACCEL_TO_DECEL=120
G1 F2084
G1 X139.8 Y139.979 E.00465
G1 X139.8 Y164.8 E.72224
G1 X130.2 Y164.8 E.27934
M73 P36 R1
G1 X130.2 Y135.2 E.86128
G1 X169.8 Y135.2 E1.15226
G1 X169.8 Y139.8 E.13385
M73 P37 R1
G1 X139.979 Y139.8 E.86773
G1 X139.909 Y139.823 E.00212
M73 P38 R1
; stop printing object pressure_advance_test.stl id:0 copy 0
;LAYER_CHANGE
;Z:1
;HEIGHT:0.2
;BEFORE_LAYER_CHANGE
;1



G1 E-.56 F1800
;WIPE_START
G1 F2400
G1 X139.8 Y139.979 E-.04562
G1 X139.8 Y140.788 E-.19438
;WIPE_END
EXCLUDE_OBJECT_END NAME=pressure_advance_test.stl_id_0_copy_0
;AFTER_LAYER_CHANGE
;1
ACTIVATE_EXTRUDER EXTRUDER=extruder
SYNC_EXTRUDER_MOTION EXTRUDER=extruder1 MOTION_QUEUE=extruder

;_SET_FAN_SPEED_CHANGING_LAYER
; printing object pressure_advance_test.stl id:0 copy 0
SET_VELOCITY_LIMIT ACCEL=1000 ACCEL_TO_DECEL=300
EXCLUDE_OBJECT_START NAME=pressure_advance_test.stl_id_0_copy_0
G1 Z1.4 F6000
G1 X139.404 Y140.789 Z1.4
G1 X139.404 Y139.404
G1 X139.871 Y139.404
G1 X139.871 Y139.836
G1 Z1
G1 E.8 F1800
SET_VELOCITY_LIMIT ACCEL=400 ACCEL_TO_DECEL=120
G1 F2084
G1 X139.8 Y139.979 E.00465
G1 X139.8 Y164.8 E.72224
G1 X130.2 Y164.8 E.27934
M73 P39 R1
G1 X130.2 Y135.2 E.86128
G1 X169.8 Y135.2 E1.15226
G1 X169.8 Y139.8 E.13385
M73 P40 R1
G1 X139.979 Y139.8 E.86773
G1 X139.909 Y139.823 E.00212
M73 P41 R1
; stop printing object pressure_advance_test.stl id:0 copy 0
;LAYER_CHANGE
;Z:1.2
;HEIGHT:0.2
;BEFORE_LAYER_CHANGE
;1.2



G1 E-.56 F1800
;WIPE_START
G1 F2400
G1 X139.8 Y139.979 E-.04562
G1 X139.8 Y140.788 E-.19438
;WIPE_END
EXCLUDE_OBJECT_END NAME=pressure_advance_test.stl_id_0_copy_0
;AFTER_LAYER_CHANGE
;1.2
ACTIVATE_EXTRUDER EXTRUDER=extruder
SYNC_EXTRUDER_MOTION EXTRUDER=extruder1 MOTION_QUEUE=extruder

;_SET_FAN_SPEED_CHANGING_LAYER
; printing object pressure_advance_test.stl id:0 copy 0
SET_VELOCITY_LIMIT ACCEL=1000 ACCEL_TO_DECEL=300
EXCLUDE_OBJECT_START NAME=pressure_advance_test.stl_id_0_copy_0
G1 Z1.6 F6000
G1 X139.404 Y140.789 Z1.6
G1 X139.404 Y139.404
G1 X139.871 Y139.404
G1 X139.871 Y139.836
G1 Z1.2
G1 E.8 F1800
SET_VELOCITY_LIMIT ACCEL=400 ACCEL_TO_DECEL=120
G1 F2084
G1 X139.8 Y139.979 E.00465
G1 X139.8 Y164.8 E.72224
G1 X130.2 Y164.8 E.27934
G1 X130.2 Y135.2 E.86128
M73 P42 R1
G1 X169.8 Y135.2 E1.15226
G1 X169.8 Y139.8 E.13385
M73 P43 R1
G1 X139.979 Y139.8 E.86773
G1 X139.909 Y139.823 E.00212
M73 P44 R1
; stop printing object pressure_advance_test.stl id:0 copy 0
;LAYER_CHANGE
;Z:1.4
;HEIGHT:0.2
;BEFORE_LAYER_CHANGE
;1.4



G1 E-.56 F1800
;WIPE_START
G1 F2400
G1 X139.8 Y139.979 E-.04562
G1 X139.8 Y140.788 E-.19438
;WIPE_END
EXCLUDE_OBJECT_END NAME=pressure_advance_test.stl_id_0_copy_0
;AFTER_LAYER_CHANGE
;1.4
ACTIVATE_EXTRUDER EXTRUDER=extruder
SYNC_EXTRUDER_MOTION EXTRUDER=extruder1 MOTION_QUEUE=extruder

;_SET_FAN_SPEED_CHANGING_LAYER
; printing object pressure_advance_test.stl id:0 copy 0
SET_VELOCITY_LIMIT ACCEL=1000 ACCEL_TO_DECEL=300
EXCLUDE_OBJECT_START NAME=pressure_advance_test.stl_id_0_copy_0
G1 Z1.8 F6000
G1 X139.404 Y140.789 Z1.8
G1 X139.404 Y139.404
G1 X139.871 Y139.404
G1 X139.871 Y139.836
G1 Z1.4
G1 E.8 F1800
SET_VELOCITY_LIMIT ACCEL=400 ACCEL_TO_DECEL=120
G1 F2084
G1 X139.8 Y139.979 E.00465
G1 X139.8 Y164.8 E.72224
G1 X130.2 Y164.8 E.27934
G1 X130.2 Y135.2 E.86128
M73 P45 R1
G1 X169.8 Y135.2 E1.15226
G1 X169.8 Y139.8 E.13385
M73 P46 R1
G1 X139.979 Y139.8 E.86773
G1 X139.909 Y139.823 E.00212
; stop printing object pressure_advance_test.stl id:0 copy 0
;LAYER_CHANGE
;Z:1.6
;HEIGHT:0.2
;BEFORE_LAYER_CHANGE
;1.6



G1 E-.56 F1800
M73 P47 R1
;WIPE_START
G1 F2400
G1 X139.8 Y139.979 E-.04562
G1 X139.8 Y140.788 E-.19438
;WIPE_END
EXCLUDE_OBJECT_END NAME=pressure_advance_test.stl_id_0_copy_0
;AFTER_LAYER_CHANGE
;1.6
ACTIVATE_EXTRUDER EXTRUDER=extruder
SYNC_EXTRUDER_MOTION EXTRUDER=extruder1 MOTION_QUEUE=extruder

;_SET_FAN_SPEED_CHANGING_LAYER
; printing object pressure_advance_test.stl id:0 copy 0
SET_VELOCITY_LIMIT ACCEL=1000 ACCEL_TO_DECEL=300
EXCLUDE_OBJECT_START NAME=pressure_advance_test.stl_id_0_copy_0
G1 Z2 F6000
G1 X139.404 Y140.789 Z2
G1 X139.404 Y139.404
G1 X139.871 Y139.404
G1 X139.871 Y139.836
G1 Z1.6
G1 E.8 F1800
SET_VELOCITY_LIMIT ACCEL=400 ACCEL_TO_DECEL=120
G1 F2084
G1 X139.8 Y139.979 E.00465
G1 X139.8 Y164.8 E.72224
G1 X130.2 Y164.8 E.27934
G1 X130.2 Y135.2 E.86128
M73 P48 R1
G1 X169.8 Y135.2 E1.15226
G1 X169.8 Y139.8 E.13385
M73 P49 R1
G1 X139.979 Y139.8 E.86773
G1 X139.909 Y139.823 E.00212
; stop printing object pressure_advance_test.stl id:0 copy 0
;LAYER_CHANGE
