; HEADER_BLOCK_START
; generated by OrcaSlicer 2.3.1 on 2026-03-19 at 14:43:18
; total layer number: 177
; filament_density: 1.24
; filament_diameter: 1.75
; max_z_height: 35.20
; HEADER_BLOCK_END

; THUMBNAIL_BLOCK_START

;
; THUMBNAIL_BLOCK_END

; THUMBNAIL_BLOCK_START

;
; THUMBNAIL_BLOCK_END

; external perimeters extrusion width = 0.40mm
; perimeters extrusion width = 0.44mm
; infill extrusion width = 0.44mm
; solid infill extrusion width = 0.48mm
; top infill extrusion width = 0.38mm
; first layer extrusion width = 0.48mm

; EXECUTABLE_BLOCK_START
EXCLUDE_OBJECT_DEFINE NAME=Rose_3cm_slim.stl_id_0_copy_0 CENTER=76.9352,146.478 POLYGON=[[60.0603,144.9],[60.0626,144.792],[60.0688,144.684],[60.0777,144.577],[60.0893,144.469],[61.0127,137.471],[61.027,137.364],[61.0439,137.256],[61.0762,137.075],[61.084,137.041],[61.107,136.951],[61.1835,136.675],[61.1984,136.626],[61.29,136.354],[61.3075,136.306],[61.402,136.068],[61.4398,135.983],[61.5057,135.842],[61.5417,135.769],[61.634,135.602],[61.6743,135.534],[61.7198,135.458],[61.8226,135.294],[61.8629,135.234],[61.9339,135.136],[61.974,135.083],[62.0278,135.013],[62.1412,134.867],[62.1982,134.799],[62.2422,134.749],[62.286,134.7],[62.3601,134.62],[62.3792,134.6],[62.4677,134.511],[62.4878,134.492],[62.5733,134.409],[62.6057,134.38],[62.6706,134.324],[62.731,134.272],[62.8236,134.199],[62.8774,134.157],[62.9485,134.103],[63.1063,133.986],[63.1515,133.955],[63.4211,133.787],[63.4991,133.743],[63.6409,133.665],[63.6987,133.636],[63.8526,133.564],[63.9275,133.531],[64.1836,133.429],[64.1967,133.424],[72.2675,130.737],[72.3376,130.715],[72.4453,130.685],[72.5529,130.657],[72.6275,130.639],[72.681,130.628],[72.7682,130.611],[79.6614,129.333],[79.8737,129.299],[79.9813,129.285],[80.089,129.275],[80.1966,129.266],[80.3043,129.26],[80.5343,129.249],[80.6273,129.249],[80.7177,129.25],[80.9502,129.262],[81.0579,129.269],[81.1656,129.278],[81.2732,129.289],[81.3809,129.303],[81.5906,129.333],[81.5962,129.334],[81.6875,129.353],[82.0413,129.443],[82.1152,129.466],[82.3638,129.549],[82.4374,129.577],[82.6263,129.654],[82.6449,129.662],[82.7804,129.727],[82.8561,129.763],[82.91,129.79],[82.9958,129.835],[83.0658,129.872],[83.237,129.972],[83.295,130.008],[83.3987,130.079],[83.551,130.184],[83.6216,130.237],[83.697,130.295],[83.7126,130.307],[83.8241,130.402],[83.8779,130.448],[83.9385,130.502],[83.9924,130.552],[84.0495,130.606],[84.1034,130.657],[84.1567,130.711],[84.2106,130.768],[84.2604,130.822],[84.3142,130.881],[84.3619,130.934],[84.4157,130.999],[84.5345,131.144],[84.5768,131.2],[89.5863,137.998],[89.6254,138.051],[89.668,138.117],[89.7133,138.189],[89.7458,138.243],[89.7983,138.333],[89.8308,138.389],[93.1837,144.564],[93.26,144.707],[93.2907,144.768],[93.36,144.919],[93.3936,145],[93.4861,145.241],[93.5045,145.293],[93.5926,145.562],[93.6102,145.621],[93.7034,145.988],[93.7163,146.047],[93.74,146.192],[93.7571,146.299],[93.7717,146.407],[93.7832,146.515],[93.803,146.748],[93.807,146.838],[93.8099,146.945],[93.8101,147.053],[93.8078,147.161],[93.8042,147.252],[93.7938,147.376],[93.7845,147.484],[93.7732,147.591],[93.7595,147.699],[93.743,147.807],[93.7162,147.969],[93.7085,148.007],[93.6507,148.237],[93.6102,148.39],[93.5976,148.431],[93.5038,148.705],[93.4859,148.752],[93.3966,148.963],[93.3719,149.017],[93.3337,149.098],[93.2927,149.183],[93.2653,149.237],[93.2244,149.314],[93.1824,149.39],[93.0768,149.572],[93.0551,149.607],[92.866,149.882],[87.8979,156.801],[87.8537,156.855],[87.8001,156.919],[87.7521,156.973],[87.6982,157.032],[82.8233,162.168],[82.7695,162.222],[82.7157,162.276],[82.6618,162.327],[82.6032,162.381],[82.5494,162.427],[82.4857,162.481],[82.3182,162.62],[82.3068,162.629],[82.219,162.696],[82.1623,162.737],[81.8944,162.922],[81.8497,162.951],[81.6739,163.054],[81.5962,163.098],[81.5244,163.138],[81.3619,163.225],[81.2796,163.265],[81.032,163.369],[81.0171,163.375],[80.7138,163.481],[80.3943,163.572],[80.333,163.586],[80.1966,163.613],[80.089,163.634],[79.9813,163.652],[79.8556,163.673],[79.766,163.684],[79.6584,163.694],[79.6482,163.695],[79.443,163.705],[79.3354,163.707],[79.2277,163.708],[79.1201,163.707],[78.9047,163.697],[78.8593,163.695],[78.7971,163.69],[78.6996,163.68],[78.4741,163.646],[78.3665,163.628],[78.2588,163.608],[78.1397,163.584],[78.0628,163.564],[77.7678,163.481],[77.7452,163.473],[69.7538,160.936],[69.6583,160.903],[69.6046,160.882],[69.5385,160.856],[69.4308,160.81],[69.3684,160.783],[62.9912,157.741],[62.8445,157.671],[62.7772,157.636],[62.6661,157.571],[62.4769,157.458],[62.4626,157.449],[62.3162,157.351],[62.2359,157.295],[62.1797,157.255],[62.1377,157.224],[61.9769,157.097],[61.91,157.043],[61.7675,156.927],[61.6978,156.866],[61.658,156.829],[61.5945,156.77],[61.5421,156.718],[61.4877,156.664],[61.4367,156.611],[61.3753,156.544],[61.3465,156.511],[61.2798,156.433],[61.1681,156.292],[61.1143,156.223],[61.073,156.169],[61.0001,156.072],[60.961,156.016],[60.8562,155.852],[60.7939,155.754],[60.7494,155.678],[60.6698,155.534],[60.6424,155.481],[60.5628,155.319],[60.5367,155.262],[60.4511,155.05],[60.4299,154.996],[60.4001,154.912],[60.364,154.804],[60.34,154.731],[60.3231,154.678],[60.298,154.589],[60.2364,154.355],[60.2203,154.283],[60.1984,154.158],[60.1798,154.051],[60.164,153.943],[60.1509,153.835],[60.1395,153.728],[60.1276,153.608],[60.1224,153.512],[60.1181,153.405],[60.1162,153.297],[60.0603,144.9]]
M73 P0 R128
;TYPE:Custom
START_PRINT EXTRUDER=0 EXTRUDERS=2 MODE=MIRROR EXTRUDER_TEMP=220 EXTRUDER1_TEMP=220 BED_TEMP=55 
G90
G21
M83 ; use relative distances for extrusion
; Filament gcode

M106 S0
;LAYER_CHANGE
;Z:0.2
;HEIGHT:0.2
;BEFORE_LAYER_CHANGE
;0.2



G1 Z.2 F6000
;AFTER_LAYER_CHANGE
;0.2
ACTIVATE_EXTRUDER EXTRUDER=extruder
SYNC_EXTRUDER_MOTION EXTRUDER=extruder1 MOTION_QUEUE=extruder

;_SET_FAN_SPEED_CHANGING_LAYER
SET_VELOCITY_LIMIT ACCEL=300 ACCEL_TO_DECEL=90
; printing object Rose_3cm_slim.stl id:0 copy 0
G1 E-.8 F1800
G1 Z.6 F6000
EXCLUDE_OBJECT_START NAME=Rose_3cm_slim.stl_id_0_copy_0
G1 X69.308 Y136.409
G1 Z.2
G1 Z.2
G1 E.8 F1800
;TYPE:Outer wall
;WIDTH:0.479999
G1 F3000
G1 X70.147 Y135.984 E.03347
G1 X70.888 Y135.671 E.02867
G1 X71.836 Y135.343 E.03572
G1 X72.585 Y135.141 E.02762
G1 X73.196 Y135.024 E.02216
G1 X73.848 Y134.925 E.02349
G1 X74.52 Y134.849 E.02409
G1 X74.81 Y134.723 E.01127
G1 X74.941 Y134.517 E.00868
G1 X74.991 Y134.206 E.01121
G1 X75.068 Y134.099 E.0047
G1 X75.641 Y134.037 E.02052
G1 X76.311 Y134.039 E.02385
G1 X77.275 Y134.119 E.03445
G1 X78.1 Y134.261 E.02982
G1 X79.26 Y134.582 E.0429
G1 X79.893 Y134.808 E.02391
G1 X80.836 Y135.226 E.03675
G1 X81.576 Y135.639 E.03018
G1 X82.09 Y135.971 E.02179
G1 X82.864 Y136.558 E.0346
G1 X83.472 Y137.108 E.02924
G1 X83.885 Y137.532 E.02107
G1 X84.235 Y137.928 E.01881
G1 X84.663 Y138.453 E.02411
G1 X85.144 Y139.117 E.02923
G1 X85.596 Y139.849 E.03063
G1 X85.88 Y140.385 E.0216
G1 X86.349 Y141.377 E.03907
G1 X86.506 Y141.574 E.00899
G1 X86.697 Y141.67 E.00758
G1 X87.016 Y141.632 E.01144
G1 X87.23 Y141.667 E.00774
G1 X87.367 Y141.983 E.01227
G1 X87.634 Y142.726 E.0281
G1 X87.868 Y143.673 E.03475
G1 X87.972 Y144.303 E.02277
G1 X88.027 Y144.85 E.01956
G1 X88.055 Y145.486 E.0227
G1 X88.058 Y146.025 E.01918
G1 X88.031 Y146.657 E.02253
G1 X87.921 Y147.597 E.03373
G1 X87.819 Y148.123 E.01907
G1 X87.603 Y148.962 E.03086
G1 X87.392 Y149.59 E.02358
G1 X87.182 Y150.111 E.02001
G1 X86.721 Y151.041 E.03699
G1 X86.461 Y151.491 E.01851
G1 X86.078 Y152.091 E.02535
G1 X85.775 Y152.518 E.01866
G1 X85.363 Y153.048 E.02389
G1 X84.351 Y154.166 E.0537
G1 X84.07 Y154.404 E.01314
G1 X83.673 Y154.485 E.01443
G1 X83.022 Y154.516 E.02321
G1 X81.915 Y154.702 E.03998
G1 X80.853 Y154.838 E.03812
G1 X79.841 Y155.03 E.0367
G1 X78.802 Y155.109 E.03709
G1 X78.244 Y155.235 E.02038
G1 X77.64 Y155.589 E.02496
G1 X77.389 Y155.914 E.01463
G1 X77.328 Y156.216 E.01096
G1 X77.392 Y156.608 E.01413
G1 X77.736 Y156.956 E.01744
G1 X77.95 Y157.072 E.00869
G1 X78.842 Y157.053 E.03178
;WIDTH:0.521276
G1 X78.914 Y157.065 E.00284
;WIDTH:0.562552
G1 X78.986 Y157.078 E.00308
;WIDTH:0.603829
G1 X79.058 Y157.09 E.00333
;WIDTH:0.645105
G1 X79.129 Y157.103 E.00357
;WIDTH:0.686381
G1 X79.201 Y157.116 E.00382
G1 X79.813 Y157.007 E.03261
;WIDTH:0.645737
G1 X80.672 Y156.763 E.04385
;WIDTH:0.609978
G1 X81.385 Y156.512 E.03493
;WIDTH:0.571024
G1 X81.811 Y156.337 E.01981
;WIDTH:0.536416
G1 X82.237 Y156.162 E.01851
;WIDTH:0.501808
G1 X82.802 Y155.954 E.02253
G1 X83.531 Y155.78 E.02802
G1 X82.934 Y156.238 E.02814
G1 X82.427 Y156.578 E.02284
;WIDTH:0.536951
G1 X81.992 Y156.795 E.01956
;WIDTH:0.572094
G1 X81.557 Y157.012 E.02095
;WIDTH:0.613238
G1 X80.649 Y157.37 E.04539
;WIDTH:0.649902
G1 X79.908 Y157.608 E.03847
;WIDTH:0.686381
G1 X79.33 Y157.745 E.03114
G1 X79.251 Y157.784 E.00463
;WIDTH:0.645105
G1 X79.172 Y157.824 E.00434
;WIDTH:0.603829
G1 X79.093 Y157.864 E.00404
;WIDTH:0.562552
G1 X79.015 Y157.904 E.00374
;WIDTH:0.521276
G1 X78.936 Y157.943 E.00344
;WIDTH:0.479999
G1 X78.012 Y158.088 E.03329
G1 X77.255 Y158.16 E.0271
G1 X76.398 Y158.165 E.03051
G1 X75.516 Y158.097 E.03152
G1 X74.636 Y157.955 E.03175
G1 X73.802 Y157.763 E.03049
G1 X72.606 Y157.382 E.04468
G1 X71.941 Y157.111 E.0256
G1 X71.273 Y156.785 E.02648
G1 X70.207 Y156.215 E.04302
G1 X69.879 Y156.325 E.01234
G1 X69.67 Y156.53 E.0104
G1 X69.487 Y156.573 E.00673
G1 X69.03 Y156.312 E.01873
G1 X68.373 Y155.826 E.0291
G1 X67.755 Y155.287 E.0292
G1 X67.131 Y154.644 E.03193
G1 X66.797 Y154.246 E.01849
G1 X66.301 Y153.585 E.02945
G1 X65.884 Y152.952 E.02697
G1 X65.327 Y151.909 E.04213
G1 X64.933 Y150.948 E.03701
G1 X64.705 Y150.222 E.0271
G1 X64.493 Y149.274 E.0346
G1 X64.398 Y148.634 E.02303
G1 X64.35 Y148.112 E.01866
G1 X64.307 Y147.264 E.03025
G1 X64.316 Y146.709 E.01976
G1 X64.336 Y146.2 E.01817
G1 X64.411 Y145.522 E.02427
G1 X64.675 Y143.89 E.0589
G1 X64.512 Y143.616 E.01135
G1 X64.157 Y143.394 E.01491
G1 X64.122 Y143.293 E.00381
G1 X64.295 Y142.575 E.02632
G1 X64.601 Y141.727 E.03213
G1 X64.975 Y140.922 E.0316
G1 X65.401 Y140.182 E.03042
G1 X65.996 Y139.326 E.03711
G1 X66.602 Y138.585 E.03412
G1 X67.201 Y137.969 E.03059
G1 X67.638 Y137.575 E.02096
G1 X68.055 Y137.238 E.01908
G1 X68.584 Y136.854 E.02329
G1 X69.274 Y136.43 E.02885
G1 E-.56 F1800
;WIPE_START
G1 F3000
G1 X70.147 Y135.984 E-.23511
G1 X70.165 Y135.976 E-.00489
;WIPE_END
G1 Z.6 F6000
G1 X70.334 Y136.355 Z.2
G1 X81.668 Y136.188
G1 X81.749 Y136.243
G1 X81.907 Y136.008
G1 E.8 F1800
;TYPE:Bottom surface
;WIDTH:0.482723
G1 F6300
G1 X83.644 Y137.755 E.08828
G1 X84.403 Y138.653 E.04216
G1 X84.871 Y139.3 E.02862
G1 X85.338 Y140.062 E.03203
G1 X80.929 Y135.653 E.22348
G1 X80.69 Y135.519 E.00983
G1 X79.765 Y135.111 E.03622
G1 X87.247 Y142.593 E.37923
G1 X87.482 Y143.45 E.03182
G1 X78.838 Y134.805 E.43812
G1 X77.984 Y134.574 E.0317
G1 X87.632 Y144.222 E.48898
G1 X87.702 Y144.914 E.02493
G1 X77.233 Y134.445 E.53059
G1 X76.555 Y134.388 E.02441
G1 X87.728 Y145.561 E.56629
G1 X87.723 Y146.179 E.02213
G1 X75.91 Y134.365 E.59874
G1 X75.691 Y134.365 E.00784
G1 X75.324 Y134.402 E.01321
G1 X87.688 Y146.766 E.62665
G1 X87.623 Y147.322 E.02008
G1 X75.138 Y134.838 E.63276
G1 X75.107 Y134.895 E.00232
G1 X74.955 Y135.02 E.00708
G1 X74.779 Y135.101 E.00692
G1 X87.536 Y147.858 E.64656
G1 X87.419 Y148.362 E.01856
G1 X74.263 Y135.207 E.66675
G1 X73.717 Y135.283 E.01977
G1 X87.291 Y148.857 E.68798
G1 X87.136 Y149.323 E.01762
G1 X73.174 Y135.362 E.70761
G1 X72.652 Y135.462 E.01904
G1 X86.964 Y149.774 E.72537
G1 X86.771 Y150.202 E.01685
G1 X72.163 Y135.594 E.74036
G1 X71.688 Y135.741 E.01782
G1 X86.565 Y150.618 E.75401
G1 X86.351 Y151.027 E.01651
G1 X71.226 Y135.901 E.76661
G1 X70.776 Y136.074 E.01725
G1 X86.119 Y151.417 E.77763
G1 X85.877 Y151.796 E.01614
G1 X70.339 Y136.258 E.78751
G1 X69.923 Y136.464 E.01663
G1 X85.624 Y152.165 E.79575
G1 X85.358 Y152.521 E.01593
G1 X69.51 Y136.674 E.80319
G1 X69.123 Y136.908 E.01624
G1 X85.083 Y152.869 E.80894
G1 X84.788 Y153.195 E.01578
G1 X68.739 Y137.147 E.81338
G1 X68.379 Y137.408 E.01596
G1 X84.492 Y153.521 E.81669
G1 X84.197 Y153.848 E.01578
G1 X68.029 Y137.68 E.81943
G1 X67.693 Y137.967 E.01581
G1 X83.853 Y154.126 E.81904
G1 X83.763 Y154.153 E.00336
G1 X83.281 Y154.177 E.01729
G1 X67.37 Y138.265 E.80642
G1 X67.064 Y138.581 E.01576
M73 P0 R127
G1 X82.718 Y154.235 E.79339
G1 X82.185 Y154.324 E.01935
G1 X66.765 Y138.904 E.78155
G1 X66.485 Y139.246 E.01584
G1 X81.65 Y154.411 E.76859
G1 X81.095 Y154.478 E.02002
G1 X66.21 Y139.593 E.75443
G1 X65.955 Y139.96 E.01601
G1 X80.555 Y154.56 E.74002
G1 X80.033 Y154.66 E.01907
G1 X65.7 Y140.327 E.72644
G1 X65.47 Y140.719 E.01629
G1 X79.48 Y154.729 E.71007
G1 X78.903 Y154.774 E.02074
G1 X65.246 Y141.117 E.69219
G1 X65.049 Y141.542 E.01678
G1 X78.374 Y154.867 E.67539
G1 X78.146 Y154.917 E.00837
G1 X77.928 Y155.043 E.00901
G1 X64.86 Y141.975 E.66234
G1 X64.695 Y142.432 E.01741
G1 X77.535 Y155.271 E.65076
G1 X77.34 Y155.415 E.00867
G1 X77.223 Y155.582 E.00729
G1 X64.551 Y142.91 E.64224
G1 X64.481 Y143.2 E.01071
G1 X64.613 Y143.274 E.00541
G1 X64.755 Y143.393 E.00661
G1 X64.954 Y143.676 E.0124
G1 X65.004 Y143.883 E.00763
G1 X65.001 Y143.981 E.00354
G1 X77.208 Y156.189 E.6187
G1 E-.56 F1800
;WIPE_START
G1 F6300
G1 X76.501 Y155.482 E-.24
;WIPE_END
G1 Z.6 F6000
G1 X76.96 Y155.802 Z.2
G1 X76.956 Y155.808
G1 X76.905 Y156.252
G1 X77.029 Y156.788
G1 X77.783 Y157.256
G1 X78.219 Y157.231
G1 X78.217 Y157.198
G1 E.8 F1800
G1 F6300
G1 X78.677 Y157.658 E.02334
G1 X78.143 Y157.746 E.01941
G1 X64.914 Y144.517 E.67046
G1 X64.813 Y145.037 E.019
G1 X77.577 Y157.802 E.64694
G1 X77.269 Y157.832 E.01111
G1 X76.988 Y157.835 E.01005
G1 X64.734 Y145.58 E.6211
G1 X64.669 Y146.137 E.02009
G1 X76.366 Y157.835 E.59288
G1 X75.701 Y157.792 E.02387
G1 X64.643 Y146.734 E.56046
G1 X64.639 Y147.352 E.02214
G1 X74.976 Y157.689 E.52391
G1 X74.186 Y157.521 E.02896
G1 X64.673 Y148.007 E.48217
G1 X64.739 Y148.695 E.02478
G1 X73.318 Y157.275 E.43483
G1 X72.956 Y157.165 E.01356
G1 X72.357 Y156.935 E.023
G1 X64.867 Y149.446 E.37959
G1 X65.061 Y150.262 E.03005
G1 X71.152 Y156.353 E.30871
G1 X70.308 Y155.911 E.03413
G1 X70.155 Y155.892 E.00554
G1 X70.079 Y155.901 E.00277
G1 X65.4 Y151.222 E.23714
G1 X65.624 Y151.769 E.02119
G1 X65.967 Y152.412 E.02611
G1 X69.649 Y156.093 E.18658
G1 X69.515 Y156.209 E.00634
G1 X69.209 Y156.037 E.01259
G1 X68.579 Y155.57 E.0281
G1 X67.995 Y155.061 E.02777
G1 X66.342 Y153.408 E.08377
; stop printing object Rose_3cm_slim.stl id:0 copy 0
M106 S255
;LAYER_CHANGE
;Z:0.4
;HEIGHT:0.2
;BEFORE_LAYER_CHANGE
;0.4



EXCLUDE_OBJECT_END NAME=Rose_3cm_slim.stl_id_0_copy_0
G1 Z.4 F6000
;AFTER_LAYER_CHANGE
;0.4
ACTIVATE_EXTRUDER EXTRUDER=extruder
SYNC_EXTRUDER_MOTION EXTRUDER=extruder1 MOTION_QUEUE=extruder

;_SET_FAN_SPEED_CHANGING_LAYER
SET_VELOCITY_LIMIT ACCEL=800 ACCEL_TO_DECEL=240
M140 S55 ; set bed temperature
; printing object Rose_3cm_slim.stl id:0 copy 0
SET_VELOCITY_LIMIT ACCEL=1000 ACCEL_TO_DECEL=300
EXCLUDE_OBJECT_START NAME=Rose_3cm_slim.stl_id_0_copy_0
G1 X66.421 Y153.352 Z.4
G1 X66.423 Y153.355
G1 X66.101 Y153.583
SET_VELOCITY_LIMIT ACCEL=400 ACCEL_TO_DECEL=120
;TYPE:Outer wall
;WIDTH:0.399999
G1 F2400
G1 X66.056 Y153.521 E.00224
G1 X65.758 Y153.065 E.01586
G1 X65.415 Y152.467 E.02004
G1 X65.051 Y151.709 E.02448
G1 X64.837 Y151.181 E.01656
G1 X64.655 Y150.654 E.01624
G1 X64.479 Y150.026 E.01898
G1 X64.361 Y149.486 E.01608
G1 X64.232 Y148.645 E.02476
G1 X64.155 Y147.69 E.02788
G1 X64.145 Y146.841 E.0247
G1 X64.172 Y146.207 E.01846
G1 X64.242 Y145.577 E.01843
G1 X64.527 Y143.937 E.04845
G1 X64.42 Y143.701 E.00753
G1 X64.033 Y143.455 E.01333
G1 X63.956 Y143.362 E.00354
G1 X64.001 Y143.004 E.0105
G1 X64.174 Y142.416 E.01783
G1 X64.493 Y141.568 E.02635
G1 X64.906 Y140.71 E.0277
G1 X65.366 Y139.939 E.02613
G1 X65.992 Y139.059 E.03143
G1 X66.572 Y138.368 E.02628
G1 X67.151 Y137.783 E.02394
G1 X67.61 Y137.376 E.01786
G1 X68.012 Y137.056 E.01493
G1 X68.631 Y136.621 E.02202
G1 X69.354 Y136.192 E.02447
G1 X70.066 Y135.837 E.02313
G1 X70.982 Y135.459 E.02885
G1 X71.864 Y135.168 E.027
G1 X72.601 Y134.979 E.02215
G1 X73.893 Y134.772 E.03808
G1 X74.554 Y134.688 E.01938
