;FLAVOR:Marlin
;TIME:2633
;Filament used: 2.14446m
;Layer height: 0.2
;MINX:57.141
;MINY:133.509
;MINZ:0.3
;MAXX:91.655
;MAXY:168.005
;MAXZ:35.5
;TARGET_MACHINE.NAME:SV04 Copy Mode
;Generated with Cura_SteamEngine 5.12.0
;SV04 start
M140 S60;
M104 S200;
M280 P0 S160;
G4 P100;
G28;
M420 S1;
M190 S60;
M109 S200;
G92 E0;
G1 X10.1 Y20 Z0.28 F5000.0;
G1 X10.1 Y200.0 Z0.28 F1500.0 E15;
G1 X10.4 Y200.0 Z0.28 F5000.0;
G1 X10.4 Y20 Z0.28 F1500.0 E30;
G92 E0 ;Reset Extruder
G1 Z2.0 F3000;
M82 ;absolute extrusion mode
G92 E0
G92 E0
G1 F2400 E-0.5
;LAYER_COUNT:176
;LAYER:0
M107
M204 S500
M205 X16 Y16
G0 F1200 X65.608 Y136.147 Z0.3
M205 X8 Y8
;TYPE:SKIRT
G1 F2400 E0
G1 F1200 X66.405 Y135.779 E0.06569
G1 X67.334 Y135.407 E0.14058
G1 X70.427 Y134.265 E0.38732
G1 X70.972 Y134.047 E0.43125
G1 X71.644 Y133.802 E0.48478
G1 X72.468 Y133.595 E0.54836
G1 X73.352 Y133.528 E0.6147
G1 X74.413 Y133.509 E0.69411
G1 X75.766 Y133.609 E0.79564
G1 X76.729 Y133.759 E0.86858
G1 X77.761 Y133.973 E0.94745
G1 X79.646 Y134.564 E1.09529
G1 X80.35 Y134.853 E1.15224
G1 X81.28 Y135.288 E1.22907
G1 X82.039 Y135.699 E1.29366
G1 X82.684 Y136.094 E1.35026
G1 X83.345 Y136.55 E1.41036
G1 X83.949 Y137.004 E1.4669
G1 X84.59 Y137.553 E1.53006
G1 X84.999 Y137.938 E1.5721
G1 X85.497 Y138.437 E1.62486
G1 X85.864 Y138.842 E1.66576
G1 X86.45 Y139.535 E1.73367
G1 X88.188 Y141.734 E1.94343
G1 X88.656 Y142.297 E1.99822
G1 X89.36 Y143.179 E2.08267
G1 X89.801 Y143.857 E2.1432
G1 X90.083 Y144.452 E2.19247
G1 X90.38 Y145.32 E2.26113
G1 X90.674 Y146.305 E2.33805
G1 X90.869 Y147.182 E2.40529
G1 X91.039 Y148.222 E2.48415
G1 X91.143 Y149.286 E2.56415
G1 X91.175 Y151.034 E2.69499
G1 X91.094 Y151.995 E2.76716
G1 X90.966 Y152.952 E2.83941
G1 X90.737 Y154.109 E2.92768
G1 X90.58 Y154.713 E2.97438
G1 X90.29 Y155.613 E3.04514
G1 X89.762 Y156.943 E3.15223
G1 X89.185 Y158.062 E3.24645
G1 X88.805 Y158.718 E3.30318
G1 X88.096 Y159.783 E3.39893
G1 X86.887 Y161.54 E3.55853
G1 X86.509 Y162.121 E3.6104
G1 X85.631 Y163.412 E3.72724
G1 X85.002 Y164.093 E3.79662
G1 X84.164 Y164.721 E3.87499
G1 X83.663 Y165.07 E3.92068
G1 X82.908 Y165.535 E3.98703
G1 X81.876 Y166.097 E4.07497
G1 X80.968 Y166.504 E4.14944
G1 X79.313 Y167.092 E4.28088
G1 X78.3 Y167.359 E4.35927
G1 X77.534 Y167.522 E4.41788
G1 X76.176 Y167.698 E4.52036
G1 X75.543 Y167.75 E4.56789
G1 X74.863 Y167.761 E4.61878
G1 X73.939 Y167.732 E4.68796
G1 X73.314 Y167.685 E4.73487
G1 X72.31 Y167.562 E4.81056
G1 X71.47 Y167.388 E4.87476
G1 X70.655 Y167.191 E4.93751
G1 X69.586 Y166.897 E5.02048
G1 X68.562 Y166.601 E5.10025
G1 X67.381 Y166.297 E5.19151
G1 X66.013 Y165.921 E5.29768
G1 X65.479 Y165.712 E5.34059
G1 X64.617 Y165.249 E5.41382
G1 X64.027 Y164.846 E5.46729
G1 X63.536 Y164.483 E5.51298
G1 X62.949 Y164.011 E5.56935
G1 X62.191 Y163.307 E5.64677
G1 X61.572 Y162.686 E5.71238
G1 X60.928 Y161.919 E5.78733
G1 X59.935 Y160.595 E5.91118
G1 X59.391 Y159.689 E5.99027
G1 X59.01 Y158.987 E6.05004
G1 X58.491 Y157.877 E6.14174
G1 X58.101 Y156.775 E6.22922
G1 X57.789 Y155.674 E6.31486
G1 X57.504 Y154.284 E6.42104
G1 X57.37 Y153.046 E6.51423
G1 X57.141 Y147.854 E6.90315
G1 X57.171 Y147.061 E6.96254
G1 X57.412 Y146.07 E7.03886
G1 X57.691 Y145.171 E7.10931
G1 X58.076 Y144.154 E7.19068
G1 X58.477 Y143.3 E7.26129
G1 X59.184 Y142.039 E7.36948
G1 X59.455 Y141.618 E7.40694
G1 X60.111 Y140.695 E7.49169
G1 X60.874 Y139.771 E7.58136
G1 X61.533 Y139.064 E7.65369
G1 X62.01 Y138.608 E7.70307
G1 X62.745 Y137.971 E7.77586
G1 X63.199 Y137.61 E7.81927
G1 X63.79 Y137.195 E7.87331
G1 X64.715 Y136.605 E7.95541
G1 X65.608 Y136.147 E8.03052
M205 X16 Y16
G0 X65.86 Y136.692
M205 X8 Y8
G1 X66.657 Y136.324 E8.09621
G1 X67.542 Y135.97 E8.16755
G1 X70.635 Y134.828 E8.41428
G1 X71.18 Y134.61 E8.45821
G1 X71.79 Y134.384 E8.50689
G1 X72.566 Y134.189 E8.56677
G1 X73.363 Y134.128 E8.62659
G1 X74.424 Y134.109 E8.706
G1 X75.674 Y134.202 E8.7998
G1 X76.607 Y134.347 E8.87046
G1 X77.639 Y134.561 E8.94934
G1 X79.418 Y135.119 E9.08886
G1 X80.122 Y135.408 E9.14581
G1 X80.994 Y135.816 E9.21786
G1 X81.753 Y136.227 E9.28245
G1 X82.343 Y136.588 E9.33422
G1 X82.984 Y137.03 E9.39248
G1 X83.588 Y137.484 E9.44903
G1 X84.179 Y137.99 E9.50725
G1 X84.588 Y138.375 E9.54929
G1 X85.053 Y138.84 E9.5985
G1 X85.406 Y139.229 E9.63781
G1 X85.979 Y139.907 E9.70424
G1 X87.717 Y142.106 E9.914
G1 X88.188 Y142.672 E9.9691
G1 X88.859 Y143.509 E10.04938
G1 X89.26 Y144.117 E10.10389
G1 X89.515 Y144.647 E10.1479
G1 X89.805 Y145.493 E10.21483
G1 X90.088 Y146.435 E10.28844
G1 X90.283 Y147.312 E10.35567
G1 X90.442 Y148.281 E10.42915
G1 X90.543 Y149.298 E10.50564
G1 X90.577 Y150.984 E10.63183
G1 X90.499 Y151.916 E10.70182
G1 X90.377 Y152.836 E10.77128
G1 X90.156 Y153.958 E10.85685
G1 X89.999 Y154.562 E10.90356
G1 X89.732 Y155.393 E10.96888
G1 X89.229 Y156.668 E11.07145
G1 X88.665 Y157.762 E11.16356
G1 X88.305 Y158.386 E11.21747
G1 X87.602 Y159.443 E11.31247
G1 X86.384 Y161.213 E11.47326
G1 X86.012 Y161.786 E11.52438
G1 X85.19 Y163.005 E11.63441
G1 X84.598 Y163.646 E11.69971
G1 X83.82 Y164.229 E11.77246
G1 X83.348 Y164.559 E11.81556
G1 X82.593 Y165.024 E11.88192
G1 X81.631 Y165.549 E11.96393
G1 X80.723 Y165.956 E12.0384
G1 X79.16 Y166.512 E12.16254
G1 X78.175 Y166.772 E12.23878
G1 X77.409 Y166.935 E12.29739
G1 X76.126 Y167.1 E12.39419
G1 X75.533 Y167.15 E12.43873
G1 X74.882 Y167.161 E12.48745
G1 X73.958 Y167.132 E12.55663
G1 X73.387 Y167.089 E12.59949
G1 X72.383 Y166.966 E12.67518
G1 X71.611 Y166.805 E12.7342
G1 X70.814 Y166.613 E12.79555
G1 X69.753 Y166.321 E12.8779
G1 X68.712 Y166.02 E12.959
G1 X67.539 Y165.718 E13.04964
G1 X66.227 Y165.36 E13.15141
G1 X65.761 Y165.182 E13.18874
G1 X64.955 Y164.753 E13.25707
G1 X64.383 Y164.363 E13.30888
G1 X63.911 Y164.015 E13.35277
G1 X63.357 Y163.571 E13.4059
G1 X62.599 Y162.867 E13.48331
G1 X62.032 Y162.3 E13.54332
G1 X61.388 Y161.533 E13.61827
G1 X60.449 Y160.286 E13.73509
G1 X59.918 Y159.403 E13.8122
G1 X59.554 Y158.733 E13.86926
G1 X59.035 Y157.623 E13.96096
G1 X58.667 Y156.576 E14.04401
G1 X58.377 Y155.552 E14.12365
G1 X58.101 Y154.219 E14.22552
G1 X57.967 Y152.981 E14.31871
G1 X57.741 Y147.877 E14.70105
G1 X57.769 Y147.141 E14.75616
G1 X57.985 Y146.247 E14.82499
G1 X58.252 Y145.383 E14.89267
G1 X58.62 Y144.408 E14.97065
G1 X59.001 Y143.593 E15.03798
G1 X59.689 Y142.364 E15.14338
G1 X59.96 Y141.943 E15.18085
G1 X60.574 Y141.077 E15.2603
G1 X61.337 Y140.153 E15.34997
G1 X61.948 Y139.498 E15.41701
G1 X62.425 Y139.042 E15.46639
G1 X63.118 Y138.441 E15.53504
G1 X63.572 Y138.08 E15.57844
G1 X64.114 Y137.7 E15.62798
G1 X64.989 Y137.139 E15.70576
G1 X65.86 Y136.692 E15.77903
M205 X16 Y16
G0 X66.112 Y137.237
M205 X8 Y8
G1 X66.909 Y136.869 E15.84472
G1 X67.75 Y136.533 E15.9125
G1 X70.843 Y135.391 E16.15923
G1 X71.392 Y135.171 E16.20349
G1 X71.936 Y134.966 E16.247
G1 X72.664 Y134.783 E16.30317
G1 X73.374 Y134.728 E16.35647
G1 X74.435 Y134.709 E16.43588
G1 X75.582 Y134.795 E16.52196
G1 X76.485 Y134.935 E16.59034
G1 X77.517 Y135.149 E16.66921
G1 X79.19 Y135.674 E16.80043
G1 X79.868 Y135.952 E16.85527
G1 X80.708 Y136.344 E16.92464
G1 X81.467 Y136.755 E16.98923
G1 X82.003 Y137.082 E17.03622
G1 X82.624 Y137.51 E17.09266
G1 X83.198 Y137.94 E17.14633
G1 X83.768 Y138.427 E17.20244
G1 X84.177 Y138.812 E17.24447
G1 X84.609 Y139.244 E17.29019
G1 X84.948 Y139.617 E17.32791
G1 X85.508 Y140.279 E17.3928
G1 X87.246 Y142.478 E17.60256
G1 X87.721 Y143.048 E17.65808
G1 X88.361 Y143.843 E17.73446
G1 X88.719 Y144.377 E17.78257
G1 X88.974 Y144.907 E17.82659
G1 X89.231 Y145.666 E17.88655
G1 X89.502 Y146.565 E17.95682
G1 X89.697 Y147.442 E18.02405
G1 X89.845 Y148.341 E18.09224
G1 X89.943 Y149.311 E18.1652
G1 X89.979 Y150.934 E18.28668
G1 X89.904 Y151.838 E18.35457
G1 X89.788 Y152.721 E18.42122
G1 X89.575 Y153.807 E18.50404
G1 X89.418 Y154.411 E18.55074
G1 X89.161 Y155.209 E18.61348
G1 X88.696 Y156.393 E18.70867
G1 X88.145 Y157.462 E18.79867
G1 X87.785 Y158.086 E18.85258
G1 X87.108 Y159.103 E18.94401
G1 X85.881 Y160.886 E19.10598
G1 X85.514 Y161.451 E19.1564
G1 X84.718 Y162.632 E19.26298
G1 X84.194 Y163.199 E19.32076
G1 X83.475 Y163.738 E19.38801
G1 X83.033 Y164.048 E19.42841
G1 X82.278 Y164.513 E19.49477
G1 X81.344 Y165.022 E19.57437
G1 X80.522 Y165.391 E19.6418
G1 X78.959 Y165.947 E19.76594
G1 X78.05 Y166.185 E19.83626
G1 X77.284 Y166.348 E19.89487
G1 X76.074 Y166.502 E19.98615
G1 X75.522 Y166.55 E20.02762
G1 X74.901 Y166.561 E20.0741
G1 X73.977 Y166.532 E20.14328
G1 X73.46 Y166.493 E20.18208
G1 X72.456 Y166.37 E20.25777
G1 X71.752 Y166.222 E20.31161
G1 X70.973 Y166.034 E20.37158
G1 X69.92 Y165.745 E20.4533
G1 X68.862 Y165.439 E20.53572
G1 X67.696 Y165.139 E20.62582
G1 X66.435 Y164.797 E20.72359
G1 X66.043 Y164.652 E20.75487
G1 X65.237 Y164.223 E20.8232
G1 X64.739 Y163.88 E20.86845
G1 X64.285 Y163.546 E20.91063
G1 X63.765 Y163.131 E20.96042
G1 X63.022 Y162.442 E21.03625
G1 X62.491 Y161.914 E21.09229
G1 X61.867 Y161.171 E21.1649
G1 X60.963 Y159.976 E21.27703
G1 X60.445 Y159.116 E21.35216
G1 X60.098 Y158.479 E21.40645
G1 X59.579 Y157.369 E21.49815
G1 X59.234 Y156.379 E21.5766
G1 X58.964 Y155.43 E21.65044
G1 X58.698 Y154.154 E21.74798
G1 X58.564 Y152.916 E21.84117
G1 X58.34 Y147.85 E22.22066
G1 X58.366 Y147.224 E22.26754
G1 X58.558 Y146.424 E22.32911
G1 X58.814 Y145.594 E22.39411
G1 X59.164 Y144.662 E22.46862
G1 X59.545 Y143.847 E22.53594
G1 X60.194 Y142.689 E22.63528
G1 X60.465 Y142.268 E22.67275
G1 X61.037 Y141.459 E22.7469
G1 X61.8 Y140.535 E22.83657
G1 X62.386 Y139.908 E22.9008
G1 X62.819 Y139.495 E22.94558
G1 X63.491 Y138.911 E23.0122
G1 X63.945 Y138.55 E23.05561
G1 X64.439 Y138.204 E23.10075
G1 X65.263 Y137.673 E23.1741
G1 X66.112 Y137.237 E23.24553
M205 X16 Y16
G1 F2400 E22.74553
;MESH:Rose_3cm_slim.stl
G0 F1200 X74.648 Y137.638
G0 X75.709 Y137.738
G0 X77.427 Y138.149
G0 X78.975 Y138.739
G0 X80.349 Y139.498
G0 X81.608 Y140.421
G0 X82.367 Y141.124
G0 X83.753 Y142.789
G0 X86.134 Y145.725
G0 X86.724 Y147.404
G0 X86.934 Y148.43
G0 X87.065 Y150.2
G0 X86.964 Y151.888
G0 X86.823 Y152.764
G0 X86.342 Y154.433
G0 X85.756 Y155.732
G0 X84.928 Y157.118
G0 X82.613 Y160.637
G0 X81.197 Y161.777
G0 X80.631 Y160.795
M205 X8 Y8
;TYPE:WALL-OUTER
G1 F2400 E23.24553
G1 F742.3 X80.284 Y160.958 E23.29191
M205 X16 Y16
G1 F2400 E22.79191
G0 F1200 X75.997 Y161.739
M205 X8 Y8
G1 F2400 E23.29191
G1 F1025.6 X76.938 Y161.698 E23.37438
G1 F1082.7 X77.926 Y161.518 E23.45768
G1 F1153.8 X78.434 Y161.381 E23.49863
G1 F1220.3 X79.278 Y161.104 E23.56399
G1 F1309.1 X79.829 Y160.879 E23.60482
G1 F937.5 X80.284 Y160.958 E23.64906
G1 F925.4 X80.046 Y161.375 E23.69565
G1 F1276.6 X79.419 Y161.658 E23.74404
G1 F1216.2 X78.644 Y161.954 E23.8053
G1 F1153.8 X78.066 Y162.137 E23.85248
G1 F1090.9 X77.292 Y162.33 E23.91815
G1 F1028.6 X76.784 Y162.421 E23.96321
G1 F971.7 X76.078 Y162.5 E24.02886
G1 F974.3 X75.959 Y162.544 E24.04056
G1 F1097.6 X75.421 Y162.645 E24.08534
G1 F1200 X74.473 Y162.667 E24.15631
G1 X73.77 Y162.613 E24.20907
G1 X72.904 Y162.488 E24.27455
G1 X72.406 Y162.387 E24.31258
G1 X71.678 Y162.207 E24.3687
G1 X70.747 Y161.909 E24.44185
G1 X70.087 Y161.638 E24.49524
G1 X69.245 Y161.23 E24.56526
G1 X68.505 Y160.809 E24.62898
G1 X68.213 Y160.71 E24.65205
G1 X68.089 Y160.719 E24.66135
G1 X67.615 Y161.067 E24.70536
G1 X67.41 Y161 E24.7215
G1 X66.58 Y160.433 E24.79672
G1 X65.97 Y159.905 E24.8571
G1 X65.574 Y159.529 E24.89796
G1 X65.097 Y159.013 E24.95055
G1 X64.617 Y158.4 E25.00881
G1 X64.191 Y157.801 E25.06382
G1 X63.896 Y157.324 E25.10579
G1 X63.467 Y156.545 E25.17234
G1 X63.14 Y155.767 E25.2355
G1 X62.918 Y155.14 E25.28528
G1 X62.739 Y154.518 E25.33371
G1 X62.623 Y153.991 E25.3741
G1 X62.51 Y153.313 E25.42553
G1 X62.436 Y152.517 E25.48536
G1 X62.404 Y151.989 E25.52494
G1 X62.401 Y151.473 E25.56356
G1 X62.432 Y150.573 E25.63095
G1 X62.513 Y149.948 E25.67812
G1 X62.608 Y149.37 E25.72195
G1 X62.776 Y148.511 E25.78745
G1 X62.706 Y148.225 E25.80949
G1 X62.573 Y148.076 E25.82443
G1 X62.286 Y147.92 E25.84888
G1 X62.221 Y147.829 E25.85725
G1 X62.241 Y147.576 E25.87624
G1 X62.551 Y146.627 E25.95095
G1 X62.799 Y146.011 E26.00065
G1 X63.242 Y145.113 E26.07558
G1 X63.763 Y144.308 E26.14734
G1 X64.312 Y143.571 E26.21611
G1 X64.797 Y142.992 E26.27264
G1 X65.548 Y142.253 E26.35148
G1 X66.22 Y141.717 E26.41581
G1 X66.836 Y141.284 E26.47216
G1 X67.358 Y140.971 E26.51771
G1 X68.189 Y140.548 E26.58749
G1 X68.707 Y140.322 E26.62978
G1 X69.239 Y140.115 E26.6725
G1 X69.844 Y139.912 E26.72026
G1 X70.617 Y139.701 E26.78022
G1 X71.148 Y139.596 E26.82073
G1 X72.019 Y139.466 E26.88663
G1 X72.615 Y139.398 E26.93152
G1 X72.881 Y139.284 E26.95318
G1 X73.051 Y139.018 E26.97681
G1 X73.101 Y138.709 E27.00023
G1 X73.197 Y138.606 E27.01077
G1 X74.017 Y138.585 E27.07215
G1 X74.585 Y138.6 E27.11467
G1 X75.566 Y138.694 E27.18842
G1 X76.397 Y138.868 E27.25196
G1 X77.142 Y139.071 E27.30974
G1 X77.963 Y139.364 E27.37498
G1 X78.569 Y139.617 E27.42412
G1 X79.302 Y139.995 E27.48584
G1 X79.821 Y140.305 E27.53108
G1 X80.446 Y140.738 E27.58798
G1 X80.977 Y141.153 E27.63842
G1 X81.673 Y141.795 E27.70928
G1 X82.323 Y142.523 E27.78231
G1 X82.651 Y142.925 E27.82114
G1 X82.963 Y143.346 E27.86035
G1 X83.494 Y144.131 E27.93128
G1 X84.022 Y145.137 E28.0163
G1 X84.404 Y145.951 E28.08359
G1 X84.679 Y146.197 E28.1112
G1 X84.791 Y146.234 E28.12003
G1 X85.244 Y146.192 E28.15408
G1 X85.307 Y146.257 E28.16085
G1 X85.536 Y146.832 E28.20717
G1 X85.785 Y147.639 E28.27037
G1 X85.979 Y148.575 E28.3419
G1 X86.06 Y149.331 E28.3988
G1 X86.099 Y150.202 E28.46405
G1 X86.068 Y151.176 E28.53698
G1 X86.014 Y151.708 E28.57699
G1 X85.866 Y152.598 E28.64451
G1 X85.683 Y153.313 E28.69974
G1 X85.434 Y154.1 E28.76152
G1 X85.15 Y154.775 E28.81632
G1 X84.902 Y155.28 E28.85842
G1 X84.483 Y156.024 E28.92232
G1 X84.127 Y156.576 E28.97148
G1 X83.822 Y157.009 E29.01111
G1 X83.242 Y157.753 E29.08171
G1 X82.169 Y158.845 E29.19628
G1 X81.872 Y158.941 E29.21964
G1 X81.023 Y158.979 E29.28323
G1 X79.807 Y159.191 E29.37561
G1 X78.971 Y159.294 E29.43864
G1 X77.893 Y159.502 E29.5208
G1 X77.344 Y159.552 E29.56206
G1 X76.888 Y159.57 E29.59621
G1 X76.316 Y159.679 E29.63979
G1 X75.628 Y160.091 E29.6998
G1 X75.358 Y160.504 E29.73672
G1 X75.331 Y160.807 E29.75949
G1 F1146.5 X75.409 Y161.181 E29.78941
G1 F1054.2 X75.997 Y161.739 E29.85847
M205 X16 Y16
G1 F2400 E29.35847
G0 F1200 X74.933 Y161.506
M205 X8 Y8
;TYPE:SKIN
G1 F2400 E29.85847
G1 F1200 X75.505 Y162.039 E29.91698
G1 X75.352 Y162.085 E29.92893
G1 X74.489 Y162.103 E29.99353
G1 X73.834 Y162.053 E30.04269
G1 X72.794 Y161.901 E30.12135
G1 X71.826 Y161.667 E30.19587
G1 X70.94 Y161.382 E30.26552
G1 X70.311 Y161.122 E30.31646
G1 X69.504 Y160.73 E30.3836
G1 X68.755 Y160.306 E30.44801
G1 X68.369 Y160.17 E30.47863
G1 X67.929 Y160.179 E30.51157
G1 X67.544 Y160.407 E30.54505
G1 X66.919 Y159.989 E30.60132
G1 X66.347 Y159.49 E30.65813
G1 X65.97 Y159.129 E30.69719
G1 X65.521 Y158.644 E30.74665
G1 X65.065 Y158.064 E30.80186
G1 X64.655 Y157.485 E30.85495
G1 X64.376 Y157.036 E30.89451
G1 X63.967 Y156.293 E30.95798
G1 X63.661 Y155.56 E31.01743
G1 X63.45 Y154.964 E31.06474
G1 X63.283 Y154.381 E31.11012
G1 X63.171 Y153.878 E31.14869
G1 X63.066 Y153.241 E31.197
G1 X62.992 Y152.473 E31.25474
G1 X62.952 Y151.758 E31.30833
G1 X62.988 Y150.624 E31.39324
G1 X63.057 Y150.079 E31.43435
G1 X63.156 Y149.469 E31.4806
G1 X63.347 Y148.491 E31.55517
G1 X63.182 Y147.929 E31.599
G1 X62.993 Y147.701 E31.62116
G1 X62.826 Y147.581 E31.63655
G1 X63.075 Y146.819 E31.69654
G1 X63.31 Y146.235 E31.74365
G1 X63.726 Y145.393 E31.81394
G1 X64.219 Y144.628 E31.88204
G1 X64.752 Y143.919 E31.94842
G1 X65.205 Y143.376 E32.00134
G1 X65.924 Y142.669 E32.0768
G1 X66.553 Y142.165 E32.13712
G1 X67.136 Y141.756 E32.19042
G1 X67.63 Y141.459 E32.23355
G1 X68.425 Y141.056 E32.30025
G1 X68.919 Y140.838 E32.34066
G1 X69.427 Y140.643 E32.38138
G1 X69.977 Y140.455 E32.42488
G1 X70.74 Y140.245 E32.4841
G1 X71.294 Y140.14 E32.5263
G1 X72.092 Y140.022 E32.58667
G1 X72.723 Y139.95 E32.63419
G1 X73.184 Y139.752 E32.67174
G1 X73.453 Y139.474 E32.70069
G1 X73.576 Y139.133 E32.72782
G1 X74.545 Y139.16 E32.80036
G1 X75.486 Y139.25 E32.8711
G1 X76.266 Y139.412 E32.93072
G1 X76.973 Y139.603 E32.98553
G1 X77.787 Y139.896 E33.05027
