;FLAVOR:Marlin
;TIME:3632
;Filament used: 1.80766m, 0m
;Layer height: 0.2
;MINX:69.221
;MINY:134.025
;MINZ:0.2
;MAXX:102.633
;MAXY:167.983
;MAXZ:30.112
;Generated with Cura_SteamEngine 5.4.0
T0
M82 ;absolute extrusion mode
M190 S0
M109 S0
G28 X
SET_DUAL_CARRIAGE CARRIAGE=1 MODE=COPY
START_PRINT EXTRUDER=-1 EXTRUDERS=2 EXTRUDER_TEMP=210 EXTRUDER1_TEMP=210 BED_TEMP=60.0 AREA_START=%MINX%,%MINY% AREA_END=%MAXX%,%MAXY%
G92 E0
G92 E0
G1 F2400 E-3
;LAYER_COUNT:150
;LAYER:0
M107
M204 S600
M205 X8 Y8
G0 F900 X76.348 Y137.521 Z0.2
M204 S450
;TYPE:SKIRT
G1 F2400 E0
G1 F900 X77.579 Y136.893 E0.05516
G1 X77.942 Y136.731 E0.07102
G1 X78.623 Y136.456 E0.10033
G1 X79.715 Y136.038 E0.147
G1 X81.529 Y135.372 E0.22413
G1 X82.78 Y134.887 E0.27768
G1 X83.268 Y134.741 E0.29801
G1 X83.744 Y134.663 E0.31726
G1 X84.264 Y134.615 E0.3381
G1 X84.552 Y134.6 E0.34961
G1 X85.208 Y134.593 E0.3758
G1 X85.917 Y134.625 E0.40412
G1 X86.864 Y134.721 E0.44211
G1 X87.107 Y134.755 E0.45191
G1 X87.918 Y134.896 E0.48476
G1 X88.183 Y134.952 E0.49557
G1 X88.942 Y135.15 E0.52688
G1 X89.687 Y135.386 E0.55807
G1 X90.557 Y135.706 E0.59507
G1 X91.209 Y135.992 E0.62348
G1 X92.084 Y136.426 E0.66247
G1 X92.333 Y136.564 E0.67383
G1 X93.109 Y137.036 E0.71008
G1 X93.676 Y137.427 E0.73757
G1 X94.256 Y137.871 E0.76672
G1 X94.472 Y138.051 E0.77795
G1 X95.345 Y138.845 E0.82504
G1 X95.755 Y139.262 E0.84839
G1 X96.177 Y139.726 E0.87342
G1 X96.713 Y140.376 E0.90704
G1 X98.568 Y142.716 E1.02622
G1 X99.383 Y143.703 E1.07731
G1 X99.732 Y144.207 E1.10178
G1 X99.923 Y144.582 E1.11858
G1 X100.184 Y145.2 E1.14535
G1 X100.366 Y145.713 E1.16708
G1 X100.565 Y146.382 E1.19493
G1 X100.768 Y147.186 E1.22803
G1 X100.834 Y147.518 E1.24154
G1 X100.994 Y148.609 E1.28555
G1 X101.045 Y149.184 E1.30859
G1 X101.077 Y149.925 E1.33819
G1 X101.082 Y150.456 E1.35939
G1 X101.06 Y151.177 E1.38818
G1 X101.004 Y151.884 E1.41648
G1 X100.924 Y152.517 E1.44195
G1 X100.702 Y153.688 E1.48952
G1 X100.609 Y154.064 E1.50498
G1 X100.262 Y155.203 E1.5525
G1 X100.168 Y155.467 E1.56369
G1 X99.908 Y156.125 E1.59192
G1 X99.79 Y156.39 E1.6035
G1 X99.306 Y157.367 E1.64702
G1 X99.154 Y157.641 E1.65952
G1 X98.48 Y158.737 E1.71088
G1 X96.145 Y162.271 E1.87993
G1 X95.852 Y162.658 E1.89931
G1 X95.675 Y162.862 E1.91009
G1 X95.213 Y163.307 E1.93569
G1 X94.612 Y163.776 E1.96612
G1 X93.819 Y164.323 E2.00457
G1 X93.584 Y164.472 E2.01567
G1 X92.721 Y164.965 E2.05534
G1 X92.243 Y165.2 E2.0766
G1 X91.531 Y165.511 E2.10761
G1 X91.012 Y165.707 E2.12975
G1 X90.202 Y165.983 E2.16391
G1 X89.769 Y166.113 E2.18195
G1 X89.248 Y166.247 E2.20342
G1 X88.538 Y166.4 E2.23241
G1 X87.861 Y166.509 E2.25978
G1 X87.019 Y166.602 E2.29359
G1 X85.985 Y166.653 E2.33491
G1 X85.355 Y166.649 E2.36005
G1 X84.828 Y166.625 E2.38111
G1 X84.42 Y166.591 E2.39745
G1 X83.336 Y166.444 E2.44111
G1 X82.814 Y166.345 E2.46231
G1 X82.088 Y166.179 E2.49204
G1 X77.39 Y164.894 E2.68643
G1 X76.849 Y164.695 E2.70944
G1 X76.496 Y164.509 E2.72537
G1 X76.046 Y164.227 E2.74656
G1 X75.287 Y163.693 E2.7836
G1 X75.058 Y163.516 E2.79515
G1 X74.215 Y162.801 E2.83927
G1 X74.021 Y162.623 E2.84978
G1 X73.691 Y162.289 E2.86852
G1 X72.932 Y161.449 E2.9137
G1 X72.755 Y161.237 E2.92473
G1 X72.374 Y160.741 E2.94969
G1 X71.842 Y159.976 E2.98688
G1 X71.454 Y159.359 E3.01597
G1 X71.251 Y159.006 E3.03222
G1 X71.014 Y158.56 E3.05238
G1 X70.673 Y157.84 E3.08418
G1 X70.472 Y157.361 E3.10491
G1 X70.206 Y156.638 E3.13566
G1 X70.061 Y156.17 E3.15521
G1 X69.854 Y155.406 E3.18681
G1 X69.692 Y154.699 E3.21575
G1 X69.644 Y154.437 E3.22639
G1 X69.519 Y153.554 E3.26198
G1 X69.414 Y152.145 E3.31837
G1 X69.371 Y151.021 E3.36327
G1 X69.259 Y149.052 E3.44198
G1 X69.264 Y148.856 E3.44981
G1 X69.221 Y148.011 E3.48357
G1 X69.242 Y147.432 E3.5067
G1 X69.272 Y147.179 E3.51687
G1 X69.341 Y146.79 E3.53264
G1 X69.449 Y146.343 E3.55099
G1 X69.533 Y146.057 E3.56289
G1 X69.892 Y145.009 E3.6071
G1 X69.994 Y144.744 E3.61843
G1 X70.226 Y144.225 E3.64112
G1 X70.598 Y143.485 E3.67418
G1 X70.82 Y143.079 E3.69265
G1 X71.122 Y142.573 E3.71617
G1 X71.459 Y142.059 E3.7407
G1 X71.929 Y141.412 E3.77262
G1 X72.248 Y141.008 E3.79316
G1 X72.786 Y140.383 E3.82608
G1 X72.963 Y140.191 E3.8365
G1 X73.435 Y139.721 E3.86308
G1 X73.822 Y139.361 E3.88418
G1 X74.682 Y138.632 E3.92918
G1 X74.907 Y138.458 E3.94053
G1 X75.461 Y138.067 E3.96759
G1 X75.834 Y137.824 E3.98536
G1 X76.061 Y137.69 E3.99588
G0 F810 X76.348 Y137.521
M204 S600
G0 F900 X76.592 Y137.935
M204 S450
G1 X77.797 Y137.321 E4.04986
G1 X78.122 Y137.176 E4.06406
G1 X78.794 Y136.904 E4.093
G1 X79.881 Y136.489 E4.13944
G1 X81.695 Y135.822 E4.21658
G1 X82.918 Y135.347 E4.26894
G1 X83.406 Y135.201 E4.28927
G1 X83.789 Y135.141 E4.30474
G1 X84.289 Y135.094 E4.32479
G1 X84.557 Y135.08 E4.3355
G1 X85.213 Y135.073 E4.36168
G1 X85.869 Y135.103 E4.38789
G1 X86.799 Y135.197 E4.4252
G1 X87.025 Y135.228 E4.43431
G1 X87.818 Y135.365 E4.46642
G1 X88.062 Y135.417 E4.47638
G1 X88.797 Y135.608 E4.50669
G1 X89.522 Y135.837 E4.53704
G1 X90.364 Y136.146 E4.57283
G1 X91.016 Y136.432 E4.60125
G1 X91.853 Y136.847 E4.63854
G1 X92.084 Y136.974 E4.64906
G1 X92.837 Y137.432 E4.68424
G1 X93.384 Y137.808 E4.71073
G1 X93.95 Y138.241 E4.73917
G1 X94.149 Y138.406 E4.74949
G1 X95.003 Y139.182 E4.79554
G1 X95.4 Y139.585 E4.81812
G1 X95.807 Y140.032 E4.84225
G1 X96.337 Y140.674 E4.87548
G1 X98.198 Y143.022 E4.99506
G1 X99.013 Y144.009 E5.04614
G1 X99.305 Y144.426 E5.06646
G1 X99.481 Y144.769 E5.08185
G1 X99.732 Y145.361 E5.10751
G1 X99.906 Y145.85 E5.12823
G1 X100.1 Y146.499 E5.15526
G1 X100.297 Y147.281 E5.18745
G1 X100.359 Y147.588 E5.19995
G1 X100.519 Y148.679 E5.24396
G1 X100.565 Y149.205 E5.26503
G1 X100.597 Y149.93 E5.294
G1 X100.602 Y150.442 E5.31444
G1 X100.581 Y151.139 E5.34227
G1 X100.525 Y151.846 E5.37057
G1 X100.452 Y152.428 E5.39398
G1 X100.23 Y153.599 E5.44155
G1 X100.15 Y153.924 E5.45491
G1 X99.809 Y155.044 E5.50164
G1 X99.722 Y155.291 E5.51209
G1 X99.469 Y155.931 E5.53956
G1 X99.36 Y156.177 E5.5503
G1 X98.886 Y157.135 E5.59296
G1 X98.745 Y157.39 E5.60459
G1 X98.08 Y158.472 E5.65528
G1 X95.745 Y162.006 E5.82433
G1 X95.489 Y162.343 E5.84123
G1 X95.312 Y162.547 E5.852
G1 X94.881 Y162.96 E5.87583
G1 X94.339 Y163.381 E5.90322
G1 X93.561 Y163.918 E5.94095
G1 X93.346 Y164.055 E5.95113
G1 X92.483 Y164.548 E5.9908
G1 X92.051 Y164.76 E6.01
G1 X91.361 Y165.062 E6.04006
G1 X90.857 Y165.253 E6.06157
G1 X90.064 Y165.523 E6.09501
G1 X89.649 Y165.648 E6.11231
G1 X89.147 Y165.778 E6.133
G1 X88.461 Y165.926 E6.16101
G1 X87.808 Y166.032 E6.18742
G1 X86.966 Y166.125 E6.22123
G1 X85.988 Y166.173 E6.26031
G1 X85.377 Y166.169 E6.2847
G1 X84.85 Y166.145 E6.30575
G1 X84.484 Y166.115 E6.32041
G1 X83.425 Y165.972 E6.36306
G1 X82.921 Y165.877 E6.38353
G1 X82.215 Y165.716 E6.41243
G1 X77.552 Y164.442 E6.60536
G1 X77.073 Y164.27 E6.62568
G1 X76.72 Y164.084 E6.6416
G1 X76.302 Y163.821 E6.66131
G1 X75.581 Y163.313 E6.69651
G1 X75.352 Y163.136 E6.70807
G1 X74.539 Y162.447 E6.7506
G1 X74.362 Y162.285 E6.76018
G1 X74.047 Y161.967 E6.77804
G1 X73.3 Y161.141 E6.82249
G1 X73.135 Y160.944 E6.83275
G1 X72.768 Y160.467 E6.85677
G1 X72.248 Y159.72 E6.89309
G1 X71.87 Y159.12 E6.9214
G1 X71.675 Y158.781 E6.93701
G1 X71.448 Y158.354 E6.95631
G1 X71.116 Y157.654 E6.98723
G1 X70.915 Y157.175 E7.00796
G1 X70.664 Y156.495 E7.03689
G1 X70.524 Y156.045 E7.0557
G1 X70.322 Y155.298 E7.08659
G1 X70.164 Y154.611 E7.11472
G1 X70.119 Y154.37 E7.12451
G1 X69.998 Y153.518 E7.15885
G1 X69.894 Y152.127 E7.21453
G1 X69.851 Y151.003 E7.25942
G1 X69.739 Y149.064 E7.33694
G1 X69.744 Y148.856 E7.34524
G1 X69.701 Y148.027 E7.37838
G1 X69.719 Y147.487 E7.39994
G1 X69.745 Y147.263 E7.40894
G1 X69.814 Y146.874 E7.42471
G1 X69.91 Y146.478 E7.44097
G1 X69.994 Y146.192 E7.45287
G1 X70.34 Y145.181 E7.49552
G1 X70.433 Y144.939 E7.50587
G1 X70.655 Y144.44 E7.52766
G1 X71.019 Y143.715 E7.56004
G1 X71.232 Y143.325 E7.57778
G1 X71.524 Y142.836 E7.60051
G1 X71.848 Y142.341 E7.62412
G1 X72.306 Y141.709 E7.65527
G1 X72.612 Y141.321 E7.675
G1 X73.139 Y140.708 E7.70726
G1 X73.302 Y140.531 E7.71686
G1 X73.762 Y140.072 E7.7428
G1 X74.132 Y139.727 E7.76299
G1 X74.977 Y139.011 E7.8072
G1 X75.184 Y138.85 E7.81766
G1 X75.723 Y138.469 E7.84401
G1 X76.078 Y138.238 E7.86091
G1 X76.305 Y138.104 E7.87143
G0 F810 X76.592 Y137.935
M204 S600
G1 F2400 E4.87143
;MESH:Rose_3cm_withbottom.stl
G0 F900 X77.36 Y140.466
G0 X77.919 Y141.395
G0 X78.593 Y160.288
G0 X78.924 Y160.858
M204 S300
M205 X4 Y4
;TYPE:WALL-OUTER
G1 F2400 E7.87143
G1 F900 X78.871 Y160.899 E7.87411
G1 X78.72 Y161.067 E7.88312
G1 X78.675 Y161.098 E7.8853
G1 X78.566 Y161.123 E7.88977
G1 X78.468 Y161.084 E7.89398
G1 X78.089 Y160.846 E7.91184
G1 X77.543 Y160.447 E7.93883
G1 X77.249 Y160.21 E7.9539
G1 X76.938 Y159.939 E7.97037
G1 X76.592 Y159.609 E7.98945
G1 X76.284 Y159.284 E8.00732
G1 X75.991 Y158.95 E8.02505
G1 X75.662 Y158.536 E8.04616
G1 X75.218 Y157.916 E8.0766
G1 X75.038 Y157.647 E8.08951
G1 X74.806 Y157.267 E8.10728
G1 X74.585 Y156.861 E8.12573
G1 X74.375 Y156.436 E8.14465
G1 X74.186 Y156 E8.16362
G1 X73.981 Y155.471 E8.18626
G1 X73.752 Y154.737 E8.21695
G1 X73.647 Y154.319 E8.23415
G1 X73.559 Y153.898 E8.25132
G1 X73.442 Y153.108 E8.28319
G1 X73.399 Y152.631 E8.30231
G1 X73.355 Y151.786 E8.33608
G1 X73.357 Y151.26 E8.35708
G1 X73.369 Y150.945 E8.36966
G1 X73.41 Y150.359 E8.3931
G1 X73.562 Y149.363 E8.43331
G1 X73.729 Y148.537 E8.46695
G1 X73.724 Y148.382 E8.47314
G1 X73.696 Y148.303 E8.47648
G1 X73.63 Y148.206 E8.48117
G1 X73.521 Y148.096 E8.48735
G1 X73.259 Y147.973 E8.4989
G1 X73.219 Y147.94 E8.50097
G1 X73.171 Y147.875 E8.50419
G1 X73.168 Y147.824 E8.50623
G1 X73.191 Y147.649 E8.51328
G1 X73.27 Y147.346 E8.52578
G1 X73.43 Y146.825 E8.54753
G1 X73.548 Y146.508 E8.56103
G1 X73.773 Y145.964 E8.58452
G1 X73.968 Y145.551 E8.60275
G1 X74.134 Y145.234 E8.61704
G1 X74.32 Y144.911 E8.63191
G1 X74.52 Y144.591 E8.64697
G1 X74.957 Y143.963 E8.67751
G1 X75.37 Y143.431 E8.70439
G1 X75.805 Y142.934 E8.73075
G1 X76.026 Y142.701 E8.74357
G1 X76.377 Y142.367 E8.76291
G1 X76.686 Y142.093 E8.77939
G1 X77.097 Y141.758 E8.80055
G1 X77.516 Y141.449 E8.82133
G1 X77.824 Y141.244 E8.8361
G1 X78.351 Y140.927 E8.86064
G1 X78.76 Y140.709 E8.87914
G1 X79.163 Y140.512 E8.89705
G1 X79.935 Y140.185 E8.93051
G1 X80.556 Y139.961 E8.95686
G1 X81.209 Y139.764 E8.98408
G1 X81.63 Y139.656 E9.00143
G1 X82.16 Y139.551 E9.02299
G1 X82.942 Y139.435 E9.05454
G1 X83.591 Y139.361 E9.08061
G1 X83.778 Y139.295 E9.08853
G1 X83.891 Y139.217 E9.09401
G1 X83.924 Y139.176 E9.09611
G1 X83.996 Y139.028 E9.10268
G1 X84.016 Y138.963 E9.10539
G1 X84.042 Y138.7 E9.11594
G1 X84.101 Y138.611 E9.1202
G1 X84.285 Y138.571 E9.12772
G1 X84.455 Y138.557 E9.13453
G1 X85.058 Y138.545 E9.1586
G1 X85.619 Y138.561 E9.181
G1 X85.848 Y138.579 E9.19017
G1 X86.646 Y138.673 E9.22224
G1 X87.08 Y138.756 E9.23987
G1 X87.583 Y138.877 E9.26052
G1 X88.259 Y139.074 E9.28862
G1 X88.636 Y139.203 E9.30453
G1 X89.09 Y139.373 E9.32388
G1 X89.817 Y139.697 E9.35564
G1 X90.106 Y139.847 E9.36864
G1 X90.766 Y140.23 E9.3991
G1 X91.13 Y140.464 E9.41637
G1 X91.579 Y140.791 E9.43854
G1 X92.099 Y141.216 E9.46534
G1 X92.642 Y141.726 E9.49507
G1 X93.054 Y142.161 E9.51899
G1 X93.497 Y142.675 E9.54607
G1 X93.678 Y142.902 E9.55766
G1 X94.044 Y143.393 E9.5821
G1 X94.423 Y143.952 E9.60905
G1 X94.558 Y144.178 E9.61956
G1 X94.882 Y144.777 E9.64674
G1 X95.198 Y145.42 E9.67534
G1 X95.453 Y145.967 E9.69942
G1 X95.622 Y146.134 E9.70891
G1 X95.754 Y146.184 E9.71454
G1 X95.852 Y146.193 E9.71847
G1 X96 Y146.172 E9.72443
G1 X96.156 Y146.129 E9.73089
G1 X96.27 Y146.152 E9.73553
G1 X96.315 Y146.195 E9.73802
G1 X96.37 Y146.292 E9.74247
G1 X96.443 Y146.469 E9.75011
G1 X96.665 Y147.096 E9.77666
G1 X96.895 Y147.968 E9.81265
G1 X96.994 Y148.488 E9.83378
G1 X97.089 Y149.226 E9.86348
G1 X97.116 Y149.647 E9.88031
G1 X97.128 Y150.066 E9.89704
G1 X97.116 Y150.917 E9.93101
G1 X97.087 Y151.334 E9.9477
G1 X97.011 Y151.973 E9.97338
G1 X96.939 Y152.399 E9.99062
G1 X96.875 Y152.703 E10.00302
G1 X96.684 Y153.441 E10.03345
G1 X96.456 Y154.122 E10.06211
G1 X96.244 Y154.647 E10.08471
G1 X96.018 Y155.129 E10.10596
G1 X95.794 Y155.558 E10.12527
G1 X95.491 Y156.08 E10.14936
G1 X95.15 Y156.61 E10.17452
G1 X94.845 Y157.041 E10.19559
G1 X94.525 Y157.46 E10.21663
G1 X94.18 Y157.867 E10.23793
G1 X93.633 Y158.437 E10.26946
G1 X93.383 Y158.726 E10.28471
G1 X93.201 Y158.891 E10.29452
G1 X93.102 Y158.945 E10.29902
G1 X92.964 Y158.988 E10.30479
G1 X92.894 Y159 E10.30762
G1 X92.101 Y159.037 E10.3393
G1 X91.807 Y159.078 E10.35115
G1 X90.805 Y159.252 E10.39174
G1 X89.973 Y159.352 E10.42519
G1 X89.212 Y159.5 E10.45613
G1 X88.703 Y159.579 E10.47669
G1 X88.424 Y159.605 E10.48787
G1 X87.914 Y159.626 E10.50825
G1 X87.366 Y159.731 E10.53052
G1 X87.314 Y159.75 E10.53273
G1 X86.681 Y160.121 E10.56201
G1 X86.642 Y160.158 E10.56415
G1 X86.438 Y160.452 E10.57844
G1 X86.413 Y160.517 E10.58122
G1 X86.387 Y160.733 E10.5899
G1 X86.388 Y160.796 E10.59241
G1 X86.431 Y161.08 E10.60388
G1 X86.487 Y161.179 E10.60842
G1 X86.845 Y161.525 E10.62829
G1 X87.013 Y161.592 E10.63551
G1 X87.292 Y161.591 E10.64664
G1 F727.3 X87.7 Y161.705 E10.66757
G1 F630.7 X88.27 Y161.641 E10.70024
G1 F666.7 X88.821 Y161.534 E10.73048
G1 F695.7 X89.263 Y161.421 E10.75404
G1 F718.8 X89.661 Y161.304 E10.77477
G1 F751.3 X90.373 Y161.057 E10.8108
G1 F842.1 X91.431 Y160.617 E10.85968
G1 F919.1 X91.982 Y160.422 E10.88252
G1 X92.314 Y160.328 E10.89601
G1 X92.708 Y160.259 E10.91164
G1 X92.382 Y160.519 E10.92793
G1 X91.953 Y160.827 E10.94857
G1 X91.641 Y161.034 E10.96321
G1 F864 X91.02 Y161.364 E10.99244
G1 F798.5 X90.681 Y161.527 E11.00936
G1 F761.9 X90.157 Y161.749 E11.03619
G1 F734.7 X89.851 Y161.866 E11.05221
G1 F704.7 X89.036 Y162.131 E11.09589
G1 F660.6 X88.241 Y162.325 E11.14039
G1 F624.3 X87.772 Y162.406 E11.16778
G1 F727.3 X87.366 Y162.587 E11.18974
G1 F900 X87.126 Y162.623 E11.19942
G1 X86.341 Y162.692 E11.23087
G1 X85.843 Y162.704 E11.25076
G1 X85.145 Y162.684 E11.27863
G1 X84.717 Y162.65 E11.29576
G1 X84.015 Y162.552 E11.32405
G1 X83.396 Y162.428 E11.34925
G1 X82.641 Y162.237 E11.38033
G1 X82.198 Y162.102 E11.39882
G1 X81.592 Y161.892 E11.42441
G1 X81.064 Y161.677 E11.44717
G1 X80.43 Y161.368 E11.47532
G1 X79.352 Y160.785 E11.52423
G1 X79.233 Y160.747 E11.52922
G1 X79.231 Y160.748 E11.52931
G0 F810 X79.123 Y160.751
G0 X78.924 Y160.858
M204 S600
M205 X8 Y8
G0 F900 X79.1 Y160.763
G0 X78.766 Y160.188
G0 X79.034 Y160.092
G0 X85.977 Y161.602
G0 X86.178 Y161.395
M204 S450
;TYPE:SKIN
G1 X86.214 Y161.443 E11.5317
G1 X86.567 Y161.787 E11.55137
G1 F774.2 X86.917 Y162.029 E11.57112
G1 F621.6 X87.058 Y162.109 E11.58048
G1 X86.895 Y162.182 E11.59081
G1 F774.2 X86.581 Y162.289 E11.6062
G1 F900 X86.34 Y162.31 E11.61585
G1 X85.851 Y162.324 E11.63538
G1 X85.193 Y162.305 E11.66165
G1 X84.76 Y162.271 E11.67899
G1 X84.075 Y162.176 E11.70659
G1 X83.483 Y162.057 E11.73069
G1 X82.742 Y161.869 E11.7612
G1 X82.286 Y161.729 E11.78024
G1 X81.725 Y161.534 E11.80394
G1 X81.216 Y161.327 E11.82587
G1 X80.605 Y161.03 E11.85299
G1 X79.517 Y160.442 E11.90235
G1 X79.263 Y160.366 E11.91293
G1 X79.136 Y160.365 E11.918
G1 X79.018 Y160.384 E11.92277
G1 X78.891 Y160.438 E11.92828
G1 X78.703 Y160.549 E11.93699
G1 X78.549 Y160.686 E11.94522
G1 X78.314 Y160.539 E11.95628
G1 X77.775 Y160.145 E11.98293
G1 X77.496 Y159.92 E11.99724
G1 X77.194 Y159.657 E12.01322
G1 X76.86 Y159.338 E12.03165
G1 X76.564 Y159.026 E12.04882
G1 X76.282 Y158.704 E12.0659
G1 X75.969 Y158.308 E12.08605
G1 X75.368 Y157.46 E12.12753
G1 X75.125 Y157.057 E12.14631
G1 X74.923 Y156.684 E12.16324
G1 X74.718 Y156.273 E12.18157
G1 X74.537 Y155.854 E12.19979
G1 X74.34 Y155.344 E12.22161
G1 X74.119 Y154.634 E12.25129
G1 X74.019 Y154.232 E12.26782
G1 X73.927 Y153.78 E12.28624
G1 X73.821 Y153.06 E12.31528
G1 X73.778 Y152.601 E12.33368
G1 X73.736 Y151.778 E12.36657
G1 X73.737 Y151.271 E12.38681
G1 X73.749 Y150.968 E12.39891
G1 X73.789 Y150.397 E12.42176
G1 X73.935 Y149.432 E12.46071
G1 X74.108 Y148.564 E12.49603
G1 X74.101 Y148.335 E12.50518
G1 X74.067 Y148.199 E12.51077
G1 X73.949 Y147.998 E12.52008
G1 X73.751 Y147.793 E12.53145
G1 X73.574 Y147.694 E12.53955
