;FLAVOR:Marlin
;TIME:751
;Filament used: 0.318183m, 0m
;Layer height: 0.2
;MINX:60.164
;MINY:94.982
;MINZ:0.2
;MAXX:77.838
;MAXY:112.758
;MAXZ:12.796
;Generated with Cura_SteamEngine 5.4.0
T0
M82 ;absolute extrusion mode
M190 S0
M109 S0
G28 X
SET_DUAL_CARRIAGE CARRIAGE=1 MODE=MIRROR
START_PRINT EXTRUDER=-1 EXTRUDERS=2 EXTRUDER_TEMP=210 EXTRUDER1_TEMP=210 BED_TEMP=60.0 AREA_START=%MINX%,%MINY% AREA_END=%MAXX%,%MAXY%
G92 E0
G92 E0
G1 F2400 E-3
;LAYER_COUNT:63
;LAYER:0
M107
M204 S600
M205 X8 Y8
G0 F900 X63.956 Y96.477 Z0.2
M204 S450
;TYPE:SKIRT
G1 F2400 E0
G1 F900 X64.357 Y96.217 E0.01907
G1 X64.952 Y95.883 E0.04631
G1 X65.5 Y95.632 E0.07036
G1 X66.079 Y95.422 E0.09495
G1 X66.393 Y95.324 E0.10808
G1 X66.977 Y95.173 E0.13215
G1 X67.414 Y95.09 E0.1499
G1 X68.074 Y95.012 E0.17643
G1 X68.399 Y94.99 E0.18943
G1 X68.763 Y94.982 E0.20396
G1 X69.075 Y94.989 E0.21642
G1 X69.49 Y95.017 E0.23302
G1 X69.818 Y95.055 E0.2462
G1 X70.357 Y95.143 E0.268
G1 X70.668 Y95.209 E0.28068
G1 X71.045 Y95.307 E0.29623
G1 X72.955 Y95.858 E0.37557
G1 X73.503 Y96.071 E0.39904
G1 X74.038 Y96.384 E0.42378
G1 X74.436 Y96.666 E0.44325
G1 X74.7 Y96.873 E0.45664
G1 X75.19 Y97.298 E0.48252
G1 X75.609 Y97.731 E0.50657
G1 X76.005 Y98.216 E0.53156
G1 X76.231 Y98.513 E0.54646
G1 X76.39 Y98.744 E0.55765
G1 X76.599 Y99.076 E0.57331
G1 X76.826 Y99.481 E0.59184
G1 X77.165 Y100.215 E0.62411
G1 X77.278 Y100.502 E0.63642
G1 X77.45 Y101.03 E0.65858
G1 X77.525 Y101.309 E0.67011
G1 X77.59 Y101.601 E0.68205
G1 X77.688 Y102.143 E0.70404
G1 X77.73 Y102.461 E0.71684
G1 X77.766 Y102.908 E0.73474
G1 X77.838 Y105.061 E0.82072
G1 X77.805 Y105.646 E0.8441
G1 X77.691 Y106.186 E0.86613
G1 X77.568 Y106.606 E0.8836
G1 X77.428 Y106.995 E0.9001
G1 X77.132 Y107.672 E0.92959
G1 X76.861 Y108.171 E0.95225
G1 X76.45 Y108.804 E0.98237
G1 X76.211 Y109.127 E0.99841
G1 X75.712 Y109.721 E1.02937
G1 X75.256 Y110.176 E1.05508
G1 X74.706 Y110.629 E1.08352
G1 X74.349 Y110.891 E1.1012
G1 X73.852 Y111.211 E1.12479
G1 X73.547 Y111.377 E1.13865
G1 X72.866 Y111.701 E1.16875
G1 X72.546 Y111.834 E1.18258
G1 X71.039 Y112.376 E1.2465
G1 X70.452 Y112.569 E1.27116
G1 X69.891 Y112.703 E1.29418
G1 X69.459 Y112.745 E1.31151
G1 X69.084 Y112.758 E1.32648
G1 X68.705 Y112.751 E1.34161
G1 X68.266 Y112.719 E1.35918
G1 X67.958 Y112.682 E1.37156
G1 X67.604 Y112.624 E1.38588
G1 X67.317 Y112.564 E1.39758
G1 X66.66 Y112.387 E1.42474
G1 X66.085 Y112.197 E1.44891
G1 X65.735 Y112.059 E1.46392
G1 X65.329 Y111.87 E1.4818
G1 X65.068 Y111.735 E1.49352
G1 X64.538 Y111.423 E1.51807
G1 X64.097 Y111.118 E1.53947
G1 X63.7 Y110.807 E1.5596
G1 X63.451 Y110.591 E1.57276
G1 X63.067 Y110.22 E1.59407
G1 X62.862 Y110.002 E1.60601
G1 X62.566 Y109.656 E1.62418
G1 X62.027 Y108.975 E1.65885
G1 X61.213 Y107.91 E1.71235
G1 X60.936 Y107.483 E1.73266
G1 X60.896 Y107.408 E1.73606
G1 X60.632 Y106.772 E1.76354
G1 X60.424 Y106.092 E1.79192
G1 X60.331 Y105.712 E1.80754
G1 X60.269 Y105.377 E1.82113
G1 X60.225 Y105.07 E1.83351
G1 X60.186 Y104.659 E1.84999
G1 X60.164 Y104.251 E1.8663
G1 X60.167 Y103.707 E1.88801
G1 X60.198 Y103.204 E1.90812
G1 X60.26 Y102.698 E1.92847
G1 X60.316 Y102.39 E1.94096
G1 X60.464 Y101.749 E1.96722
G1 X60.574 Y101.373 E1.98286
G1 X60.763 Y100.858 E2.00475
G1 X60.998 Y100.338 E2.02753
G1 X61.266 Y99.829 E2.05049
G1 X61.436 Y99.538 E2.06394
G1 X61.861 Y98.89 E2.09487
G1 X62.725 Y97.631 E2.15581
G1 X63.099 Y97.178 E2.17926
G1 X63.549 Y96.78 E2.20323
G1 X63.689 Y96.676 E2.2102
G0 F810 X63.956 Y96.477
M204 S600
G0 F900 X64.243 Y96.862
M204 S450
G1 X64.592 Y96.636 E2.22679
G1 X65.187 Y96.302 E2.25402
G1 X65.664 Y96.083 E2.27497
G1 X66.221 Y95.88 E2.29863
G1 X66.514 Y95.789 E2.31088
G1 X67.067 Y95.645 E2.33369
G1 X67.504 Y95.562 E2.35144
G1 X68.107 Y95.491 E2.37567
G1 X68.41 Y95.47 E2.3878
G1 X68.753 Y95.462 E2.40149
G1 X69.043 Y95.468 E2.41307
G1 X69.435 Y95.494 E2.42875
G1 X69.741 Y95.529 E2.44104
G1 X70.258 Y95.613 E2.46194
G1 X70.548 Y95.674 E2.47377
G1 X70.912 Y95.768 E2.48878
G1 X72.786 Y96.307 E2.5666
G1 X73.262 Y96.486 E2.5869
G1 X73.761 Y96.776 E2.60994
G1 X74.141 Y97.045 E2.62852
G1 X74.386 Y97.236 E2.64092
G1 X74.846 Y97.633 E2.66517
G1 X75.237 Y98.035 E2.68755
G1 X75.623 Y98.507 E2.71189
G1 X75.836 Y98.786 E2.7259
G1 X75.984 Y99 E2.73628
G1 X76.181 Y99.312 E2.75101
G1 X76.39 Y99.683 E2.768
G1 X76.718 Y100.391 E2.79915
G1 X76.831 Y100.678 E2.81146
G1 X76.987 Y101.156 E2.83153
G1 X77.057 Y101.414 E2.8422
G1 X77.118 Y101.686 E2.85332
G1 X77.212 Y102.206 E2.87441
G1 X77.254 Y102.524 E2.88722
G1 X77.286 Y102.924 E2.90323
G1 X77.358 Y105.039 E2.98769
G1 X77.335 Y105.548 E3.00803
G1 X77.23 Y106.052 E3.02858
G1 X77.116 Y106.443 E3.04483
G1 X76.976 Y106.832 E3.06133
G1 X76.709 Y107.444 E3.08798
G1 X76.458 Y107.91 E3.10911
G1 X76.064 Y108.518 E3.13803
G1 X75.825 Y108.841 E3.15406
G1 X75.345 Y109.412 E3.18383
G1 X74.951 Y109.806 E3.20607
G1 X74.422 Y110.242 E3.23343
G1 X74.065 Y110.504 E3.25111
G1 X73.623 Y110.789 E3.2721
G1 X73.318 Y110.955 E3.28596
G1 X72.682 Y111.258 E3.31408
G1 X72.384 Y111.382 E3.32696
G1 X70.888 Y111.92 E3.39041
G1 X70.337 Y112.103 E3.41358
G1 X69.843 Y112.225 E3.43389
G1 X69.441 Y112.265 E3.45002
G1 X69.092 Y112.278 E3.46396
G1 X68.739 Y112.272 E3.47805
G1 X68.322 Y112.242 E3.49473
G1 X68.035 Y112.208 E3.50627
G1 X67.702 Y112.154 E3.51973
G1 X67.415 Y112.094 E3.53143
G1 X66.81 Y111.931 E3.55644
G1 X66.261 Y111.75 E3.57951
G1 X65.911 Y111.612 E3.59453
G1 X65.549 Y111.444 E3.61046
G1 X65.311 Y111.321 E3.62115
G1 X64.811 Y111.028 E3.64428
G1 X64.37 Y110.723 E3.66568
G1 X64.015 Y110.444 E3.6837
G1 X63.766 Y110.228 E3.69686
G1 X63.416 Y109.89 E3.71628
G1 X63.226 Y109.689 E3.72732
G1 X62.942 Y109.358 E3.74473
G1 X62.408 Y108.683 E3.77908
G1 X61.616 Y107.649 E3.83106
G1 X61.339 Y107.222 E3.85138
G1 X61.091 Y106.631 E3.87696
G1 X60.89 Y105.977 E3.90426
G1 X60.803 Y105.623 E3.91881
G1 X60.744 Y105.309 E3.93157
G1 X60.703 Y105.024 E3.94306
G1 X60.665 Y104.632 E3.95878
G1 X60.644 Y104.253 E3.97393
G1 X60.646 Y103.737 E3.99452
G1 X60.677 Y103.234 E4.01464
G1 X60.732 Y102.784 E4.03273
G1 X60.784 Y102.497 E4.04437
G1 X60.925 Y101.883 E4.06951
G1 X61.025 Y101.538 E4.08385
G1 X61.214 Y101.023 E4.10575
G1 X61.423 Y100.561 E4.12598
G1 X61.68 Y100.071 E4.14807
G1 X61.838 Y99.801 E4.16055
G1 X62.257 Y99.161 E4.19109
G1 X63.098 Y97.933 E4.25049
G1 X63.418 Y97.537 E4.27081
G1 X63.836 Y97.165 E4.29314
G1 X63.976 Y97.061 E4.3001
G0 F810 X64.243 Y96.862
M204 S600
G1 F2400 E1.3001
;MESH:Rose_5cm_withbottom.stl
G0 F900 X65.795 Y98.907
G0 X66.409 Y99.798
G0 X73.143 Y105.332
G0 X73.728 Y105.047
M204 S300
M205 X4 Y4
;TYPE:WALL-OUTER
G1 F2400 E4.3001
G1 F900 X73.873 Y105.172 E4.30774
G1 X73.789 Y105.457 E4.3196
G1 X73.714 Y105.655 E4.32805
G1 X73.565 Y105.979 E4.34229
G1 X73.378 Y106.308 E4.35739
G1 X73.26 Y106.483 E4.36582
G1 X72.999 Y106.828 E4.38308
G1 X72.847 Y107.004 E4.39236
G1 X72.523 Y107.32 E4.41043
G1 X72.25 Y107.541 E4.42445
G1 X72.061 Y107.675 E4.43369
G1 X71.836 Y107.815 E4.44427
G1 X71.677 Y107.901 E4.45148
G1 X71.274 Y108.088 E4.46922
G1 X70.978 Y108.2 E4.48185
G1 X70.741 Y108.276 E4.49178
G1 X70.413 Y108.363 E4.50533
G1 X69.86 Y108.448 E4.52766
G1 X69.789 Y108.444 E4.53049
G1 X69.693 Y108.405 E4.53463
G1 X69.424 Y108.224 E4.54757
G1 X68.649 Y107.804 E4.58275
G1 X68.241 Y107.605 E4.60087
G1 X67.856 Y107.352 E4.61926
G1 X67.653 Y107.255 E4.62824
G1 X67.277 Y107.211 E4.64335
G1 X67.223 Y107.22 E4.64553
G1 X67.041 Y107.288 E4.65329
G1 X66.94 Y107.383 E4.65882
G1 X66.901 Y107.436 E4.66145
G1 X66.831 Y107.577 E4.66773
G1 X66.824 Y107.683 E4.67197
G1 F855.4 X66.832 Y107.892 E4.68075
G1 F741 X66.859 Y108.067 E4.68934
G1 F662.6 X66.896 Y108.121 E4.69288
G1 F734.7 X66.575 Y108.018 E4.70937
G1 F874.5 X66.423 Y107.92 E4.7168
G1 F900 X66.232 Y107.774 E4.72639
G1 X66.031 Y107.594 E4.73716
G1 X65.723 Y107.273 E4.75492
G1 X65.504 Y107.003 E4.76879
G1 X65.266 Y106.662 E4.78539
G1 X65.147 Y106.47 E4.7944
G1 X65.033 Y106.252 E4.80422
G1 X64.762 Y105.68 E4.82949
G1 X64.707 Y105.622 E4.83268
G1 X64.615 Y105.569 E4.83691
G1 X64.526 Y105.541 E4.84064
G1 X64.392 Y105.557 E4.84602
G1 X64.327 Y105.385 E4.85336
G1 X64.236 Y105.07 E4.86645
G1 X64.168 Y104.742 E4.87982
G1 X64.135 Y104.498 E4.88964
G1 X64.116 Y104.239 E4.90001
G1 X64.112 Y103.968 E4.91083
G1 X64.138 Y103.49 E4.92993
G1 X64.18 Y103.187 E4.94214
G1 X64.288 Y102.732 E4.96081
G1 X64.355 Y102.522 E4.9696
G1 X64.522 Y102.117 E4.98709
G1 X64.681 Y101.809 E5.00092
G1 X64.91 Y101.443 E5.01816
G1 X65.194 Y101.064 E5.03706
G1 X65.392 Y100.84 E5.04899
G1 X65.644 Y100.591 E5.06313
G1 X65.938 Y100.325 E5.07895
G1 X65.969 Y100.285 E5.08097
G1 X66.013 Y100.199 E5.08483
G1 X66.031 Y100.123 E5.08795
G1 X66.009 Y99.987 E5.09345
G1 X65.969 Y99.901 E5.09723
G1 X66.305 Y99.651 E5.11395
G1 X66.538 Y99.512 E5.12477
G1 X66.776 Y99.389 E5.13547
G1 X67.028 Y99.275 E5.14651
G1 X67.484 Y99.118 E5.16576
G1 X67.908 Y99.009 E5.18323
G1 X68.123 Y98.974 E5.19192
G1 X68.522 Y98.934 E5.20793
G1 X68.899 Y98.932 E5.22297
G1 X69.309 Y98.967 E5.2394
G1 X69.725 Y99.042 E5.25627
G1 X70.196 Y99.172 E5.27577
G1 X70.672 Y99.351 E5.29607
G1 X70.855 Y99.44 E5.30419
G1 X71.471 Y99.781 E5.33229
G1 X71.538 Y99.791 E5.33499
G1 X71.68 Y99.763 E5.34077
G1 X71.789 Y99.7 E5.3458
G1 X71.832 Y99.656 E5.34825
G1 X72.191 Y99.914 E5.3659
G1 X72.502 Y100.194 E5.3826
G1 X72.681 Y100.383 E5.39299
G1 X73.008 Y100.796 E5.41401
G1 X73.186 Y101.063 E5.42682
G1 X73.362 Y101.378 E5.44122
G1 X73.508 Y101.699 E5.4553
G1 X73.668 Y102.127 E5.47353
G1 X73.658 Y102.143 E5.47429
G1 X73.721 Y102.364 E5.48346
G1 X73.803 Y102.893 E5.50482
G1 X73.824 Y103.152 E5.5152
G1 X73.832 Y103.507 E5.52937
G1 X73.806 Y103.975 E5.54808
G1 X73.74 Y104.39 E5.56485
G1 X73.667 Y104.731 E5.57877
G0 F810 X73.659 Y104.773
G0 X73.658 Y104.893
G0 X73.684 Y104.973
G0 X73.728 Y105.047
M204 S600
M205 X8 Y8
G0 F900 X73.684 Y104.973
G0 X73.658 Y104.893
G0 X73.658 Y104.863
G1 F2400 E2.57877
G0 F900 X72.997 Y104.863
G0 X69.078 Y107.84
G0 X68.578 Y108.796
M204 S300
M205 X4 Y4
G1 F2400 E5.57877
G1 F896.3 X68.094 Y108.678 E5.59873
G1 F815.1 X67.809 Y108.585 E5.61194
G1 F764.6 X67.405 Y108.419 E5.63246
G1 F712.9 X67.164 Y108.291 E5.64621
G1 F667.7 X66.896 Y108.121 E5.66329
M204 S600
M205 X8 Y8
G0 F900 X66.649 Y107.842
G0 X66.531 Y100.634
G0 X66.28 Y100.502
M204 S450
;TYPE:SKIN
G1 X66.39 Y100.271 E5.6735
G1 X66.407 Y100.169 E5.67763
G1 X66.404 Y100.054 E5.68222
G1 X66.503 Y99.978 E5.6872
G1 X66.721 Y99.846 E5.69737
G1 X66.969 Y99.719 E5.70849
G1 X67.166 Y99.631 E5.7171
G1 X67.599 Y99.482 E5.73538
G1 X67.952 Y99.386 E5.74998
G1 X68.22 Y99.347 E5.76079
G1 X68.546 Y99.314 E5.77387
G1 X68.88 Y99.313 E5.7872
G1 X69.262 Y99.346 E5.8025
G1 X69.645 Y99.413 E5.81802
G1 X70.074 Y99.532 E5.83579
G1 X70.526 Y99.702 E5.85506
G1 X70.676 Y99.775 E5.86172
G1 X71.246 Y100.099 E5.88789
G1 X71.391 Y100.153 E5.89407
G1 X71.504 Y100.17 E5.89863
G1 X71.575 Y100.169 E5.90146
G1 X71.744 Y100.14 E5.9083
G1 X71.819 Y100.113 E5.91149
G1 X71.952 Y100.211 E5.91808
G1 X72.233 Y100.464 E5.93317
G1 X72.396 Y100.635 E5.9426
G1 X72.697 Y101.016 E5.96198
G1 X72.862 Y101.265 E5.9739
G1 X73.02 Y101.547 E5.9868
G1 X73.155 Y101.843 E5.99979
G1 X73.309 Y102.255 E6.01734
G1 X73.303 Y102.287 E6.01864
G1 X73.35 Y102.45 E6.02541
G1 X73.429 Y102.986 E6.04704
G1 X73.444 Y103.17 E6.0544
G1 X73.451 Y103.498 E6.0675
G1 X73.427 Y103.94 E6.08517
G1 X73.277 Y104.788 E6.11954
G1 X73.281 Y104.944 E6.12576
G1 X73.299 Y105.032 E6.12935
G1 X73.354 Y105.164 E6.13506
G1 X73.438 Y105.287 E6.141
G1 X73.359 Y105.513 E6.15056
G1 X73.224 Y105.809 E6.16354
G1 X73.057 Y106.105 E6.17711
G1 X72.704 Y106.588 E6.20098
G1 X72.571 Y106.744 E6.20917
G1 X72.277 Y107.03 E6.22554
G1 X72.022 Y107.236 E6.23862
G1 X71.854 Y107.355 E6.24684
G1 X71.502 Y107.562 E6.26314
G1 X71.124 Y107.738 E6.27978
G1 X70.855 Y107.839 E6.29125
G1 X70.63 Y107.911 E6.30067
G1 X70.341 Y107.988 E6.31261
G1 X69.865 Y108.058 E6.33181
G1 X69.599 Y107.884 E6.3445
G1 X68.841 Y107.475 E6.37888
G1 X68.435 Y107.276 E6.39692
G1 X68.056 Y107.029 E6.41498
G1 X67.752 Y106.885 E6.4284
G1 X67.256 Y106.833 E6.44831
G1 X67.11 Y106.856 E6.45421
G1 X66.938 Y106.915 E6.46147
G1 X66.799 Y106.995 E6.46787
G1 X66.675 Y107.111 E6.47464
G1 X66.58 Y107.233 E6.48082
G1 X66.46 Y107.469 E6.49138
G1 X66.321 Y107.341 E6.49892
G1 X66.011 Y107.024 E6.51662
G1 X65.81 Y106.776 E6.52936
G1 X65.583 Y106.45 E6.54522
G1 X65.476 Y106.278 E6.5533
G1 X65.387 Y106.109 E6.56092
G1 X65.104 Y105.508 E6.58744
G1 X65.026 Y105.399 E6.59279
G1 X64.938 Y105.319 E6.59753
G1 X64.804 Y105.24 E6.60374
G1 X64.667 Y105.19 E6.60956
G1 X64.609 Y104.991 E6.61784
G1 X64.544 Y104.681 E6.63048
G1 X64.513 Y104.455 E6.63958
G1 X64.496 Y104.219 E6.64903
G1 X64.493 Y103.977 E6.65869
G1 X64.517 Y103.529 E6.67659
G1 X64.554 Y103.261 E6.68739
G1 X64.654 Y102.838 E6.70474
G1 X64.712 Y102.656 E6.71236
G1 X64.866 Y102.281 E6.72854
G1 X65.01 Y102.001 E6.74111
G1 X65.222 Y101.661 E6.7571
G1 X65.487 Y101.308 E6.77472
G1 X65.667 Y101.104 E6.78558
G1 X65.908 Y100.867 E6.79907
G1 X66.048 Y100.739 E6.80664
G0 F810 X66.222 Y100.579
G0 X66.28 Y100.502
M204 S600
G0 F900 X66.531 Y100.634
G0 X71.083 Y100.323
G0 X71.101 Y100.291
M204 S450
G1 X73.045 Y102.234 E6.91634
M204 S600
G0 X73.194 Y103.062
M204 S450
G1 X69.85 Y99.718 E7.10509
M204 S600
G0 X69.018 Y99.565
M204 S450
G1 X73.197 Y103.744 E7.34097
M204 S600
G0 X73.114 Y104.339
M204 S450
G1 X68.348 Y99.574 E7.60995
M204 S600
G0 X67.777 Y99.682
M204 S450
G1 X73.042 Y104.946 E7.90711
M204 S600
G0 X73.043 Y105.626
M204 S450
G1 X67.265 Y99.849 E8.23321
M204 S600
G0 X66.81 Y100.072
M204 S450
G1 X72.795 Y106.057 E8.57103
M204 S600
G0 X72.507 Y106.448
M204 S450
G1 X66.552 Y100.493 E8.90716
M204 S600
G0 X66.254 Y100.874
M204 S450
G1 X72.174 Y106.794 E9.24131
M204 S600
G0 X71.799 Y107.098
M204 S450
G1 X65.905 Y101.204 E9.57399
M204 S600
G0 X65.59 Y101.568
M204 S450
G1 X71.376 Y107.353 E9.90055
M204 S600
G0 X70.903 Y107.56
M204 S450
G1 X65.312 Y101.969 E10.21613
M204 S600
G0 X65.072 Y102.408
M204 S450
G1 X70.389 Y107.724 E10.51622
M204 S600
G0 X69.594 Y107.608
M204 S450
G1 X64.886 Y102.9 E10.78196
M204 S600
G0 X64.768 Y103.461
M204 S450
G1 X68.089 Y106.782 E10.96941
M204 S600
G0 X67.223 Y106.595
M204 S450
G1 X64.734 Y104.105 E11.10993
M204 S600
G0 X64.837 Y104.887
M204 S450
G1 X65.067 Y105.117 E11.12291
M204 S600
G0 X65.238 Y105.288
M204 S450
G1 X66.71 Y106.761 E11.20602
M204 S600
G0 X66.472 Y106.39
M104 S210
G1 F2400 E8.20602
;MESH:NONMESH
G0 F600 X66.472 Y106.39 Z0.4
G0 F900 X65.77 Y100.718
G0 X65.052 Y99.913
G0 X64.243 Y96.862
;TIME_ELAPSED:34.166189
;LAYER:1
M106 S255
M204 S450
;TYPE:SKIRT
G1 F2400 E11.20602
G1 F900 X64.592 Y96.636 E11.21985
G1 X65.187 Y96.302 E11.24255
G1 X65.664 Y96.083 E11.26
G1 X66.221 Y95.88 E11.27972
G1 X66.514 Y95.789 E11.28992
G1 X67.067 Y95.645 E11.30893
G1 X67.504 Y95.562 E11.32373
G1 X68.107 Y95.491 E11.34392
G1 X68.41 Y95.47 E11.35402
G1 X68.753 Y95.462 E11.36543
G1 X69.043 Y95.468 E11.37508
G1 X69.435 Y95.494 E11.38815
G1 X69.741 Y95.529 E11.39839
G1 X70.258 Y95.613 E11.41581
G1 X70.548 Y95.674 E11.42567
G1 X70.912 Y95.768 E11.43817
G1 X72.786 Y96.307 E11.50303
G1 X73.262 Y96.486 E11.51994
G1 X73.761 Y96.776 E11.53914
G1 X74.141 Y97.045 E11.55462
G1 X74.386 Y97.236 E11.56496
G1 X74.846 Y97.633 E11.58517
G1 X75.237 Y98.035 E11.60382
G1 X75.623 Y98.507 E11.6241
G1 X75.836 Y98.786 E11.63577
G1 X75.984 Y99 E11.64443
G1 X76.181 Y99.312 E11.6567
G1 X76.39 Y99.683 E11.67086
G1 X76.718 Y100.391 E11.69682
G1 X76.831 Y100.678 E11.70707
G1 X76.987 Y101.156 E11.7238
G1 X77.057 Y101.414 E11.73269
G1 X77.118 Y101.686 E11.74196
G1 X77.212 Y102.206 E11.75954
G1 X77.254 Y102.524 E11.7702
G1 X77.286 Y102.924 E11.78355
G1 X77.358 Y105.039 E11.85394
G1 X77.335 Y105.548 E11.87088
G1 X77.23 Y106.052 E11.88801
G1 X77.116 Y106.443 E11.90155
G1 X76.976 Y106.832 E11.9153
G1 X76.709 Y107.444 E11.93751
G1 X76.458 Y107.91 E11.95512
G1 X76.064 Y108.518 E11.97921
G1 X75.825 Y108.841 E11.99258
G1 X75.345 Y109.412 E12.01739
G1 X74.951 Y109.806 E12.03592
G1 X74.422 Y110.242 E12.05872
G1 X74.065 Y110.504 E12.07345
G1 X73.623 Y110.789 E12.09094
G1 X73.318 Y110.955 E12.10249
G1 X72.682 Y111.258 E12.12592
