; HEADER_BLOCK_START
; generated by OrcaSlicer 2.3.1 on 2026-03-18 at 09:11:45
; total layer number: 653
; filament_density: 1.24,1.24
; filament_diameter: 1.75,1.75
; max_z_height: 130.60
; HEADER_BLOCK_END

; THUMBNAIL_BLOCK_START

;
; THUMBNAIL_BLOCK_END

; THUMBNAIL_BLOCK_START

;
; THUMBNAIL_BLOCK_END

; external perimeters extrusion width = 0.40mm
; perimeters extrusion width = 0.44mm
; infill extrusion width = 0.44mm
; solid infill extrusion width = 0.48mm
; top infill extrusion width = 0.38mm
; first layer extrusion width = 0.48mm

; EXECUTABLE_BLOCK_START
EXCLUDE_OBJECT_DEFINE NAME=Stem_for_Rose_3cm.stl_id_0_copy_0 CENTER=150,150 POLYGON=[[114.736,157.917],[128.206,116.462],[171.795,116.462],[185.264,157.917],[150,183.538],[114.736,157.917]]
M73 P0 R42
;TYPE:Custom
M190 S55
M109 S220
START_PRINT EXTRUDER=0 EXTRUDERS=2 BED_TEMP=55 EXTRUDER_TEMP=220 EXTRUDER1_TEMP=220
G90
G21
M83 ; use relative distances for extrusion
; Filament gcode
T0
M106 S0
;LAYER_CHANGE
;Z:0.2
;HEIGHT:0.2
;BEFORE_LAYER_CHANGE
;0.2
G92 E0

G1 E-.8 F1800
;AFTER_LAYER_CHANGE
;0.2
;_SET_FAN_SPEED_CHANGING_LAYER
SET_VELOCITY_LIMIT ACCEL=500 ACCEL_TO_DECEL=250
; printing object Stem_for_Rose_3cm.stl id:0 copy 0
EXCLUDE_OBJECT_START NAME=Stem_for_Rose_3cm.stl_id_0_copy_0
G1 Z.6 F21000
G1 X168.471 Y155.483
G1 Z.6
G1 Z.2
G1 E.8 F1800
;TYPE:Inner wall
;WIDTH:0.479999
G1 F3000
G1 X167.951 Y155.414 E.01868
G1 X167.578 Y155.495 E.01359
G1 X166.295 Y156.02 E.04936
G1 X165.015 Y156.603 E.0501
G1 X164.252 Y156.899 E.02915
G1 X163.772 Y157.047 E.01788
G1 X163.269 Y157.163 E.0184
G1 X162.762 Y157.248 E.0183
G1 X162.196 Y157.311 E.0203
G1 X161.569 Y157.349 E.02238
G1 X160.908 Y157.35 E.02352
G1 X160.271 Y157.3 E.02277
G1 X159.577 Y157.153 E.02525
G1 X159.108 Y156.947 E.01824
G1 X158.88 Y156.755 E.01061
G1 X158.563 Y156.569 E.01312
G1 X158.176 Y156.499 E.01401
G1 X157.796 Y156.567 E.01373
G1 X157.38 Y156.82 E.01735
G1 X157.126 Y157.11 E.01373
G1 X156.996 Y157.428 E.01224
G1 X156.972 Y157.771 E.01224
G1 X157.191 Y158.558 E.0291
G1 X157.202 Y159.178 E.02209
G1 X157.11 Y159.738 E.02019
G1 X156.946 Y160.353 E.02269
G1 X156.729 Y160.981 E.02364
G1 X156.483 Y161.58 E.02308
G1 X156.225 Y162.124 E.02143
G1 X155.96 Y162.604 E.01955
G1 X155.677 Y163.04 E.0185
G1 X155.226 Y163.615 E.02602
G1 X154.057 Y164.911 E.06217
G1 X153.161 Y165.969 E.04936
G1 X152.969 Y166.298 E.0136
G1 X152.874 Y166.814 E.01868
G1 X152.713 Y166.837 E.0058
G1 X152.524 Y166.984 E.00853
G1 X152.318 Y167.258 E.01221
G1 X151.939 Y167.98 E.02903
G1 X151.523 Y168.878 E.03527
G1 X151.112 Y169.847 E.03748
G1 X150.717 Y170.928 E.04099
G1 X150.385 Y172.075 E.04254
G1 X150.13 Y173.245 E.04265
G1 X150 Y174.025 E.02817
G1 X149.865 Y173.218 E.02915
G1 X149.615 Y172.075 E.04167
G1 X149.283 Y170.928 E.04254
G1 X148.888 Y169.847 E.04099
G1 X148.47 Y168.86 E.03817
G1 X148.036 Y167.93 E.03657
G1 X147.682 Y167.258 E.02704
G1 X147.533 Y167.043 E.00931
G1 X147.287 Y166.837 E.01144
G1 X147.126 Y166.814 E.0058
G1 X147.031 Y166.298 E.01868
G1 X146.839 Y165.969 E.01359
G1 X145.943 Y164.911 E.04936
G1 X144.992 Y163.874 E.0501
G1 X144.475 Y163.24 E.02916
G1 X144.187 Y162.829 E.01787
G1 X143.92 Y162.387 E.01839
G1 X143.683 Y161.93 E.01831
G1 X143.448 Y161.412 E.02029
G1 X143.218 Y160.827 E.02238
G1 X143.013 Y160.199 E.02352
G1 X142.864 Y159.577 E.02277
G1 X142.789 Y158.872 E.02525
G1 X142.84 Y158.363 E.01824
G1 X142.952 Y158.087 E.01061
G1 X143.031 Y157.727 E.01312
G1 X142.979 Y157.337 E.01401
G1 X142.796 Y156.997 E.01373
G1 X142.439 Y156.689 E.01681
G1 X142.073 Y156.527 E.01424
G1 X141.726 Y156.503 E.01239
G1 X141.342 Y156.61 E.01419
G1 X140.715 Y157.037 E.02702
G1 X140.129 Y157.239 E.02209
G1 X139.569 Y157.324 E.02019
G1 X138.932 Y157.358 E.02269
G1 X138.269 Y157.346 E.02364
G1 X137.623 Y157.298 E.02308
G1 X137.026 Y157.22 E.02143
G1 X136.487 Y157.116 E.01955
G1 X135.985 Y156.982 E.0185
G1 X135.299 Y156.731 E.02602
G1 X133.705 Y156.02 E.06217
G1 X132.432 Y155.499 E.04898
G1 X132.049 Y155.414 E.01397
G1 X131.529 Y155.483 E.01868
G1 X131.458 Y155.336 E.0058
G1 X131.26 Y155.202 E.00853
G1 X130.935 Y155.091 E.01221
G1 X130.132 Y154.953 E.02903
G1 X129.149 Y154.835 E.03527
G1 X128.101 Y154.744 E.03748
G1 X126.951 Y154.702 E.04099
G1 X125.757 Y154.741 E.04254
G1 X124.565 Y154.86 E.04265
G1 X123.783 Y154.978 E.02817
G1 X124.509 Y154.599 E.02915
G1 X125.519 Y154.009 E.04167
G1 X126.508 Y153.339 E.04254
G1 X127.413 Y152.628 E.04099
G1 X128.223 Y151.926 E.03817
G1 X128.974 Y151.226 E.03657
G1 X129.503 Y150.682 E.02704
G1 X129.661 Y150.474 E.0093
G1 X129.781 Y150.176 E.01144
G1 X129.753 Y150.016 E.0058
G1 X130.214 Y149.766 E.01869
G1 X130.47 Y149.479 E.01367
G1 X131.236 Y148.234 E.05209
G1 X131.862 Y147.132 E.04511
G1 X132.135 Y146.687 E.01862
G1 X132.426 Y146.262 E.01832
G1 X132.784 Y145.811 E.02054
G1 X133.129 Y145.437 E.01812
G1 X133.517 Y145.061 E.01924
G1 X133.991 Y144.649 E.02236
G1 X134.536 Y144.227 E.02453
G1 X135.112 Y143.845 E.02464
G1 X135.673 Y143.552 E.02254
G1 X136.17 Y143.382 E.01871
G1 X136.588 Y143.339 E.01496
G1 X137.097 Y143.414 E.01832
G1 X137.435 Y143.39 E.01209
G1 X137.797 Y143.235 E.01402
G1 X138.079 Y142.963 E.01395
G1 X138.279 Y142.567 E.01578
G1 X138.347 Y142.174 E.0142
G1 X138.284 Y141.823 E.01272
G1 X138.13 Y141.534 E.01166
G1 X137.874 Y141.288 E.01264
G1 X137.213 Y140.832 E.0286
G1 X136.799 Y140.507 E.01873
G1 X136.566 Y140.217 E.01326
G1 X136.336 Y139.768 E.01796
G1 X136.121 Y139.148 E.02339
G1 X135.941 Y138.435 E.02617
G1 X135.805 Y137.726 E.02573
G1 X135.715 Y137.085 E.02306
G1 X135.67 Y136.52 E.02019
G1 X135.668 Y135.984 E.0191
G1 X135.722 Y135.253 E.0261
G1 X135.861 Y134.013 E.04442
G1 X135.975 Y132.536 E.05276
G1 X135.937 Y132.155 E.01364
G1 X135.711 Y131.683 E.01863
G1 X135.828 Y131.571 E.00576
G1 X135.895 Y131.34 E.00856
G1 X135.9 Y130.996 E.01224
G1 X135.783 Y130.193 E.02891
G1 X135.593 Y129.229 E.035
G1 X135.357 Y128.205 E.03742
G1 X135.041 Y127.094 E.04113
G1 X134.633 Y125.965 E.04277
G1 X134.149 Y124.867 E.04273
G1 X133.795 Y124.155 E.02834
G1 X134.382 Y124.729 E.02927
G1 X135.258 Y125.511 E.04181
G1 X136.206 Y126.248 E.04277
G1 X137.164 Y126.892 E.04113
G1 X138.081 Y127.443 E.03809
G1 X138.973 Y127.938 E.03632
G1 X139.651 Y128.271 E.02692
G1 X139.898 Y128.358 E.00934
G1 X140.22 Y128.38 E.01147
G1 X140.363 Y128.304 E.00576
G1 X140.742 Y128.664 E.01863
G1 X141.093 Y128.818 E.01364
G1 X142.532 Y129.167 E.05276
G1 X144.056 Y129.479 E.05539
G1 X144.732 Y129.679 E.02512
G1 X145.211 Y129.857 E.0182
G1 X145.679 Y130.064 E.01823
G1 X146.208 Y130.33 E.02107
G1 X146.827 Y130.681 E.02535
G1 X147.456 Y131.091 E.02674
G1 X147.98 Y131.518 E.0241
G1 X148.316 Y131.908 E.01829
G1 X148.53 Y132.351 E.01754
G1 X148.852 Y133.398 E.039
G1 X149.051 Y133.734 E.01392
G1 X149.374 Y133.988 E.01463
G1 X149.714 Y134.098 E.01273
G1 X150.195 Y134.08 E.01715
G1 X150.559 Y133.954 E.01369
G1 X150.845 Y133.724 E.01308
G1 X151.022 Y133.45 E.0116
G1 X151.229 Y132.561 E.03254
G1 X151.428 Y132.212 E.01429
G1 X151.765 Y131.812 E.01865
G1 X152.229 Y131.387 E.02241
G1 X152.778 Y130.969 E.02457
G1 X153.225 Y130.674 E.01907
G1 X153.763 Y130.351 E.02235
G1 X154.25 Y130.093 E.01962
G1 X154.737 Y129.872 E.01905
G1 X155.25 Y129.682 E.01947
G1 X155.772 Y129.53 E.01937
G1 X157.486 Y129.162 E.06243
G1 X158.907 Y128.818 E.0521
G1 X159.259 Y128.664 E.01367
G1 X159.639 Y128.302 E.01869
G1 X159.783 Y128.379 E.0058
G1 X160.022 Y128.371 E.00853
G1 X160.35 Y128.27 E.01221
G1 X161.081 Y127.909 E.02903
G1 X161.946 Y127.427 E.03527
G1 X162.847 Y126.884 E.03748
G1 X163.802 Y126.242 E.04099
G1 X164.745 Y125.51 E.04254
G1 X165.639 Y124.713 E.04265
G1 X166.203 Y124.158 E.02817
G1 X165.838 Y124.891 E.02915
G1 X165.368 Y125.962 E.04167
G1 X164.962 Y127.085 E.04254
G1 X164.647 Y128.192 E.04099
G1 X164.405 Y129.236 E.03817
G1 X164.209 Y130.244 E.03657
G1 X164.101 Y130.995 E.02704
G1 X164.095 Y131.256 E.0093
G1 X164.173 Y131.568 E.01144
G1 X164.29 Y131.681 E.0058
G1 X164.063 Y132.154 E.01868
G1 X164.026 Y132.545 E.01397
G1 X164.128 Y133.916 E.04898
G1 X164.292 Y135.355 E.05158
G1 X164.333 Y136.131 E.02768
G1 X164.325 Y136.639 E.01811
G1 X164.281 Y137.147 E.01815
G1 X164.204 Y137.655 E.01829
G1 X164.09 Y138.214 E.02032
G1 X163.932 Y138.822 E.02237
G1 X163.728 Y139.45 E.02353
G1 X163.484 Y140.041 E.02277
G1 X163.13 Y140.655 E.02525
G1 X162.789 Y141.038 E.01824
G1 X162.536 Y141.195 E.01061
G1 X162.263 Y141.437 E.013
G1 X162.075 Y141.783 E.01402
G1 X162.022 Y142.171 E.01395
G1 X162.135 Y142.642 E.01724
G1 X162.331 Y142.974 E.01373
G1 X162.594 Y143.195 E.01224
G1 X162.913 Y143.324 E.01224
G1 X163.729 Y143.359 E.0291
G1 X164.322 Y143.54 E.02209
G1 X164.825 Y143.801 E.02019
G1 X165.36 Y144.147 E.02269
G1 X165.89 Y144.547 E.02364
G1 X166.384 Y144.966 E.02308
G1 X166.821 Y145.38 E.02143
G1 X167.196 Y145.78 E.01955
G1 X167.523 Y146.184 E.0185
G1 X167.931 Y146.79 E.02603
G1 X168.803 Y148.302 E.06216
G1 X169.531 Y149.481 E.04936
G1 X169.786 Y149.766 E.01359
G1 X170.247 Y150.016 E.01868
G1 X170.219 Y150.176 E.0058
G1 X170.3 Y150.401 E.00853
G1 X170.497 Y150.682 E.01221
G1 X171.066 Y151.265 E.02903
G1 X171.792 Y151.939 E.03527
G1 X172.587 Y152.628 E.03748
G1 X173.492 Y153.339 E.04099
G1 X174.481 Y154.009 E.04253
G1 X175.515 Y154.613 E.04265
G1 X176.217 Y154.978 E.02817
G1 X175.407 Y154.857 E.02915
G1 X174.243 Y154.741 E.04167
G1 X173.049 Y154.702 E.04253
G1 X171.899 Y154.744 E.04099
G1 X170.832 Y154.837 E.03817
G1 X169.813 Y154.962 E.03656
G1 X169.065 Y155.091 E.02704
G1 X168.814 Y155.166 E.00931
G1 X168.542 Y155.336 E.01144
G1 X168.488 Y155.447 E.00438
G1 E-.56 F1800
;WIPE_START
G1 F3000
G1 X167.951 Y155.414 E-.12927
G1 X167.578 Y155.495 E-.09161
G1 X167.504 Y155.525 E-.01912
;WIPE_END
G1 Z.6 F21000
G1 X176.367 Y157.485 Z.6
G1 Z.2
G1 E.8 F1800
;TYPE:Outer wall
;WIDTH:0.409495
G1 F3000
G1 X175.781 Y157.53 E.01756
;WIDTH:0.43607
G1 X175.194 Y157.575 E.01884
;WIDTH:0.466201
G1 X174.831 Y157.577 E.01254
;WIDTH:0.496332
G1 X174.467 Y157.579 E.01343
;WIDTH:0.517844
G1 X173.882 Y157.521 E.02276
;WIDTH:0.524702
G1 X173.395 Y157.406 E.01964
G1 X172.454 Y157.121 E.03862
G1 X171.797 Y156.978 E.02637
;WIDTH:0.489166
G1 X171.011 Y156.851 E.02895
;WIDTH:0.455579
G1 X170.225 Y156.724 E.02677
;WIDTH:0.456616
G1 X169.201 Y156.518 E.03523
G1 E-.56 F1800
;WIPE_START
G1 F3000
G1 X170.181 Y156.715 E-.24
;WIPE_END
G1 Z.6 F21000
G1 X177.531 Y152.789 Z.6
G1 Z.2
G1 E.8 F1800
;WIDTH:0.409463
G1 F3000
G1 X177.225 Y152.533 E.01194
;WIDTH:0.436006
G1 X176.918 Y152.276 E.01281
;WIDTH:0.466164
G1 X176.624 Y152.06 E.01257
;WIDTH:0.496322
G1 X176.33 Y151.845 E.01346
;WIDTH:0.517836
G1 X175.823 Y151.548 E.02276
;WIDTH:0.524708
G1 X175.362 Y151.354 E.01964
G1 X174.432 Y151.032 E.03862
G1 X173.817 Y150.761 E.02637
;WIDTH:0.489158
G1 X173.11 Y150.404 E.02882
;WIDTH:0.455606
G1 X172.402 Y150.046 E.02665
;WIDTH:0.422782
G1 X171.849 Y149.782 E.01899
;WIDTH:0.459632
G1 X171.419 Y149.596 E.0159
G1 E-.56 F1800
;WIPE_START
G1 F3000
G1 X171.849 Y149.782 E-.11238
G1 X172.329 Y150.011 E-.12762
;WIPE_END
G1 Z.6 F21000
G1 X168.681 Y155.966 Z.6
G1 Z.2
G1 E.8 F1800
;TYPE:Inner wall
;WIDTH:0.479999
G1 F3000
G1 X168.016 Y155.851 E.02403
G1 X167.743 Y155.899 E.00987
G1 X166.469 Y156.421 E.04906
G1 X165.23 Y156.986 E.04848
G1 X164.673 Y157.216 E.02146
G1 X164.143 Y157.4 E.01998
G1 X163.611 Y157.542 E.01962
G1 X163.044 Y157.652 E.02058
G1 X162.422 Y157.733 E.02233
G1 X161.752 Y157.783 E.02395
G1 X161.06 Y157.796 E.02464
G1 X160.387 Y157.76 E.02401
G1 X159.776 Y157.667 E.02201
G1 X159.264 Y157.516 E.01903
G1 X158.865 Y157.314 E.01591
G1 X158.471 Y157.005 E.01784
G1 X158.176 Y156.936 E.01078
G1 X157.915 Y156.99 E.0095
G1 X157.592 Y157.217 E.01408
G1 X157.437 Y157.473 E.01063
G1 X157.412 Y157.774 E.01078
G1 X157.584 Y158.245 E.01784
G1 X157.653 Y158.686 E.01591
G1 X157.638 Y159.22 E.01903
G1 X157.538 Y159.83 E.02201
G1 X157.364 Y160.481 E.02401
G1 X157.195 Y160.969 E.0184
G1 X156.957 Y161.577 E.02326
G1 X156.712 Y162.118 E.02114
G1 X156.462 Y162.598 E.01926
G1 X156.18 Y163.067 E.0195
G1 X155.873 Y163.504 E.019
G1 X155.559 Y163.899 E.01798
G1 X154.385 Y165.2 E.06242
G1 X153.451 Y166.303 E.05148
G1 X153.345 Y166.589 E.01085
G1 X153.269 Y167.163 E.02066
G1 X152.942 Y167.21 E.01177
G1 X152.865 Y167.265 E.00338
G1 X152.705 Y167.462 E.00905
G1 X152.335 Y168.164 E.02823
G1 X151.925 Y169.048 E.03474
G1 X151.519 Y170.007 E.03709
G1 X151.133 Y171.064 E.04006
G1 X150.809 Y172.182 E.04148
G1 X150.559 Y173.327 E.04174
G1 X150.185 Y175.576 E.08121
G1 X150 Y176.83 E.04513
G1 X149.815 Y175.576 E.04513
G1 X149.441 Y173.327 E.08121
G1 X149.191 Y172.182 E.04174
G1 X148.867 Y171.064 E.04148
G1 X148.481 Y170.007 E.04006
G1 X148.07 Y169.038 E.0375
G1 X147.65 Y168.134 E.03552
G1 X147.251 Y167.39 E.03006
G1 X147.058 Y167.21 E.00939
G1 X146.731 Y167.163 E.01177
G1 X146.636 Y166.496 E.02403
G1 X146.505 Y166.251 E.00987
G1 X145.615 Y165.2 E.04906
G1 X144.695 Y164.197 E.04848
G1 X144.304 Y163.738 E.02146
G1 X143.965 Y163.291 E.01998
G1 X143.665 Y162.829 E.01962
G1 X143.386 Y162.323 E.02058
G1 X143.117 Y161.757 E.02233
G1 X142.862 Y161.135 E.02395
G1 X142.636 Y160.481 E.02464
G1 X142.462 Y159.83 E.02401
G1 X142.362 Y159.22 E.02201
G1 X142.347 Y158.686 E.01903
G1 X142.416 Y158.245 E.01591
G1 X142.575 Y157.837 E.0156
G1 X142.578 Y157.527 E.01103
G1 X142.454 Y157.269 E.01022
G1 X142.118 Y157.005 E.01521
G1 X141.822 Y156.936 E.01082
G1 X141.529 Y157.005 E.01072
G1 X141.135 Y157.314 E.01784
G1 X140.736 Y157.516 E.01591
G1 X140.224 Y157.667 E.01903
G1 X139.613 Y157.76 E.02201
G1 X138.94 Y157.796 E.02401
G1 X138.424 Y157.786 E.0184
G1 X137.771 Y157.747 E.02326
G1 X137.181 Y157.681 E.02116
G1 X136.648 Y157.592 E.01923
G1 X136.115 Y157.469 E.01951
G1 X135.605 Y157.312 E.019
G1 X135.132 Y157.135 E.01798
G1 X133.531 Y156.421 E.06242
G1 X132.194 Y155.873 E.05148
G1 X131.89 Y155.861 E.01085
G1 X131.319 Y155.966 E.02066
G1 X131.174 Y155.669 E.01177
G1 X131.098 Y155.613 E.00338
G1 X130.861 Y155.522 E.00905
G1 X130.08 Y155.387 E.02823
G1 X129.111 Y155.271 E.03474
G1 X128.074 Y155.181 E.03709
G1 X126.95 Y155.14 E.04006
G1 X125.786 Y155.177 E.04148
G1 X124.62 Y155.293 E.04174
G1 X122.365 Y155.633 E.08121
G1 X121.116 Y155.844 E.04512
G1 X122.25 Y155.281 E.04513
G1 X124.274 Y154.23 E.08121
G1 X125.286 Y153.639 E.04174
G1 X126.25 Y152.985 E.04148
G1 X127.135 Y152.291 E.04006
G1 X127.93 Y151.601 E.0375
G1 X128.66 Y150.922 E.03552
G1 X129.244 Y150.312 E.03006
G1 X129.356 Y150.074 E.00939
G1 X129.299 Y149.749 E.01177
G1 X129.905 Y149.451 E.02403
G1 X130.098 Y149.25 E.00992
G1 X130.86 Y148.011 E.05182
G1 X131.564 Y146.772 E.05075
G1 X131.897 Y146.246 E.02217
G1 X132.242 Y145.773 E.02086
G1 X132.625 Y145.325 E.02098
G1 X133.069 Y144.876 E.0225
G1 X133.581 Y144.417 E.0245
G1 X134.148 Y143.964 E.02585
G1 X134.744 Y143.551 E.02581
G1 X135.333 Y143.218 E.02412
G1 X135.881 Y142.995 E.02107
G1 X136.363 Y142.895 E.01753
G1 X136.6 Y142.902 E.00846
G1 X137.135 Y142.978 E.01921
G1 X137.436 Y142.933 E.01085
G1 X137.671 Y142.772 E.01015
G1 X137.859 Y142.44 E.01361
G1 X137.907 Y142.132 E.01109
G1 X137.817 Y141.851 E.01052
G1 X137.626 Y141.648 E.00994
G1 X136.941 Y141.175 E.02965
G1 X136.487 Y140.817 E.02057
G1 X136.197 Y140.456 E.0165
G1 X135.933 Y139.94 E.02064
G1 X135.702 Y139.273 E.02515
G1 X135.514 Y138.53 E.02729
G1 X135.403 Y137.951 E.02101
G1 X135.31 Y137.345 E.02184
G1 X135.254 Y136.809 E.01918
G1 X135.232 Y136.222 E.02091
G1 X135.247 Y135.719 E.01792
G1 X135.426 Y133.972 E.06255
G1 X135.544 Y132.435 E.05492
G1 X135.462 Y132.141 E.01088
G1 X135.187 Y131.632 E.02058
G1 X135.424 Y131.403 E.01174
G1 X135.454 Y131.313 E.00339
G1 X135.468 Y131.059 E.00907
G1 X135.354 Y130.277 E.02811
G1 X135.167 Y129.327 E.03449
G1 X134.933 Y128.314 E.03703
G1 X134.625 Y127.229 E.0402
G1 X134.227 Y126.128 E.0417
G1 X133.754 Y125.052 E.04184
G1 X132.741 Y123.02 E.08088
G1 X132.163 Y121.908 E.04463
G1 X133.041 Y122.802 E.04463
G1 X134.661 Y124.393 E.08088
G1 X135.538 Y125.175 E.04184
G1 X136.462 Y125.894 E.0417
G1 X137.399 Y126.523 E.0402
G1 X138.3 Y127.064 E.03743
G1 X139.166 Y127.545 E.03529
G1 X139.923 Y127.912 E.02996
G1 X140.185 Y127.944 E.00942
G1 X140.476 Y127.789 E.01174
