; HEADER_BLOCK_START
; generated by OrcaSlicer 2.3.1 on 2026-03-18 at 16:22:46
; total layer number: 255
; filament_density: 1.24,1.24
; filament_diameter: 1.75,1.75
; max_z_height: 51.00
; HEADER_BLOCK_END

; THUMBNAIL_BLOCK_START

;
; THUMBNAIL_BLOCK_END

; THUMBNAIL_BLOCK_START

;
; THUMBNAIL_BLOCK_END

; external perimeters extrusion width = 0.40mm
; perimeters extrusion width = 0.44mm
; infill extrusion width = 0.44mm
; solid infill extrusion width = 0.48mm
; top infill extrusion width = 0.38mm
; first layer extrusion width = 0.48mm

; EXECUTABLE_BLOCK_START
EXCLUDE_OBJECT_DEFINE NAME=tower_with_seam.stl_id_0_copy_0 CENTER=150,150 POLYGON=[[115,150],[150,115],[185,150],[185,184.75],[179.75,184.788],[150,185],[115,184.75],[115,150]]
M73 P0 R33
;TYPE:Custom
M190 S0
M109 S0
G28 X

M605 S1

START_PRINT EXTRUDER=0 EXTRUDERS=2 EXTRUDER_TEMP=220 EXTRUDER1_TEMP=220 BED_TEMP=55
G90
G21
M83 ; use relative distances for extrusion
; Filament gcode

T0
M106 S0
;LAYER_CHANGE
;Z:0.2
;HEIGHT:0.2
;BEFORE_LAYER_CHANGE
;0.2



G1 E-.8 F1800
;AFTER_LAYER_CHANGE
;0.2
ACTIVATE_EXTRUDER EXTRUDER=extruder
SYNC_EXTRUDER_MOTION EXTRUDER=extruder1 MOTION_QUEUE=extruder

;_SET_FAN_SPEED_CHANGING_LAYER
SET_PRESSURE_ADVANCE ADVANCE=0; Override pressure advance value
SET_VELOCITY_LIMIT ACCEL=300 ACCEL_TO_DECEL=90
; printing object tower_with_seam.stl id:0 copy 0
EXCLUDE_OBJECT_START NAME=tower_with_seam.stl_id_0_copy_0
G1 Z.6 F6000
G1 X185.219 Y180.191
G1 Z.6
G1 Z.2
G1 E.8 F1800
;TYPE:Brim
;WIDTH:0.48
G1 F3000
G1 X186.187 Y180.319 E.0348
G1 X187.294 Y180.777 E.04265
G1 X188.244 Y181.506 E.04265
G1 X188.973 Y182.456 E.04265
G1 X189.431 Y183.563 E.04265
G1 X189.587 Y184.75 E.04265
G1 X189.431 Y185.937 E.04265
G1 X188.973 Y187.044 E.04265
G1 X188.244 Y187.994 E.04265
G1 X187.294 Y188.723 E.04265
G1 X186.187 Y189.181 E.04265
G1 X185 Y189.337 E.04265
G1 X183.813 Y189.181 E.04265
G1 X182.706 Y188.723 E.04265
G1 X181.756 Y187.994 E.04265
G1 X181.027 Y187.044 E.04265
G1 X180.569 Y185.937 E.04265
G1 X180.446 Y185.001 E.03363
G1 X185.002 Y184.969 E.16227
G1 X185.139 Y184.919 E.00519
G1 X185.219 Y184.75 E.00666
G1 X185.219 Y180.231 E.16094
G1 X185.703 Y180.738 F6000
G1 F3000
G1 X185.804 Y180.709 E.00373
G1 X186.056 Y180.742 E.00906
G1 X187.087 Y181.169 E.03974
G1 X187.918 Y181.807 E.03732
G1 X188.581 Y182.663 E.03853
G1 X189.008 Y183.694 E.03974
G1 X189.144 Y184.733 E.03732
G1 X189.008 Y185.806 E.03853
G1 X188.581 Y186.837 E.03974
G1 X187.943 Y187.668 E.03732
G1 X187.087 Y188.331 E.03853
G1 X186.056 Y188.758 E.03974
G1 X185.017 Y188.894 E.03732
G1 X183.944 Y188.758 E.03853
G1 X182.913 Y188.331 E.03974
G1 X182.057 Y187.668 E.03853
G1 X181.402 Y186.807 E.03853
G1 X181.001 Y185.839 E.03732
G1 X180.963 Y185.582 E.00927
G1 X180.997 Y185.475 E.00398
G1 X181.092 Y185.434 E.0037
G1 X184.994 Y185.406 E.13896
G1 X185.274 Y185.335 E.01031
G1 X185.442 Y185.23 E.00703
G1 X185.539 Y185.095 E.00593
G1 X185.607 Y184.95 E.00572
G1 X185.656 Y184.735 E.00784
G1 X185.656 Y180.839 E.13877
G1 X185.686 Y180.774 E.00256
G1 X186.14 Y181.326 F6000
G1 F3000
G1 X186.274 Y181.306 E.00481
G1 X186.851 Y181.545 E.02223
G1 X187.594 Y182.109 E.03325
G1 X188.188 Y182.87 E.0344
G1 X188.584 Y183.825 E.03681
G1 X188.701 Y184.751 E.03323
G1 X188.584 Y185.675 E.0332
G1 X188.188 Y186.63 E.03681
G1 X187.617 Y187.368 E.03323
G1 X186.88 Y187.938 E.0332
G1 X185.925 Y188.334 E.03681
G1 X184.999 Y188.451 E.03323
G1 X184.075 Y188.334 E.0332
G1 X183.12 Y187.938 E.03678
G1 X182.36 Y187.344 E.03437
G1 X181.778 Y186.572 E.03444
G1 X181.561 Y186.048 E.02021
G1 X181.566 Y185.936 E.00398
G1 X181.681 Y185.866 E.00479
G1 X184.983 Y185.843 E.11762
G1 X185.374 Y185.76 E.01422
G1 X185.514 Y185.7 E.00542
G1 X185.662 Y185.608 E.00621
G1 X185.803 Y185.476 E.00686
G1 X185.936 Y185.276 E.00858
G1 X186.036 Y185.035 E.0093
G1 X186.093 Y184.728 E.0111
G1 X186.093 Y181.427 E.11758
G1 X186.123 Y181.362 E.00256
G1 X186.578 Y182.013 F6000
G1 F3000
G1 X186.686 Y181.985 E.00398
G1 X186.74 Y182.01 E.00211
G1 X187.295 Y182.436 E.02493
G1 X187.796 Y183.079 E.02902
G1 X188.16 Y183.956 E.03382
G1 X188.259 Y184.734 E.02794
G1 X188.16 Y185.545 E.02909
G1 X187.796 Y186.423 E.03384
G1 X187.316 Y187.043 E.02794
G1 X186.672 Y187.546 E.0291
G1 X185.794 Y187.91 E.03384
G1 X185.016 Y188.009 E.02794
G1 X184.205 Y187.91 E.02909
M73 P0 R32
G1 X183.329 Y187.546 E.0338
G1 X182.664 Y187.021 E.03016
G1 X182.277 Y186.509 E.02287
G1 X182.255 Y186.399 E.00398
G1 X182.324 Y186.312 E.00398
G1 X182.381 Y186.299 E.00206
G1 X185.087 Y186.268 E.09639
G1 X185.455 Y186.19 E.0134
G1 X185.68 Y186.104 E.00856
G1 X185.885 Y185.984 E.0085
G1 X186.097 Y185.799 E.01001
G1 X186.343 Y185.436 E.01562
G1 X186.468 Y185.102 E.01269
G1 X186.52 Y184.819 E.01027
G1 X186.53 Y182.114 E.09635
G1 X186.561 Y182.049 E.00256
G1 E-.56 F1800
;WIPE_START
G1 F3000
G1 X186.686 Y181.985 E-.03375
G1 X186.74 Y182.01 E-.01424
G1 X187.295 Y182.436 E-.16796
G1 X187.357 Y182.515 E-.02405
;WIPE_END
G1 Z.6 F6000
G1 X187.011 Y183.002 Z.6
G1 Z.2
G1 E.8 F1800
G1 F3000
G1 X187.12 Y182.974 E.00398
G1 X187.198 Y183.022 E.00327
G1 X187.422 Y183.317 E.01319
G1 X187.727 Y184.053 E.02835
G1 X187.816 Y184.751 E.02508
G1 X187.726 Y185.449 E.02507
G1 X187.421 Y186.185 E.02837
G1 X187.013 Y186.719 E.02394
G1 X186.433 Y187.172 E.02621
G1 X185.697 Y187.477 E.02837
G1 X185.031 Y187.566 E.02394
G1 X184.301 Y187.476 E.02621
G1 X183.569 Y187.173 E.02823
G1 X183.289 Y186.958 E.01254
G1 X183.24 Y186.858 E.00398
G1 X183.285 Y186.756 E.00398
G1 X183.368 Y186.724 E.00318
G1 X185.19 Y186.693 E.06489
G1 X185.537 Y186.619 E.01264
G1 X185.827 Y186.516 E.01095
G1 X186.099 Y186.365 E.01109
G1 X186.379 Y186.133 E.01296
G1 X186.464 Y186.037 E.00457
G1 X186.701 Y185.687 E.01504
G1 X186.754 Y185.584 E.00413
G1 X186.9 Y185.173 E.01553
G1 X186.958 Y184.81 E.01307
G1 X186.963 Y183.103 E.06081
G1 X186.994 Y183.038 E.00256
G1 E-.56 F1800
;WIPE_START
G1 F3000
G1 X187.12 Y182.974 E-.03375
G1 X187.198 Y183.022 E-.022
G1 X187.422 Y183.317 E-.0889
G1 X187.574 Y183.684 E-.09534
;WIPE_END
G1 Z.6 F6000
G1 X185.219 Y154.559 Z.6
G1 Z.2
G1 E.8 F1800
G1 F3000
G1 X185.219 Y150 E.16236
G1 X185.155 Y149.845 E.00596
G1 X181.931 Y146.622 E.16236
G1 X182.706 Y146.027 E.0348
G1 X183.813 Y145.569 E.04265
G1 X185 Y145.413 E.04265
G1 X186.187 Y145.569 E.04265
G1 X187.294 Y146.027 E.04265
G1 X188.244 Y146.756 E.04265
G1 X188.973 Y147.706 E.04265
G1 X189.431 Y148.813 E.04265
G1 X189.587 Y150 E.04265
M73 P1 R32
G1 X189.431 Y151.187 E.04265
G1 X188.973 Y152.294 E.04265
G1 X188.244 Y153.244 E.04265
G1 X187.294 Y153.973 E.04265
G1 X186.187 Y154.431 E.04265
G1 X185.258 Y154.553 E.03338
G1 X185.697 Y154.007 F6000
G1 F3000
G1 X185.656 Y153.911 E.00373
G1 X185.656 Y150.013 E.13883
G1 X185.617 Y149.821 E.00698
G1 X185.563 Y149.69 E.00504
G1 X185.454 Y149.527 E.00698
G1 X182.698 Y146.771 E.13883
G1 X182.66 Y146.666 E.00398
G1 X182.711 Y146.574 E.00373
G1 X182.943 Y146.402 E.01027
G1 X183.944 Y145.992 E.03853
G1 X184.983 Y145.856 E.03732
G1 X186.056 Y145.992 E.03853
G1 X187.057 Y146.402 E.03853
G1 X187.943 Y147.082 E.03974
G1 X188.598 Y147.943 E.03853
G1 X188.999 Y148.911 E.03732
G1 X189.144 Y150.017 E.03974
G1 X188.999 Y151.089 E.03853
G1 X188.581 Y152.087 E.03853
G1 X187.943 Y152.918 E.03732
G1 X187.057 Y153.598 E.03974
G1 X186.089 Y153.999 E.03732
G1 X185.804 Y154.041 E.01027
G1 X185.736 Y154.019 E.00256
G1 X186.162 Y153.444 F6000
G1 F3000
G1 X186.093 Y153.328 E.00481
G1 X186.093 Y150.026 E.11761
G1 X186.017 Y149.644 E.01385
G1 X185.922 Y149.441 E.00799
G1 X185.756 Y149.211 E.01011
G1 X183.421 Y146.875 E.11763
G1 X183.383 Y146.77 E.00398
G1 X183.464 Y146.661 E.00483
G1 X184.074 Y146.416 E.02342
G1 X185.001 Y146.299 E.03327
G1 X185.927 Y146.417 E.03325
G1 X186.852 Y146.795 E.0356
G1 X187.641 Y147.407 E.03556
G1 X188.205 Y148.149 E.0332
G1 X188.566 Y149.009 E.03323
G1 X188.701 Y149.999 E.03558
G1 X188.576 Y150.956 E.03439
G1 X188.189 Y151.879 E.03565
G1 X187.617 Y152.617 E.03325
G1 X186.851 Y153.205 E.03441
G1 X186.274 Y153.449 E.0223
G1 X186.202 Y153.446 E.00256
G1 X186.632 Y152.763 F6000
G1 F3000
G1 X186.544 Y152.693 E.00398
G1 X186.53 Y152.635 E.00215
G1 X186.53 Y150.037 E.09251
G1 X186.447 Y149.566 E.01706
G1 X186.41 Y149.455 E.00415
G1 X186.271 Y149.178 E.01102
G1 X186.059 Y148.895 E.01261
G1 X184.215 Y147.052 E.09284
G1 X184.178 Y146.947 E.00398
G1 X184.235 Y146.851 E.00398
G1 X184.292 Y146.829 E.00217
G1 X185.017 Y146.741 E.02603
G1 X185.83 Y146.849 E.02922
G1 X186.645 Y147.188 E.03143
G1 X187.338 Y147.731 E.03135
G1 X187.83 Y148.384 E.02914
G1 X188.134 Y149.109 E.02799
G1 X188.258 Y149.983 E.03142
G1 X188.143 Y150.858 E.03143
G1 X187.798 Y151.671 E.03147
G1 X187.317 Y152.291 E.02796
G1 X186.741 Y152.739 E.02597
G1 X186.671 Y152.754 E.00256
G1 E-.56 F1800
;WIPE_START
G1 F3000
G1 X186.544 Y152.693 E-.03375
G1 X186.53 Y152.635 E-.01449
G1 X186.53 Y151.836 E-.19176
;WIPE_END
G1 Z.6 F6000
G1 X187.095 Y151.774 Z.6
G1 Z.2
G1 E.8 F1800
G1 F3000
G1 X187 Y151.733 E.00372
G1 X186.967 Y151.646 E.0033
G1 X186.967 Y150.048 E.05692
G1 X186.878 Y149.496 E.01991
G1 X186.828 Y149.325 E.00633
G1 X186.666 Y148.99 E.01327
G1 X186.413 Y148.639 E.01541
G1 X185.229 Y147.447 E.05982
G1 X185.192 Y147.342 E.00398
G1 X185.249 Y147.246 E.00398
G1 X185.339 Y147.225 E.00331
G1 X185.698 Y147.273 E.0129
G1 X186.406 Y147.562 E.02722
G1 X187.01 Y148.029 E.02719
G1 X187.438 Y148.591 E.02517
G1 X187.703 Y149.211 E.024
G1 X187.814 Y149.967 E.02724
G1 X187.72 Y150.724 E.02716
G1 X187.424 Y151.432 E.02734
G1 X187.202 Y151.726 E.01313
G1 X187.131 Y151.762 E.00281
G1 E-.56 F1800
;WIPE_START
G1 F3000
G1 X187 Y151.733 E-.03239
G1 X186.967 Y151.646 E-.02222
G1 X186.967 Y150.874 E-.18539
;WIPE_END
G1 Z.6 F6000
G1 X153.378 Y118.069 Z.6
G1 Z.2
G1 E.8 F1800
G1 F3000
G1 X150.155 Y114.845 E.16236
G1 X150.023 Y114.783 E.00519
G1 X149.845 Y114.845 E.00671
G1 X146.622 Y118.069 E.16236
G1 X146.027 Y117.294 E.0348
G1 X145.569 Y116.187 E.04265
G1 X145.413 Y115 E.04265
G1 X145.569 Y113.813 E.04265
G1 X146.027 Y112.706 E.04265
G1 X146.756 Y111.756 E.04265
G1 X147.706 Y111.027 E.04265
G1 X148.813 Y110.569 E.04265
G1 X150 Y110.413 E.04265
G1 X151.187 Y110.569 E.04265
G1 X152.294 Y111.027 E.04265
G1 X153.244 Y111.756 E.04265
G1 X153.973 Y112.706 E.04265
G1 X154.431 Y113.813 E.04265
G1 X154.587 Y115 E.04265
G1 X154.431 Y116.187 E.04265
G1 X153.973 Y117.294 E.04265
G1 X153.402 Y118.037 E.03338
G1 X153.326 Y117.34 F6000
G1 F3000
G1 X153.229 Y117.302 E.00373
G1 X150.471 Y114.544 E.13889
G1 X150.224 Y114.394 E.01031
G1 X150.032 Y114.348 E.00702
G1 X149.866 Y114.375 E.00599
G1 X149.714 Y114.429 E.00576
G1 X149.526 Y114.547 E.0079
G1 X146.771 Y117.302 E.13877
G1 X146.666 Y117.34 E.00398
G1 X146.574 Y117.289 E.00373
G1 X146.402 Y117.057 E.01027
G1 X146.001 Y116.089 E.03732
G1 X145.856 Y115.017 E.03853
G1 X145.992 Y113.944 E.03853
G1 X146.419 Y112.913 E.03974
G1 X147.082 Y112.057 E.03853
G1 X147.943 Y111.402 E.03853
G1 X148.911 Y111.001 E.03732
G1 X149.983 Y110.856 E.03853
G1 X151.056 Y110.992 E.03853
G1 X152.057 Y111.402 E.03853
G1 X152.918 Y112.057 E.03853
G1 X153.581 Y112.913 E.03853
G1 X153.999 Y113.911 E.03853
G1 X154.144 Y115.017 E.03974
G1 X153.999 Y116.089 E.03853
G1 X153.581 Y117.087 E.03853
G1 X153.426 Y117.289 E.00906
G1 X153.362 Y117.322 E.00256
G1 X153.254 Y116.611 F6000
G1 F3000
G1 X153.124 Y116.578 E.0048
G1 X150.79 Y114.245 E.11755
G1 X150.457 Y114.025 E.01422
G1 X150.316 Y113.967 E.00542
G1 X150.147 Y113.926 E.0062
G1 X149.951 Y113.919 E.00698
G1 X149.807 Y113.941 E.00519
G1 X149.577 Y114.014 E.00858
G1 X149.297 Y114.175 E.01151
G1 X146.874 Y116.581 E.12161
G1 X146.769 Y116.618 E.00398
G1 X146.66 Y116.538 E.00481
G1 X146.424 Y115.957 E.02232
G1 X146.299 Y115.032 E.03325
G1 X146.416 Y114.075 E.03437
G1 X146.794 Y113.15 E.03556
G1 X147.381 Y112.384 E.03439
G1 X148.149 Y111.795 E.03446
G1 X149.01 Y111.433 E.03327
G1 X149.968 Y111.299 E.03444
G1 X150.927 Y111.417 E.03441
G1 X151.823 Y111.778 E.03441
G1 X152.594 Y112.36 E.03441
G1 X153.206 Y113.151 E.03562
G1 X153.575 Y114.043 E.03439
G1 X153.701 Y114.999 E.03433
G1 X153.576 Y115.956 E.03439
G1 X153.337 Y116.536 E.02234
G1 X153.284 Y116.584 E.00256
G1 X153.107 Y115.8 F6000
M73 P2 R32
G1 F3000
G1 X152.996 Y115.813 E.00398
G1 X152.945 Y115.782 E.00213
G1 X151.02 Y113.873 E.09657
G1 X150.706 Y113.665 E.0134
G1 X150.487 Y113.565 E.00856
G1 X150.257 Y113.504 E.00849
G1 X149.976 Y113.483 E.01005
G1 X149.744 Y113.509 E.0083
G1 X149.457 Y113.593 E.01067
G1 X149.085 Y113.793 E.01504
G1 X148.983 Y113.871 E.00456
G1 X147.054 Y115.786 E.0968
G1 X146.949 Y115.823 E.00398
G1 X146.853 Y115.766 E.00398
G1 X146.832 Y115.71 E.00212
G1 X146.742 Y115.013 E.02505
G1 X146.85 Y114.17 E.03028
G1 X147.187 Y113.356 E.03137
G1 X147.707 Y112.685 E.03023
G1 X148.386 Y112.169 E.03036
G1 X149.144 Y111.856 E.02922
G1 X149.954 Y111.742 E.02915
G1 X150.799 Y111.841 E.0303
G1 X151.619 Y112.173 E.0315
G1 X152.295 Y112.688 E.03027
G1 X152.814 Y113.358 E.0302
G1 X153.143 Y114.141 E.03025
G1 X153.258 Y114.982 E.03022
G1 X153.168 Y115.706 E.02598
G1 X153.129 Y115.766 E.00256
G1 E-.56 F1800
;WIPE_START
G1 F3000
G1 X152.996 Y115.813 E-.03375
G1 X152.945 Y115.782 E-.01438
G1 X152.378 Y115.219 E-.19187
;WIPE_END
G1 Z.6 F6000
G1 X152.726 Y114.777 Z.6
G1 Z.2
G1 E.8 F1800
G1 F3000
G1 X152.636 Y114.813 E.00346
G1 X152.552 Y114.776 E.0033
G1 X151.25 Y113.501 E.0649
G1 X150.954 Y113.305 E.01264
G1 X150.677 Y113.172 E.01095
G1 X150.379 Y113.084 E.01108
G1 X150.017 Y113.048 E.01294
G1 X149.702 Y113.074 E.01126
G1 X149.345 Y113.171 E.01317
G1 X148.812 Y113.452 E.02145
G1 X148.67 Y113.565 E.00649
G1 X147.449 Y114.778 E.06129
G1 X147.344 Y114.815 E.00398
G1 X147.248 Y114.758 E.00398
G1 X147.226 Y114.668 E.00329
G1 X147.283 Y114.267 E.01443
G1 X147.579 Y113.564 E.02719
G1 X148.031 Y112.988 E.02607
G1 X148.592 Y112.562 E.02507
G1 X149.276 Y112.279 E.02638
G1 X149.976 Y112.185 E.02516
G1 X150.672 Y112.266 E.02497
G1 X151.385 Y112.549 E.0273
G1 X151.995 Y113.014 E.02733
G1 X152.44 Y113.596 E.02609
G1 X152.72 Y114.275 E.02614
G1 X152.773 Y114.665 E.01402
G1 X152.748 Y114.747 E.00308
G1 E-.56 F1800
;WIPE_START
G1 F3000
G1 X152.636 Y114.813 E-.03106
G1 X152.552 Y114.776 E-.02221
G1 X151.996 Y114.232 E-.18673
;WIPE_END
G1 Z.6 F6000
G1 X118.069 Y146.622 Z.6
G1 Z.2
G1 E.8 F1800
G1 F3000
G1 X114.845 Y149.845 E.16236
G1 X114.781 Y150 E.00596
G1 X114.781 Y154.559 E.16236
G1 X113.813 Y154.431 E.0348
G1 X112.706 Y153.973 E.04265
G1 X111.756 Y153.244 E.04265
G1 X111.027 Y152.294 E.04265
G1 X110.569 Y151.187 E.04265
G1 X110.413 Y150 E.04265
G1 X110.569 Y148.813 E.04265
G1 X111.027 Y147.706 E.04265
G1 X111.756 Y146.756 E.04265
G1 X112.706 Y146.027 E.04265
G1 X113.813 Y145.569 E.04265
G1 X115 Y145.413 E.04265
G1 X116.187 Y145.569 E.04265
G1 X117.294 Y146.027 E.04265
G1 X118.037 Y146.598 E.03338
G1 X117.34 Y146.674 F6000
G1 F3000
G1 X117.302 Y146.771 E.00373
G1 X114.546 Y149.527 E.13883
G1 X114.437 Y149.69 E.00698
G1 X114.383 Y149.821 E.00504
G1 X114.344 Y150.013 E.00698
G1 X114.344 Y153.911 E.13883
G1 X114.297 Y154.012 E.00398
G1 X114.196 Y154.041 E.00373
G1 X113.944 Y154.008 E.00906
G1 X112.913 Y153.581 E.03974
G1 X112.082 Y152.943 E.03732
G1 X111.419 Y152.087 E.03853
G1 X110.992 Y151.056 E.03974
G1 X110.856 Y150.017 E.03732
G1 X110.992 Y148.944 E.03853
G1 X111.419 Y147.913 E.03974
G1 X112.057 Y147.082 E.03732
G1 X112.913 Y146.419 E.03853
G1 X113.944 Y145.992 E.03974
G1 X114.983 Y145.856 E.03732
G1 X116.056 Y145.992 E.03853
G1 X117.057 Y146.402 E.03853
G1 X117.289 Y146.574 E.01027
G1 X117.322 Y146.638 E.00256
G1 X116.612 Y146.744 F6000
G1 F3000
G1 X116.579 Y146.875 E.00483
G1 X114.244 Y149.211 E.11763
G1 X114.078 Y149.441 E.01011
G1 X113.983 Y149.644 E.00799
G1 X113.907 Y150.026 E.01385
G1 X113.907 Y153.323 E.11744
G1 X113.86 Y153.424 E.00398
G1 X113.726 Y153.444 E.00481
G1 X113.12 Y153.188 E.02344
G1 X112.406 Y152.641 E.03204
G1 X111.794 Y151.85 E.03562
G1 X111.425 Y150.958 E.03437
G1 X111.299 Y150.033 E.03325
G1 X111.425 Y149.041 E.03562
G1 X111.812 Y148.12 E.03558
G1 X112.383 Y147.382 E.03323
G1 X113.12 Y146.812 E.0332
G1 X114.075 Y146.416 E.03681
G1 X115.001 Y146.299 E.03323
G1 X115.927 Y146.417 E.03325
